;FLAVOR:RepRap
;TIME:3803
;Filament used: 3.577m
;Layer height: 0.3
;MINX:120.25
;MINY:84.748
;MINZ:0.3
;MAXX:179.736
;MAXY:115.252
;MAXZ:48
;Generated with Cura_SteamEngine 4.4.0
T0
M104 S205
M109 S205
M82 ;absolute extrusion mode
G28 ; home all axes
G92 E0 ; zero extruder
G1 Z7 ; set height for prime lin
G1 X150 E20 F500 ; prime line
M83 ;relative extrusion mode
G1 F3000 E-4
;LAYER_COUNT:222
;LAYER:0
M107
;MESH:3DBenchy.3mf
G0 F1500 X125.498 Y94.752 Z0.3
;TYPE:WALL-INNER
G1 F3000 E4
G1 F1500 X125.537 Y94.709 E0.00322
G1 X125.617 Y94.662 E0.00514
G1 X125.809 Y94.615 E0.01095
G1 X149.074 Y93.165 E1.29124
G1 X149.588 Y93.139 E0.02851
G1 X150.078 Y93.132 E0.02715
G1 X150.596 Y93.143 E0.0287
G1 X151.033 Y93.167 E0.02424
G1 X151.503 Y93.209 E0.02614
G1 X151.99 Y93.27 E0.02719
G1 X152.427 Y93.339 E0.02451
G1 X152.943 Y93.441 E0.02914
G1 X153.464 Y93.562 E0.02963
G1 X153.933 Y93.69 E0.02693
G1 X154.396 Y93.835 E0.02688
G1 X154.895 Y94.011 E0.02931
G1 X155.31 Y94.173 E0.02468
G1 X155.752 Y94.365 E0.02669
G1 X156.192 Y94.574 E0.02698
G1 X156.625 Y94.8 E0.02706
G1 X157.011 Y95.017 E0.02453
G1 X157.424 Y95.269 E0.0268
G1 X157.824 Y95.529 E0.02643
G1 X158.179 Y95.78 E0.02408
G1 X158.535 Y96.047 E0.02465
G1 X158.896 Y96.34 E0.02575
G1 X159.164 Y96.571 E0.0196
G1 X159.273 Y96.665 E0.00797
G1 X159.613 Y96.98 E0.02567
G1 X159.739 Y97.106 E0.00987
G1 X159.613 Y97.106 E0.00009
G1 X159.273 Y97.106 E0.0088
G1 X159.128 Y97.106 E0.0073
G1 X157.818 Y97.106 E0.07257
G1 X157.046 Y97.215 E0.04319
G1 X156.782 Y97.381 E0.01727
G1 X156.512 Y97.173 E0.01888
G1 X155.46 Y97.082 E0.05849
G1 X154.639 Y97.612 E0.05413
G1 X154.563 Y97.724 E0.0075
G1 X154.012 Y97.283 E0.03909
G1 X153.154 Y97.076 E0.04889
G1 X152.172 Y97.269 E0.05544
G1 X152.101 Y97.349 E0.00593
G1 X151.373 Y97.037 E0.04387
G1 X150.408 Y97.274 E0.05504
G1 X150.19 Y97.458 E0.0158
G1 X149.563 Y97.102 E0.03994
G1 X148.575 Y97.145 E0.05478
G1 X147.716 Y97.664 E0.05559
G1 X147.341 Y98.405 E0.046
G1 X147.263 Y98.56 E0.00961
G1 X147.303 Y98.945 E0.02144
G1 X147.358 Y99.459 E0.02863
G1 X147.409 Y99.568 E0.00667
G1 X147.672 Y100.123 E0.03402
G1 X147.689 Y100.159 E0.00221
G1 X147.649 Y100.134 E0.00036
G1 X146.989 Y100.003 E0.03727
G1 X146.994 Y99.765 E0.01319
G1 X146.971 Y99.492 E0.0127
G1 X146.928 Y98.985 E0.01956
G1 X146.852 Y98.657 E0.01319
G1 X146.813 Y98.488 E0.00856
G1 X146.752 Y98.231 E0.01463
G1 X146.392 Y97.424 E0.04895
G1 X145.873 Y96.733 E0.04787
G1 X145.257 Y96.228 E0.04412
G1 X144.516 Y95.891 E0.04509
G1 X143.656 Y95.72 E0.04857
G1 X143.007 Y95.675 E0.03604
G1 X142.34 Y95.676 E0.03695
G1 X141.642 Y95.656 E0.03868
G1 X140.837 Y95.792 E0.04522
G1 X140.065 Y96.317 E0.05172
G1 X139.862 Y96.101 E0.01642
G1 X139.103 Y95.693 E0.04773
G1 X138.268 Y95.515 E0.04729
G1 X137.483 Y95.497 E0.0435
G1 X136.591 Y95.649 E0.05012
G1 X135.82 Y95.997 E0.04686
G1 X135.663 Y95.834 E0.01254
G1 X134.838 Y95.663 E0.04667
G1 X134.133 Y95.676 E0.03906
G1 X133.456 Y95.671 E0.0375
G1 X131.98 Y95.671 E0.08176
G1 X131.503 Y95.681 E0.02643
G1 X130.9 Y95.635 E0.0335
G1 X130.822 Y95.628 E0.00434
G1 X129.932 Y95.81 E0.05032
G1 X129.659 Y96.1 E0.02206
G1 X129.565 Y96.02 E0.00684
G1 X128.8 Y95.657 E0.0469
G1 X127.917 Y95.501 E0.04967
G1 X127.052 Y95.524 E0.04793
G1 X126.204 Y95.725 E0.04828
G1 X125.812 Y95.927 E0.02443
G1 X125.415 Y96.13 E0.0247
G1 X125.411 Y96.134 E0.00031
G1 X125.411 Y95.688 E0.01426
G1 X125.411 Y95.041 E0.03584
G1 X125.445 Y94.862 E0.01009
G1 X125.498 Y94.752 E0.00676
G0 X129.148 Y96.665
G0 X129.659 Y97.116
G0 X129.645 Y97.982
G0 X129.722 Y98.61
G0 X129.294 Y98.937
G0 X127.527 Y99.309
G1 X127.564 Y99.331 E0.00238
G1 X127.689 Y99.406 E0.00807
G1 X127.84 Y99.496 E0.00974
G1 X128.559 Y99.781 E0.04284
G1 X129.451 Y99.726 E0.04951
G1 X129.525 Y99.721 E0.00411
G1 X129.536 Y99.712 E0.00079
G1 X130.115 Y99.269 E0.04038
G1 X130.707 Y99.438 E0.0341
G1 X130.887 Y99.419 E0.01003
G1 X130.915 Y99.416 E0.00156
G1 X130.915 Y99.436
G1 X130.917 Y99.7 E0.00847
G1 X130.915 Y100.79 E0.06038
G1 X130.914 Y101.444 E0.03623
G1 X130.917 Y101.674 E0.01274
G1 X130.922 Y102.002 E0.01817
G1 X130.886 Y102.551 E0.03048
G1 X130.872 Y102.748 E0.01094
G1 X130.971 Y103.031 E0.01661
G1 X131.192 Y103.661 E0.03698
G1 X132.069 Y104.218 E0.05755
G1 X132.92 Y104.295 E0.04733
G1 X133.5 Y104.156 E0.03304
G1 X134.22 Y103.643 E0.04897
G1 X134.48 Y103.044 E0.03617
G1 X134.585 Y102.802 E0.01461
G1 X134.599 Y102.484 E0.01763
G1 X134.618 Y102.053 E0.0239
G1 X134.604 Y101.536 E0.02865
G1 X134.602 Y101.496 E0.00222
G1 X134.607 Y100.99 E0.02803
G1 X134.607 Y100.951 E0.00216
G1 X134.607 Y99.367 E0.08774
G1 X134.943 Y99.35 E0.01864
G1 X135.391 Y99.212 E0.02597
G1 X135.492 Y99.181 E0.00585
G1 X135.585 Y99.229 E0.0058
G1 X135.486 Y99.518 E0.0105
G1 X135.599 Y100.514 E0.05553
G1 X135.615 Y100.532 E0.00133
G1 X135.67 Y100.592 E0.00451
G1 X135.638 Y100.605
G1 X135.448 Y100.685 E0.00624
G1 X135.063 Y101.252 E0.03796
G1 X135.042 Y101.284 E0.00103
G1 X134.876 Y101.528 E0.01056
G1 X134.846 Y102.065 E0.01387
G1 X134.822 Y102.493 E0.00969
G1 X134.895 Y102.682 E0.00422
G1 X134.989 Y102.928 E0.01191
G1 X135.144 Y103.328 E0.02376
G1 X135.777 Y103.944 E0.04893
G1 X136.54 Y104.282 E0.04623
G1 X137.343 Y104.424 E0.04517
G1 X138.1 Y104.423 E0.04193
G1 X138.924 Y104.266 E0.04647
G1 X139.699 Y103.883 E0.04789
G1 X140.031 Y103.581 E0.02486
G1 X140.099 Y103.52 E0.00506
G1 X140.154 Y103.613 E0.00017
G1 X140.328 Y103.907 E0.01379
G1 X141.226 Y104.307 E0.05446
G1 X142.06 Y104.251 E0.0463
G1 X142.658 Y104.259 E0.03313
G1 X143.3 Y104.243 E0.03557
G1 X144.038 Y104.151 E0.0412
G1 X144.835 Y103.902 E0.04625
G1 X144.923 Y103.846 E0.00578
G1 X145.119 Y104.096 E0.0176
G1 X145.79 Y104.552 E0.04494
G1 X146.609 Y104.757 E0.04677
G1 X147.447 Y104.663 E0.04671
G1 X148.202 Y104.286 E0.04675
G1 X148.205 Y104.283 E0.00024
G1 X149.134 Y104.525 E0.05318
G1 X150.093 Y104.159 E0.05686
G1 X150.108 Y104.141 E0.0013
G1 X150.948 Y104.506 E0.05073
G1 X150.984 Y104.502 E0.00201
G1 X150.976 Y104.519
G1 X150.881 Y104.711 E0.0113
G1 X150.986 Y105.676 E0.05377
G1 X151.367 Y106.324 E0.04164
G1 X151.465 Y106.492 E0.01077
G1 X151.615 Y106.578 E0.00958
G1 X151.905 Y106.743 E0.01848
G1 X151.494 Y106.792 E0.00762
G1 X151.3 Y106.809 E0.00873
G1 X150.989 Y106.837 E0.0173
G1 X150.516 Y106.859 E0.02623
G1 X150.034 Y106.869 E0.02671
G1 X149.516 Y106.859 E0.0287
G1 X125.86 Y105.39 E1.31292
G1 X125.638 Y105.347 E0.01253
G1 X125.559 Y105.307 E0.00491
G1 X125.508 Y105.258 E0.00392
G1 X125.454 Y105.165 E0.00596
G1 X125.421 Y105.036 E0.00738
G1 X125.411 Y104.185 E0.04714
G1 X125.409 Y103.946 E0.01324
G1 X125.407 Y103.766 E0.00997
G1 X125.643 Y103.943 E0.00699
G1 X125.863 Y104.035 E0.01004
G1 X126.459 Y104.286 E0.03582
G1 X127.244 Y104.422 E0.04413
G1 X128.016 Y104.419 E0.04276
G1 X128.844 Y104.257 E0.04674
G1 X129.606 Y103.889 E0.04687
G1 X130.234 Y103.314 E0.04717
G1 X130.484 Y102.873 E0.02808
G1 X130.631 Y102.612 E0.01283
G1 X130.674 Y102.537 E0.0005
G1 X130.743 Y101.98 E0.01131
G1 X130.782 Y101.676 E0.00447
G1 X130.716 Y101.549 E0.00116
G1 X130.412 Y100.971 E0.02578
G1 X130.302 Y100.763 E0.01303
G1 X129.496 Y100.255 E0.05278
G1 X129.484 Y100.247 E0.0008
G1 X129.464 Y100.245 E0.00099
G1 X128.55 Y100.138 E0.04086
G1 X127.746 Y100.447 E0.04771
G1 X127.571 Y100.617 E0.01351
G1 X127.54 Y100.648 E0.00243
G1 X127.499 Y100.544 E0.00006
G1 X127.491 Y100.483
G1 X127.445 Y100.151 E0.01177
G1 X127.442 Y99.821 E0.01783
G1 X127.478 Y99.477 E0.01432
G1 X127.501 Y99.398 E0.0009
G1 X127.527 Y99.309 E0.00093
G0 X131.825 Y103.159
G0 X132.322 Y103.475
G0 X138.029 Y103.662
G0 X143.246 Y103.484
G0 X143.876 Y103.404
G0 X144.511 Y103.207
G0 X145.122 Y102.801
G0 X145.631 Y101.696
G0 X146.202 Y100.85
G0 X146.804 Y100.742
G0 X147.364 Y100.853
G0 X147.853 Y101.155
G0 X148.218 Y101.644
G0 X148.067 Y102.408
G0 X148.073 Y103.133
G0 X148.522 Y103.577
G0 X152.513 Y106.212
G0 X153.062 Y106.227
G0 X153.685 Y106.054
G0 X156.148 Y103.629
G1 X156.312 Y103.869 E0.0161
G1 X156.499 Y104.144 E0.01842
G1 X157.16 Y104.402 E0.03931
G1 X157.365 Y104.482 E0.01219
G1 X157.685 Y104.471 E0.01774
G1 X157.826 Y104.465 E0.00782
G1 X157.689 Y104.56 E0.00169
G1 X157.495 Y104.684 E0.00244
G1 X157.299 Y104.81 E0.00983
G1 X157.11 Y104.922 E0.01002
G1 X156.895 Y105.049 E0.01383
G1 X156.48 Y105.276 E0.0262
G1 X156.058 Y105.489 E0.02619
G1 X155.92 Y105.553 E0.00843
G1 X155.635 Y105.685 E0.0174
G1 X155.264 Y105.842 E0.02232
G1 X155.196 Y105.871 E0.0041
G1 X155.088 Y105.913 E0.00642
G1 X155.155 Y105.836 E0.00009
G1 X155.227 Y105.755
G1 X155.339 Y105.535 E0.00325
G1 X155.481 Y105.255 E0.01412
G1 X155.626 Y104.97 E0.01771
G1 X155.97 Y104.103 E0.05167
G1 X156.021 Y103.965 E0.00492
G1 X156.148 Y103.629 E0.00836
G0 X157.495 Y103.715
G0 X159.909 Y103.685
G0 X160.672 Y103.147
G0 X161.09 Y102.409
G0 X161.76 Y99.636
G1 X161.787 Y99.681 E0.00291
G1 X161.937 Y99.928 E0.01601
G1 X161.968 Y100.002 E0.00444
G1 X161.964 Y100.016 E0.00081
G1 X161.806 Y100.291 E0.01757
G1 X161.647 Y100.545 E0.0166
G1 X161.562 Y100.679 E0.00879
G1 X161.242 Y101.142 E0.03118
G1 X160.965 Y100.994 E0.0174
G1 X160.987 Y100.963
G1 X161.311 Y100.503 E0.0175
G1 X161.393 Y100.386 E0.00413
G1 X161.521 Y100.142 E0.00833
G1 X161.669 Y99.861 E0.01062
G1 X161.676 Y99.849
G1 X161.7 Y99.804
G1 X161.753 Y99.703
G1 X161.76 Y99.636 E0.0007
G0 X161.218 Y99.539
G1 X161.288 Y98.914 E0.03484
G1 X161.293 Y98.862 E0.00289
G1 X161.199 Y98.534 E0.0189
G1 X161.114 Y98.241 E0.0169
G1 X160.765 Y97.905 E0.02684
G1 X160.629 Y97.774 E0.01046
G1 X160.6 Y97.769 E0.00163
G1 X160.486 Y97.747 E0.00643
G1 X160.03 Y97.656 E0.02576
G1 X157.857 Y97.656 E0.12037
G1 X157.239 Y97.743 E0.03457
G1 X156.75 Y98.051 E0.03201
G1 X156.304 Y97.707 E0.0312
G1 X155.6 Y97.646 E0.03914
G1 X155.031 Y98.013 E0.03751
G1 X154.715 Y98.479 E0.03119
G1 X154.708 Y98.49 E0.00072
G1 X154.664 Y98.555 E0.00435
G1 X154.593 Y98.752 E0.0116
G1 X154.55 Y98.871 E0.00701
G1 X154.507 Y98.722 E0.00178
G1 X154.471 Y98.641
G1 X154.274 Y98.197 E0.02202
G1 X154.264 Y98.189 E0.00071
G1 X153.764 Y97.789 E0.03547
G1 X153.142 Y97.639 E0.03544
G1 X152.459 Y97.773 E0.03856
G1 X152.187 Y98.078 E0.02264
G1 X152.147 Y98.123 E0.00334
G1 X152.089 Y98.043
G1 X151.983 Y97.897 E0.00628
G1 X151.325 Y97.615 E0.03966
G1 X150.664 Y97.777 E0.0377
G1 X150.175 Y98.19 E0.03546
G1 X150.163 Y98.2 E0.00087
G1 X149.998 Y97.981 E0.00946
G1 X149.429 Y97.658 E0.03624
G1 X148.739 Y97.688 E0.03826
G1 X148.136 Y98.053 E0.03905
G1 X147.827 Y98.664 E0.03793
G1 X147.895 Y99.309 E0.03593
G1 X148.17 Y99.892 E0.03571
G1 X148.461 Y100.4 E0.03243
G1 X148.675 Y100.744 E0.02244
G1 X148.578 Y100.882 E0.00934
G1 X148.557 Y100.912 E0.00203
G1 X148.408 Y101.171 E0.01655
G1 X148.4 Y101.186 E0.00094
G1 X148.382 Y101.217 E0.00199
G1 X148.291 Y101.375 E0.0101
G1 X148.167 Y101.216 E0.00406
G1 X148.145 Y101.187 E0.00193
G1 X147.995 Y100.995 E0.01271
G1 X147.95 Y100.968 E0.00291
G1 X147.444 Y100.654 E0.03299
G1 X146.809 Y100.528 E0.03586
G1 X146.463 Y100.581 E0.01939
G1 X146.402 Y100.591 E0.00342
G1 X146.419 Y100.472 E0.00014
G1 X146.432 Y100.383
G1 X146.444 Y99.783 E0.03324
G1 X146.383 Y99.071 E0.03958
G1 X146.228 Y98.407 E0.03777
G1 X145.915 Y97.705 E0.04258
G1 X145.473 Y97.116 E0.04079
G1 X144.964 Y96.699 E0.03645
G1 X144.346 Y96.418 E0.03761
G1 X143.583 Y96.266 E0.0431
G1 X142.988 Y96.225 E0.03304
G1 X142.325 Y96.226 E0.03673
G1 X141.68 Y96.207 E0.03574
G1 X141.047 Y96.314 E0.03556
G1 X140.474 Y96.704 E0.0384
G1 X140.377 Y96.993 E0.01689
G1 X140.321 Y97.159 E0.0097
G1 X140.26 Y97.338 E0.01048
G1 X140.282 Y97.658 E0.01777
G1 X140.31 Y98.061 E0.02238
G1 X140.307 Y98.314 E0.01402
G1 X140.299 Y98.767 E0.0251
G1 X140.299 Y99.045 E0.0154
G1 X140.299 Y99.47 E0.02354
G1 X140.3 Y99.576 E0.00587
G1 X140.302 Y100.093 E0.02864
G1 X140.091 Y99.577 E0.00722
G1 X139.988 Y99.471 E0.00356
G1 X140.203 Y99.045 E0.01316
G1 X140.238 Y98.76 E0.00251
G1 X140.295 Y98.314 E0.00158
G1 X140.279 Y98.064 E0.00046
G1 X140.253 Y97.661 E0.00122
G1 X140.14 Y97.388 E0.00194
G1 X140 Y97.051 E0.0119
G1 X139.88 Y96.923 E0.00812
G1 X139.523 Y96.543 E0.02888
G1 X138.912 Y96.215 E0.03841
G1 X138.204 Y96.064 E0.0401
G1 X137.523 Y96.048 E0.03773
G1 X136.753 Y96.179 E0.04327
G1 X136.117 Y96.467 E0.03867
G1 X135.783 Y96.754 E0.02439
G1 X135.384 Y96.338 E0.03193
G1 X134.787 Y96.214 E0.03378
G1 X134.139 Y96.226 E0.0359
G1 X133.454 Y96.221 E0.03795
G1 X131.986 Y96.221 E0.08132
G1 X131.493 Y96.231 E0.02731
G1 X130.857 Y96.182 E0.03533
G1 X130.213 Y96.314 E0.03642
G1 X129.715 Y96.841 E0.04016
G1 X129.709 Y96.864 E0.00132
G1 X129.264 Y96.486 E0.03234
G1 X128.631 Y96.186 E0.0388
G1 X127.876 Y96.052 E0.04248
G1 X127.124 Y96.072 E0.04167
G1 X126.396 Y96.245 E0.04145
G1 X125.726 Y96.589 E0.04172
G1 X125.365 Y96.904 E0.02654
G1 X125.156 Y97.087 E0.01539
G1 X124.86 Y97.51 E0.0286
G1 X124.86 Y97.087 E0.00531
G1 X124.86 Y96.809 E0.01217
G1 X124.861 Y94.99 E0.10076
G1 X124.919 Y94.685 E0.0172
G1 X125.035 Y94.444 E0.01482
G1 X125.187 Y94.276 E0.01255
G1 X125.409 Y94.147 E0.01422
G1 X125.723 Y94.069 E0.01792
G1 X149.04 Y92.616 E1.29412
G1 X149.58 Y92.589 E0.02995
G1 X150.081 Y92.582 E0.02775
G1 X150.608 Y92.593 E0.0292
G1 X151.082 Y92.619 E0.0263
G1 X151.566 Y92.662 E0.02692
G1 X152.059 Y92.724 E0.02752
G1 X152.533 Y92.799 E0.02658
G1 X153.061 Y92.903 E0.02981
G1 X153.589 Y93.026 E0.03003
G1 X154.097 Y93.165 E0.02917
G1 X154.579 Y93.316 E0.02798
G1 X155.078 Y93.492 E0.02931
G1 X155.516 Y93.663 E0.02605
G1 X155.988 Y93.868 E0.02851
G1 X156.436 Y94.081 E0.02748
G1 X156.879 Y94.312 E0.02768
G1 X157.297 Y94.547 E0.02656
G1 X157.71 Y94.799 E0.0268
G1 X158.124 Y95.068 E0.02735
G1 X158.509 Y95.34 E0.02611
G1 X158.882 Y95.62 E0.02584
G1 X159.255 Y95.923 E0.02662
G1 X159.632 Y96.248 E0.02757
G1 X159.987 Y96.577 E0.02681
G1 X160.357 Y96.946 E0.02895
G1 X160.612 Y97.219 E0.02069
G1 X160.691 Y97.304 E0.00601
G1 X160.897 Y97.538 E0.01431
G1 X161.002 Y97.658 E0.00533
G1 X161.326 Y98.054 E0.01644
G1 X161.338 Y98.07 E0.00111
G1 X161.602 Y98.417 E0.01684
G1 X161.708 Y98.568 E0.00798
G1 X161.738 Y98.611 E0.0028
G1 X161.89 Y98.825 E0.01454
G1 X162.177 Y99.262 E0.02896
G1 X162.427 Y99.676 E0.02679
G1 X162.442 Y99.713 E0.00221
G1 X162.515 Y99.883 E0.01025
G1 X162.528 Y100.036 E0.00851
G1 X162.476 Y100.231 E0.01118
G1 X162.283 Y100.566 E0.02142
G1 X162.025 Y100.977 E0.02688
G1 X161.746 Y101.385 E0.02738
G1 X161.469 Y101.761 E0.02587
G1 X161.354 Y101.907 E0.0103
G1 X161.243 Y102.048 E0.00994
G1 X161.175 Y101.922 E0.00166
G1 X161.027 Y101.651 E0.01146
G1 X160.563 Y101.402 E0.02917
G1 X160.459 Y101.347 E0.00652
G1 X160.079 Y101.297 E0.02123
G1 X160.181 Y101.152 E0.0004
G1 X160.248 Y101.056 E0.00556
G1 X160.923 Y100.098 E0.06492
G1 X161.218 Y99.539 E0.03501
G0 X160.927 Y98.355
G0 X160.528 Y97.971
G0 X160.006 Y97.867
G0 X157.872 Y97.867
G0 X157.313 Y97.946
G0 X156.832 Y98.27
G0 X156.919 Y99.795
G0 X157.592 Y100.26
G1 X157.541 Y100.332 E0.00489
G1 X157.195 Y100.817 E0.033
G1 X156.949 Y101.148 E0.02284
G1 X156.881 Y101.24 E0.00634
G1 X156.512 Y101.836 E0.03883
G1 X156.358 Y102.444 E0.03474
G1 X156.418 Y102.846 E0.02251
G1 X156.457 Y103.107 E0.01462
G1 X156.601 Y103.319 E0.0142
G1 X156.857 Y103.693 E0.02511
G1 X157.459 Y103.928 E0.0358
G1 X158.132 Y103.903 E0.03731
G1 X158.736 Y103.905 E0.03346
G1 X159.144 Y103.906 E0.0226
G1 X159.451 Y103.907 E0.01701
G1 X159.144 Y104.169 E0.00829
G1 X158.824 Y104.422 E0.01703
G1 X158.773 Y104.463 E0.00362
G1 X158.397 Y104.74 E0.02587
G1 X157.986 Y105.023 E0.02764
G1 X157.596 Y105.273 E0.02566
G1 X157.159 Y105.532 E0.02814
G1 X156.744 Y105.759 E0.0262
G1 X156.289 Y105.988 E0.02822
G1 X155.849 Y106.192 E0.02687
G1 X155.393 Y106.385 E0.02743
G1 X154.899 Y106.574 E0.0293
G1 X154.458 Y106.725 E0.02582
G1 X153.984 Y106.867 E0.02741
G1 X153.489 Y106.997 E0.02835
G1 X153.005 Y107.108 E0.02751
G1 X152.491 Y107.21 E0.02903
G1 X152 Y107.285 E0.02751
G1 X151.971 Y107.288 E0.00161
G1 X151.543 Y107.34 E0.02388
G1 X151.038 Y107.385 E0.02808
G1 X150.527 Y107.409 E0.02834
G1 X150.035 Y107.419 E0.02726
G1 X149.503 Y107.409 E0.02947
G1 X148.99 Y107.381 E0.02846
G1 X125.788 Y105.937 E1.28773
G1 X125.456 Y105.872 E0.01874
G1 X125.241 Y105.763 E0.01335
G1 X125.07 Y105.601 E0.01305
