; G-Code generated by Simplify3D(R) Version 4.1.2
; Apr 2, 2021 at 8:22:10 PM
; Settings Summary
;   processName,Process1
;   applyToModels,7513K214
;   profileName,NORMAL
;   profileVersion,2020-12-15 15:32:42
;   baseProfile,Wanhao Duplicator 5S Mini
;   printMaterial,PLA
;   printQuality,0.25
;   printExtruders,
;   extruderName,Primary Extruder
;   extruderToolheadNumber,0
;   extruderDiameter,0.3
;   extruderAutoWidth,1
;   extruderWidth,0.36
;   extrusionMultiplier,0.9
;   extruderUseRetract,1
;   extruderRetractionDistance,5
;   extruderExtraRestartDistance,0
;   extruderRetractionZLift,0
;   extruderRetractionSpeed,3000
;   extruderUseCoasting,0
;   extruderCoastingDistance,1.5
;   extruderUseWipe,0
;   extruderWipeDistance,5
;   primaryExtruder,0
;   layerHeight,0.25
;   topSolidLayers,3
;   bottomSolidLayers,3
;   perimeterOutlines,3
;   printPerimetersInsideOut,1
;   startPointOption,3
;   startPointOriginX,0
;   startPointOriginY,0
;   sequentialIslands,0
;   spiralVaseMode,0
;   firstLayerHeightPercentage,150
;   firstLayerWidthPercentage,100
;   firstLayerUnderspeed,0.5
;   useRaft,0
;   raftExtruder,0
;   raftTopLayers,3
;   raftBaseLayers,2
;   raftOffset,3
;   raftSeparationDistance,0.14
;   raftTopInfill,100
;   aboveRaftSpeedMultiplier,0.3
;   useSkirt,1
;   skirtExtruder,0
;   skirtLayers,2
;   skirtOutlines,2
;   skirtOffset,4
;   usePrimePillar,0
;   primePillarExtruder,999
;   primePillarWidth,12
;   primePillarLocation,7
;   primePillarSpeedMultiplier,1
;   useOozeShield,0
;   oozeShieldExtruder,999
;   oozeShieldOffset,2
;   oozeShieldOutlines,1
;   oozeShieldSidewallShape,1
;   oozeShieldSidewallAngle,30
;   oozeShieldSpeedMultiplier,1
;   infillExtruder,0
;   internalInfillPattern,Triangular
;   externalInfillPattern,Rectilinear
;   infillPercentage,30
;   outlineOverlapPercentage,15
;   infillExtrusionWidthPercentage,150
;   minInfillLength,5
;   infillLayerInterval,1
;   internalInfillAngles,0,60,-60
;   overlapInternalInfillAngles,1
;   externalInfillAngles,45,-45
;   generateSupport,0
;   supportExtruder,0
;   supportInfillPercentage,40
;   supportExtraInflation,1
;   supportBaseLayers,0
;   denseSupportExtruder,0
;   denseSupportLayers,0
;   denseSupportInfillPercentage,70
;   supportLayerInterval,1
;   supportHorizontalPartOffset,1
;   supportUpperSeparationLayers,1
;   supportLowerSeparationLayers,1
;   supportType,0
;   supportGridSpacing,4
;   maxOverhangAngle,45
;   supportAngles,0
;   temperatureName,Primary Extruder
;   temperatureNumber,0
;   temperatureSetpointCount,2
;   temperatureSetpointLayers,1,5
;   temperatureSetpointTemperatures,220,210
;   temperatureStabilizeAtStartup,1
;   temperatureHeatedBed,0
;   fanLayers,1,2
;   fanSpeeds,100,100
;   blipFanToFullPower,0
;   adjustSpeedForCooling,1
;   minSpeedLayerTime,7
;   minCoolingSpeedSlowdown,20
;   increaseFanForCooling,0
;   minFanLayerTime,45
;   maxCoolingFanSpeed,100
;   increaseFanForBridging,0
;   bridgingFanSpeed,100
;   use5D,1
;   relativeEdistances,0
;   allowEaxisZeroing,1
;   independentExtruderAxes,0
;   includeM10123,0
;   stickySupport,1
;   applyToolheadOffsets,0
;   gcodeXoffset,0
;   gcodeYoffset,0
;   gcodeZoffset,0
;   overrideMachineDefinition,0
;   machineTypeOverride,0
;   strokeXoverride,305
;   strokeYoverride,205
;   strokeZoverride,205
;   originOffsetXoverride,0
;   originOffsetYoverride,0
;   originOffsetZoverride,0
;   homeXdirOverride,-1
;   homeYdirOverride,-1
;   homeZdirOverride,-1
;   flipXoverride,1
;   flipYoverride,-1
;   flipZoverride,1
;   toolheadOffsets,0,0|0,0|0,0|0,0|0,0|0,0
;   overrideFirmwareConfiguration,1
;   firmwareTypeOverride,RepRap (Marlin/Repetier/Sprinter)
;   GPXconfigOverride,r2
;   baudRateOverride,115200
;   overridePrinterModels,1
;   printerModelsOverride
;   startingGcode,G28 ; home all axes,G1 Z 2 ; set height for prime line,G92 E0 ; zero extruder,G1 X150 E30 F400 ; prime line
;   layerChangeGcode,
;   retractionGcode,
;   toolChangeGcode,
;   endingGcode,G28 X0 ; home X axis,M104 S0 ; turn off extruder,M84 ; disable motors
;   exportFileFormat,gcode
;   celebration,0
;   celebrationSong,Random Song
;   postProcessing,
;   defaultSpeed,2400
;   outlineUnderspeed,0.5
;   solidInfillUnderspeed,0.8
;   supportUnderspeed,0.8
;   rapidXYspeed,2400
;   rapidZspeed,900
;   minBridgingArea,50
;   bridgingExtraInflation,0
;   bridgingExtrusionMultiplier,1
;   bridgingSpeedMultiplier,1
;   useFixedBridgingAngle,0
;   fixedBridgingAngle,0
;   applyBridgingToPerimeters,0
;   filamentDiameters,1.75|3|3|3|3|3
;   filamentPricesPerKg,46|46|46|46|46|46
;   filamentDensities,1.25|1.25|1.25|1.25|1.25|1.25
;   useMinPrintHeight,0
;   minPrintHeight,0
;   useMaxPrintHeight,0
;   maxPrintHeight,0
;   useDiaphragm,0
;   diaphragmLayerInterval,20
;   robustSlicing,1
;   mergeAllIntoSolid,0
;   onlyRetractWhenCrossingOutline,1
;   retractBetweenLayers,1
;   useRetractionMinTravel,1
;   retractionMinTravel,3
;   retractWhileWiping,0
;   onlyWipeOutlines,1
;   avoidCrossingOutline,1
;   maxMovementDetourFactor,3
;   toolChangeRetractionDistance,12
;   toolChangeExtraRestartDistance,-0.5
;   toolChangeRetractionSpeed,600
;   externalThinWallType,0
;   internalThinWallType,2
;   thinWallAllowedOverlapPercentage,10
;   singleExtrusionMinLength,1
;   singleExtrusionMinPrintingWidthPercentage,50
;   singleExtrusionMaxPrintingWidthPercentage,200
;   singleExtrusionEndpointExtension,0
;   horizontalSizeCompensation,0
G90
M82
M106 S255
M104 S220 T0
M109 S220 T0
G28 ; home all axes
G1 Z 2 ; set height for prime line
G92 E0 ; zero extruder
G1 X150 E30 F400 ; prime line
; process Process1
; layer 1, Z = 0.375
T0
G92 E0.0000
G1 E-5.0000 F3000
; feature skirt
; tool H0.375 W0.360
G1 Z0.375 F900
G1 X104.882 Y96.098 F2400
G1 E0.0000 F3000
G92 E0.0000
G1 X106.179 Y94.687 E0.0968 F1200
G1 X106.259 Y94.604 E0.1026
G1 X106.970 Y93.906 E0.1530
G1 X107.025 Y93.853 E0.1568
G1 X107.759 Y93.178 E0.2072
G1 X107.846 Y93.103 E0.2130
G1 X109.336 Y91.867 E0.3108
G1 X109.457 Y91.773 E0.3185
G1 X111.027 Y90.640 E0.4163
G1 X111.122 Y90.576 E0.4221
G1 X111.959 Y90.034 E0.4725
G1 X112.024 Y89.994 E0.4763
G1 X112.878 Y89.481 E0.5267
G1 X112.978 Y89.424 E0.5325
G1 X114.670 Y88.522 E0.6293
G1 X114.772 Y88.471 E0.6351
G1 X115.692 Y88.039 E0.6864
G1 X115.797 Y87.993 E0.6923
G1 X117.589 Y87.259 E0.7900
G1 X117.733 Y87.206 E0.7978
G1 X119.569 Y86.596 E0.8956
G1 X119.679 Y86.562 E0.9014
G1 X120.658 Y86.291 E0.9527
G1 X120.770 Y86.263 E0.9585
G1 X122.659 Y85.841 E1.0563
G1 X122.810 Y85.813 E1.0640
G1 X124.723 Y85.520 E1.1618
G1 X124.838 Y85.505 E1.1676
G1 X125.848 Y85.403 E1.2189
G1 X125.963 Y85.394 E1.2248
G1 X127.896 Y85.296 E1.3225
G1 X128.050 Y85.293 E1.3303
G1 X130.004 Y85.326 E1.4290
G1 X130.157 Y85.334 E1.4368
G1 X132.086 Y85.497 E1.5346
G1 X132.201 Y85.510 E1.5404
G1 X133.188 Y85.644 E1.5907
G1 X133.264 Y85.656 E1.5946
G1 X134.246 Y85.823 E1.6449
G1 X134.359 Y85.845 E1.6507
G1 X136.230 Y86.263 E1.7476
G1 X136.341 Y86.291 E1.7534
G1 X137.321 Y86.562 E1.8047
G1 X137.431 Y86.596 E1.8105
G1 X139.267 Y87.206 E1.9083
G1 X139.411 Y87.259 E1.9160
G1 X141.203 Y87.993 E2.0138
G1 X141.308 Y88.039 E2.0196
G1 X142.210 Y88.463 E2.0700
G1 X142.279 Y88.496 E2.0738
G1 X143.166 Y88.950 E2.1242
G1 X143.268 Y89.005 E2.1300
G1 X144.927 Y89.964 E2.2268
G1 X145.025 Y90.024 E2.2326
G1 X145.878 Y90.576 E2.2839
G1 X145.973 Y90.640 E2.2898
G1 X147.528 Y91.762 E2.3866
G1 X147.619 Y91.831 E2.3924
G1 X148.412 Y92.467 E2.4437
G1 X148.500 Y92.541 E2.4495
G1 X149.933 Y93.814 E2.5463
G1 X150.017 Y93.892 E2.5521
G1 X150.741 Y94.604 E2.6034
G1 X150.821 Y94.687 E2.6093
G1 X152.118 Y96.098 E2.7061
G1 X152.194 Y96.185 E2.7119
G1 X152.842 Y96.967 E2.7632
G1 X152.913 Y97.057 E2.7690
G1 X154.072 Y98.608 E2.8668
G1 X154.160 Y98.734 E2.8745
G1 X155.211 Y100.359 E2.9723
G1 X155.271 Y100.457 E2.9781
G1 X155.770 Y101.320 E3.0285
G1 X155.807 Y101.387 E3.0323
G1 X156.276 Y102.267 E3.0827
G1 X156.327 Y102.370 E3.0885
G1 X157.142 Y104.104 E3.1853
G1 X157.189 Y104.210 E3.1911
G1 X157.573 Y105.150 E3.2424
G1 X157.614 Y105.257 E3.2483
G1 X158.256 Y107.084 E3.3460
G1 X158.302 Y107.230 E3.3538
G1 X158.818 Y109.096 E3.4516
G1 X158.846 Y109.207 E3.4574
G1 X159.063 Y110.180 E3.5077
G1 X159.079 Y110.255 E3.5116
G1 X159.263 Y111.235 E3.5619
G1 X159.281 Y111.348 E3.5678
G1 X159.540 Y113.247 E3.6646
G1 X159.552 Y113.361 E3.6704
G1 X159.638 Y114.374 E3.7217
G1 X159.645 Y114.489 E3.7275
G1 X159.710 Y116.423 E3.8253
G1 X159.710 Y116.577 E3.8330
G1 X159.645 Y118.511 E3.9308
G1 X159.638 Y118.626 E3.9366
G1 X159.552 Y119.638 E3.9880
G1 X159.540 Y119.753 E3.9938
G1 X159.279 Y121.671 E4.0915
G1 X159.253 Y121.822 E4.0993
G1 X158.863 Y123.718 E4.1971
G1 X158.837 Y123.830 E4.2029
G1 X158.587 Y124.795 E4.2532
G1 X158.567 Y124.869 E4.2571
G1 X158.285 Y125.825 E4.3074
G1 X158.249 Y125.934 E4.3133
G1 X157.614 Y127.743 E4.4101
G1 X157.573 Y127.850 E4.4159
G1 X157.189 Y128.790 E4.4672
G1 X157.142 Y128.896 E4.4730
G1 X156.319 Y130.648 E4.5708
G1 X156.249 Y130.784 E4.5785
G1 X155.310 Y132.477 E4.6763
G1 X155.252 Y132.576 E4.6821
G1 X154.724 Y133.422 E4.7325
G1 X154.683 Y133.486 E4.7364
G1 X154.127 Y134.314 E4.7867
G1 X154.061 Y134.408 E4.7925
G1 X152.902 Y135.958 E4.8903
G1 X152.806 Y136.078 E4.8980
G1 X151.533 Y137.561 E4.9968
G1 X151.429 Y137.674 E5.0045
G1 X150.072 Y139.054 E5.1023
G1 X149.989 Y139.134 E5.1081
G1 X149.241 Y139.822 E5.1595
G1 X149.154 Y139.897 E5.1653
G1 X147.664 Y141.133 E5.2630
G1 X147.543 Y141.227 E5.2708
G1 X145.973 Y142.360 E5.3686
G1 X145.878 Y142.424 E5.3744
G1 X145.025 Y142.976 E5.4257
G1 X144.927 Y143.036 E5.4315
G1 X143.267 Y143.995 E5.5283
G1 X143.166 Y144.050 E5.5341
G1 X142.279 Y144.504 E5.5845
G1 X142.210 Y144.537 E5.5884
G1 X141.308 Y144.961 E5.6387
G1 X141.203 Y145.007 E5.6445
G1 X139.411 Y145.741 E5.7423
G1 X139.267 Y145.794 E5.7500
G1 X137.431 Y146.404 E5.8478
G1 X137.321 Y146.438 E5.8536
G1 X136.360 Y146.704 E5.9040
G1 X136.286 Y146.723 E5.9078
G1 X135.317 Y146.957 E5.9582
G1 X135.204 Y146.981 E5.9640
G1 X133.321 Y147.335 E6.0608
G1 X133.207 Y147.353 E6.0666
G1 X132.201 Y147.490 E6.1179
G1 X132.086 Y147.503 E6.1238
G1 X130.176 Y147.664 E6.2206
G1 X130.062 Y147.671 E6.2264
G1 X129.046 Y147.706 E6.2777
G1 X128.931 Y147.707 E6.2835
G1 X126.996 Y147.674 E6.3813
G1 X126.843 Y147.666 E6.3890
G1 X124.914 Y147.503 E6.4868
G1 X124.799 Y147.490 E6.4926
G1 X123.793 Y147.353 E6.5439
G1 X123.679 Y147.335 E6.5498
G1 X121.796 Y146.981 E6.6466
G1 X121.683 Y146.957 E6.6524
G1 X120.714 Y146.723 E6.7027
G1 X120.640 Y146.704 E6.7066
G1 X119.679 Y146.438 E6.7570
G1 X119.569 Y146.404 E6.7628
G1 X117.733 Y145.794 E6.8605
G1 X117.589 Y145.741 E6.8683
G1 X115.797 Y145.007 E6.9661
G1 X115.692 Y144.961 E6.9719
G1 X114.790 Y144.537 E7.0222
G1 X114.721 Y144.504 E7.0261
G1 X113.834 Y144.050 E7.0765
G1 X113.732 Y143.995 E7.0823
G1 X112.073 Y143.036 E7.1791
G1 X111.975 Y142.976 E7.1849
G1 X111.122 Y142.424 E7.2362
G1 X111.027 Y142.360 E7.2420
G1 X109.457 Y141.227 E7.3398
G1 X109.336 Y141.133 E7.3475
G1 X107.846 Y139.897 E7.4453
G1 X107.759 Y139.822 E7.4511
G1 X107.011 Y139.134 E7.5025
G1 X106.928 Y139.054 E7.5083
G1 X105.571 Y137.674 E7.6060
G1 X105.467 Y137.561 E7.6138
G1 X104.194 Y136.078 E7.7125
G1 X104.098 Y135.958 E7.7203
G1 X102.939 Y134.408 E7.8181
G1 X102.873 Y134.314 E7.8239
G1 X102.307 Y133.470 E7.8752
G1 X102.245 Y133.373 E7.8810
G1 X101.259 Y131.730 E7.9778
G1 X101.202 Y131.630 E7.9836
G1 X100.724 Y130.733 E8.0349
G1 X100.673 Y130.630 E8.0408
G1 X99.858 Y128.896 E8.1376
G1 X99.811 Y128.790 E8.1434
G1 X99.427 Y127.850 E8.1947
G1 X99.386 Y127.743 E8.2005
G1 X98.751 Y125.934 E8.2973
G1 X98.715 Y125.825 E8.3031
G1 X98.433 Y124.869 E8.3535
G1 X98.413 Y124.795 E8.3574
G1 X98.163 Y123.830 E8.4077
G1 X98.137 Y123.718 E8.4135
G1 X97.747 Y121.822 E8.5113
G1 X97.721 Y121.671 E8.5190
G1 X97.460 Y119.753 E8.6168
G1 X97.448 Y119.638 E8.6226
G1 X97.364 Y118.645 E8.6730
G1 X97.359 Y118.569 E8.6769
G1 X97.308 Y117.573 E8.7272
G1 X97.305 Y117.458 E8.7330
G1 X97.305 Y115.523 E8.8308
G1 X97.310 Y115.369 E8.8385
G1 X97.441 Y113.438 E8.9363
G1 X97.452 Y113.323 E8.9421
G1 X97.569 Y112.334 E8.9925
G1 X97.580 Y112.258 E8.9964
G1 X97.731 Y111.272 E9.0467
G1 X97.751 Y111.159 E9.0525
G1 X98.141 Y109.263 E9.1503
G1 X98.176 Y109.114 E9.1580
G1 X98.694 Y107.245 E9.2560
G1 X98.730 Y107.128 E9.2622
G1 X99.082 Y106.079 E9.3181
G1 X99.120 Y105.975 E9.3237
G1 X99.136 Y105.934 E9.3259
G1 X99.140 Y105.922 E9.3265
G1 X99.176 Y105.824 E9.3318
G1 X99.793 Y104.254 E9.4170
G1 X99.851 Y104.119 E9.4244
G1 X100.673 Y102.370 E9.5221
G1 X100.724 Y102.267 E9.5279
G1 X101.202 Y101.370 E9.5792
G1 X101.259 Y101.270 E9.5850
G1 X102.245 Y99.627 E9.6818
G1 X102.307 Y99.530 E9.6876
G1 X102.873 Y98.686 E9.7390
G1 X102.939 Y98.592 E9.7448
G1 X104.087 Y97.057 E9.8416
G1 X104.158 Y96.967 E9.8474
G1 X104.806 Y96.185 E9.8987
G1 X104.882 Y96.098 E9.9045
G1 X105.150 Y96.339 F2400
G92 E0.0000
G1 X106.441 Y94.934 E0.0964 F1200
G1 X106.514 Y94.858 E0.1017
G1 X107.220 Y94.164 E0.1517
G1 X107.271 Y94.116 E0.1552
G1 X107.999 Y93.447 E0.2052
G1 X108.079 Y93.377 E0.2105
G1 X109.561 Y92.148 E0.3078
G1 X109.672 Y92.061 E0.3149
G1 X111.234 Y90.935 E0.4122
G1 X111.321 Y90.875 E0.4175
G1 X112.152 Y90.338 E0.4675
G1 X112.211 Y90.301 E0.4710
G1 X113.060 Y89.792 E0.5210
G1 X113.152 Y89.740 E0.5264
G1 X114.835 Y88.842 E0.6227
G1 X114.930 Y88.795 E0.6281
G1 X115.841 Y88.367 E0.6789
G1 X115.938 Y88.324 E0.6843
G1 X117.719 Y87.595 E0.7815
G1 X117.852 Y87.546 E0.7886
G1 X119.679 Y86.939 E0.8859
G1 X119.780 Y86.908 E0.8912
G1 X120.750 Y86.639 E0.9421
G1 X120.853 Y86.613 E0.9474
G1 X122.732 Y86.194 E1.0447
G1 X122.871 Y86.168 E1.0518
G1 X124.773 Y85.876 E1.1491
G1 X124.879 Y85.863 E1.1544
G1 X125.880 Y85.761 E1.2053
G1 X125.986 Y85.753 E1.2106
G1 X127.908 Y85.656 E1.3079
G1 X128.050 Y85.653 E1.3150
G1 X129.992 Y85.686 E1.4131
G1 X130.133 Y85.693 E1.4203
G1 X132.051 Y85.856 E1.5175
G1 X132.157 Y85.867 E1.5229
G1 X133.137 Y86.000 E1.5728
G1 X133.206 Y86.011 E1.5764
G1 X134.181 Y86.177 E1.6264
G1 X134.285 Y86.198 E1.6317
G1 X136.147 Y86.613 E1.7281
G1 X136.250 Y86.639 E1.7334
G1 X137.220 Y86.908 E1.7843
G1 X137.321 Y86.939 E1.7896
G1 X139.148 Y87.546 E1.8869
G1 X139.281 Y87.595 E1.8940
G1 X141.062 Y88.324 E1.9912
G1 X141.159 Y88.367 E1.9966
G1 X142.054 Y88.787 E2.0465
G1 X142.118 Y88.818 E2.0501
G1 X142.998 Y89.269 E2.1001
G1 X143.091 Y89.319 E2.1054
G1 X144.743 Y90.273 E2.2018
G1 X144.834 Y90.328 E2.2071
G1 X145.679 Y90.875 E2.2580
G1 X145.766 Y90.935 E2.2633
G1 X147.313 Y92.051 E2.3597
G1 X147.398 Y92.115 E2.3650
G1 X148.183 Y92.745 E2.4159
G1 X148.264 Y92.813 E2.4212
G1 X149.690 Y94.080 E2.5176
G1 X149.768 Y94.152 E2.5229
G1 X150.486 Y94.858 E2.5738
G1 X150.559 Y94.934 E2.5792
G1 X151.850 Y96.339 E2.6755
G1 X151.919 Y96.418 E2.6809
G1 X152.562 Y97.193 E2.7317
G1 X152.628 Y97.276 E2.7371
G1 X153.780 Y98.818 E2.8343
G1 X153.861 Y98.934 E2.8414
G1 X154.907 Y100.551 E2.9387
G1 X154.962 Y100.641 E2.9440
G1 X155.456 Y101.498 E2.9940
G1 X155.491 Y101.559 E2.9976
G1 X155.956 Y102.432 E3.0475
G1 X156.004 Y102.527 E3.0529
G1 X156.815 Y104.253 E3.1492
G1 X156.857 Y104.350 E3.1546
G1 X157.238 Y105.282 E3.2054
G1 X157.276 Y105.381 E3.2108
G1 X157.914 Y107.197 E3.3080
G1 X157.956 Y107.332 E3.3152
G1 X158.470 Y109.187 E3.4124
G1 X158.496 Y109.290 E3.4178
G1 X158.711 Y110.255 E3.4677
G1 X158.726 Y110.324 E3.4713
G1 X158.908 Y111.297 E3.5212
G1 X158.925 Y111.401 E3.5266
G1 X159.182 Y113.291 E3.6230
G1 X159.194 Y113.396 E3.6283
G1 X159.279 Y114.400 E3.6792
G1 X159.285 Y114.505 E3.6845
G1 X159.350 Y116.429 E3.7818
G1 X159.350 Y116.571 E3.7889
G1 X159.285 Y118.495 E3.8861
G1 X159.279 Y118.600 E3.8915
G1 X159.194 Y119.604 E3.9423
G1 X159.182 Y119.709 E3.9477
G1 X158.923 Y121.616 E4.0449
G1 X158.899 Y121.756 E4.0521
G1 X158.512 Y123.641 E4.1493
G1 X158.488 Y123.744 E4.1547
G1 X158.240 Y124.702 E4.2046
G1 X158.221 Y124.770 E4.2082
G1 X157.941 Y125.719 E4.2581
G1 X157.908 Y125.819 E4.2635
G1 X157.276 Y127.619 E4.3598
G1 X157.238 Y127.718 E4.3652
G1 X156.857 Y128.650 E4.4161
G1 X156.815 Y128.747 E4.4214
G1 X155.996 Y130.489 E4.5186
G1 X155.932 Y130.615 E4.5258
