; G-Code generated by Simplify3D(R) Version 4.1.2
; Mar 24, 2021 at 7:03:25 PM
; Settings Summary
;   processName,Process1
;   applyToModels,Body7,Body19,Body1
;   profileName,NORMAL
;   profileVersion,2020-12-15 15:32:42
;   baseProfile,Wanhao Duplicator 5S Mini
;   printMaterial,PLA
;   printQuality,0.15
;   printExtruders,
;   extruderName,Primary Extruder
;   extruderToolheadNumber,0
;   extruderDiameter,0.3
;   extruderAutoWidth,1
;   extruderWidth,0.36
;   extrusionMultiplier,0.9
;   extruderUseRetract,1
;   extruderRetractionDistance,5
;   extruderExtraRestartDistance,0
;   extruderRetractionZLift,0
;   extruderRetractionSpeed,3000
;   extruderUseCoasting,0
;   extruderCoastingDistance,1.5
;   extruderUseWipe,0
;   extruderWipeDistance,5
;   primaryExtruder,0
;   layerHeight,0.15
;   topSolidLayers,3
;   bottomSolidLayers,3
;   perimeterOutlines,3
;   printPerimetersInsideOut,1
;   startPointOption,3
;   startPointOriginX,0
;   startPointOriginY,0
;   sequentialIslands,0
;   spiralVaseMode,0
;   firstLayerHeightPercentage,150
;   firstLayerWidthPercentage,100
;   firstLayerUnderspeed,0.5
;   useRaft,0
;   raftExtruder,0
;   raftTopLayers,3
;   raftBaseLayers,2
;   raftOffset,3
;   raftSeparationDistance,0.14
;   raftTopInfill,100
;   aboveRaftSpeedMultiplier,0.3
;   useSkirt,1
;   skirtExtruder,0
;   skirtLayers,2
;   skirtOutlines,2
;   skirtOffset,4
;   usePrimePillar,0
;   primePillarExtruder,999
;   primePillarWidth,12
;   primePillarLocation,7
;   primePillarSpeedMultiplier,1
;   useOozeShield,0
;   oozeShieldExtruder,999
;   oozeShieldOffset,2
;   oozeShieldOutlines,1
;   oozeShieldSidewallShape,1
;   oozeShieldSidewallAngle,30
;   oozeShieldSpeedMultiplier,1
;   infillExtruder,0
;   internalInfillPattern,Triangular
;   externalInfillPattern,Rectilinear
;   infillPercentage,30
;   outlineOverlapPercentage,15
;   infillExtrusionWidthPercentage,150
;   minInfillLength,5
;   infillLayerInterval,1
;   internalInfillAngles,0,60,-60
;   overlapInternalInfillAngles,1
;   externalInfillAngles,45,-45
;   generateSupport,0
;   supportExtruder,0
;   supportInfillPercentage,40
;   supportExtraInflation,1
;   supportBaseLayers,0
;   denseSupportExtruder,0
;   denseSupportLayers,0
;   denseSupportInfillPercentage,70
;   supportLayerInterval,1
;   supportHorizontalPartOffset,1
;   supportUpperSeparationLayers,1
;   supportLowerSeparationLayers,1
;   supportType,0
;   supportGridSpacing,4
;   maxOverhangAngle,45
;   supportAngles,0
;   temperatureName,Primary Extruder
;   temperatureNumber,0
;   temperatureSetpointCount,2
;   temperatureSetpointLayers,1,5
;   temperatureSetpointTemperatures,220,210
;   temperatureStabilizeAtStartup,1
;   temperatureHeatedBed,0
;   fanLayers,1,2
;   fanSpeeds,100,100
;   blipFanToFullPower,0
;   adjustSpeedForCooling,1
;   minSpeedLayerTime,7
;   minCoolingSpeedSlowdown,20
;   increaseFanForCooling,0
;   minFanLayerTime,45
;   maxCoolingFanSpeed,100
;   increaseFanForBridging,0
;   bridgingFanSpeed,100
;   use5D,1
;   relativeEdistances,0
;   allowEaxisZeroing,1
;   independentExtruderAxes,0
;   includeM10123,0
;   stickySupport,1
;   applyToolheadOffsets,0
;   gcodeXoffset,0
;   gcodeYoffset,0
;   gcodeZoffset,0
;   overrideMachineDefinition,0
;   machineTypeOverride,0
;   strokeXoverride,305
;   strokeYoverride,205
;   strokeZoverride,205
;   originOffsetXoverride,0
;   originOffsetYoverride,0
;   originOffsetZoverride,0
;   homeXdirOverride,-1
;   homeYdirOverride,-1
;   homeZdirOverride,-1
;   flipXoverride,1
;   flipYoverride,-1
;   flipZoverride,1
;   toolheadOffsets,0,0|0,0|0,0|0,0|0,0|0,0
;   overrideFirmwareConfiguration,1
;   firmwareTypeOverride,RepRap (Marlin/Repetier/Sprinter)
;   GPXconfigOverride,r2
;   baudRateOverride,115200
;   overridePrinterModels,1
;   printerModelsOverride
;   startingGcode,G28 ; home all axes,G1 Z 2 ; set height for prime line,G92 E0 ; zero extruder,G1 X150 E30 F400 ; prime line
;   layerChangeGcode,
;   retractionGcode,
;   toolChangeGcode,
;   endingGcode,G28 X0 ; home X axis,M104 S0 ; turn off extruder,M84 ; disable motors
;   exportFileFormat,gcode
;   celebration,0
;   celebrationSong,Random Song
;   postProcessing,
;   defaultSpeed,2400
;   outlineUnderspeed,0.5
;   solidInfillUnderspeed,0.8
;   supportUnderspeed,0.8
;   rapidXYspeed,2400
;   rapidZspeed,900
;   minBridgingArea,50
;   bridgingExtraInflation,0
;   bridgingExtrusionMultiplier,1
;   bridgingSpeedMultiplier,1
;   useFixedBridgingAngle,0
;   fixedBridgingAngle,0
;   applyBridgingToPerimeters,0
;   filamentDiameters,1.75|3|3|3|3|3
;   filamentPricesPerKg,46|46|46|46|46|46
;   filamentDensities,1.25|1.25|1.25|1.25|1.25|1.25
;   useMinPrintHeight,0
;   minPrintHeight,0
;   useMaxPrintHeight,0
;   maxPrintHeight,0
;   useDiaphragm,0
;   diaphragmLayerInterval,20
;   robustSlicing,1
;   mergeAllIntoSolid,0
;   onlyRetractWhenCrossingOutline,1
;   retractBetweenLayers,1
;   useRetractionMinTravel,1
;   retractionMinTravel,3
;   retractWhileWiping,0
;   onlyWipeOutlines,1
;   avoidCrossingOutline,1
;   maxMovementDetourFactor,3
;   toolChangeRetractionDistance,12
;   toolChangeExtraRestartDistance,-0.5
;   toolChangeRetractionSpeed,600
;   externalThinWallType,0
;   internalThinWallType,2
;   thinWallAllowedOverlapPercentage,10
;   singleExtrusionMinLength,1
;   singleExtrusionMinPrintingWidthPercentage,50
;   singleExtrusionMaxPrintingWidthPercentage,200
;   singleExtrusionEndpointExtension,0
;   horizontalSizeCompensation,0
G90
M82
M106 S255
M104 S220 T0
M109 S220 T0
G28 ; home all axes
G1 Z 2 ; set height for prime line
G92 E0 ; zero extruder
G1 X150 E30 F400 ; prime line
; process Process1
; layer 1, Z = 0.225
T0
G92 E0.0000
G1 E-5.0000 F3000
; feature skirt
; tool H0.225 W0.360
G1 Z0.225 F900
G1 X91.697 Y89.633 F2400
G1 E0.0000 F3000
G92 E0.0000
G1 X100.521 Y89.644 E0.2674 F1200
G1 X100.943 Y89.684 E0.2803
G1 X101.730 Y89.834 E0.3046
G1 X102.140 Y89.953 E0.3175
G1 X102.936 Y90.267 E0.3435
G1 X103.407 Y90.520 E0.3596
G1 X104.349 Y91.179 E0.3945
G1 X104.817 Y91.617 E0.4139
G1 X105.538 Y92.513 E0.4488
G1 X105.822 Y92.965 E0.4650
G1 X106.143 Y93.642 E0.4876
G1 X106.225 Y93.838 E0.4941
G1 X106.536 Y94.692 E0.5217
G1 X106.960 Y94.711 E0.5345
G1 X106.960 Y92.295 E0.6078
G1 X109.619 Y89.636 E0.7217
G1 X118.149 Y89.635 E0.9803
G1 X118.362 Y89.645 E0.9867
G1 X119.054 Y89.710 E1.0078
G1 X119.474 Y89.790 E1.0207
G1 X120.245 Y90.013 E1.0451
G1 X120.642 Y90.170 E1.0580
G1 X121.357 Y90.533 E1.0823
G1 X121.718 Y90.762 E1.0953
G1 X122.353 Y91.252 E1.1196
G1 X122.665 Y91.544 E1.1325
G1 X123.197 Y92.145 E1.1569
G1 X123.449 Y92.490 E1.1698
G1 X123.859 Y93.178 E1.1941
G1 X124.040 Y93.560 E1.2069
G1 X124.441 Y94.656 E1.2423
G1 X124.886 Y94.735 E1.2560
G1 X124.886 Y92.294 E1.3299
G1 X127.546 Y89.635 E1.4439
G1 X165.307 Y89.635 E2.5884
G1 X167.966 Y92.294 E2.7024
G1 X167.966 Y128.609 E3.8030
G1 X165.307 Y131.268 E3.9170
G1 X127.546 Y131.268 E5.0615
G1 X124.886 Y128.609 E5.1755
G1 X124.886 Y106.444 E5.8473
G1 X124.701 Y106.498 E5.8531
G1 X124.387 Y106.591 E5.8630
G1 X124.379 Y106.592 E5.8633
G1 X124.366 Y106.596 E5.8637
G1 X123.450 Y106.738 E5.8918
G1 X123.101 Y106.765 E5.9024
G1 X122.494 Y106.765 E5.9208
G1 X122.436 Y129.233 E6.6017
G1 X123.205 Y129.495 E6.6264
G1 X123.544 Y129.643 E6.6376
G1 X124.559 Y130.186 E6.6725
G1 X124.870 Y130.387 E6.6837
G1 X125.543 Y130.905 E6.7094
G1 X125.759 Y131.093 E6.7181
G1 X127.439 Y132.759 E6.7898
G1 X127.641 Y132.989 E6.7991
G1 X128.075 Y133.554 E6.8207
G1 X128.373 Y134.069 E6.8387
G1 X128.700 Y134.860 E6.8647
G1 X128.855 Y135.436 E6.8827
G1 X128.947 Y136.137 E6.9042
G1 X128.966 Y136.433 E6.9132
G1 X128.966 Y138.523 E6.9765
G1 X128.932 Y138.918 E6.9885
G1 X128.781 Y139.774 E7.0149
G1 X128.400 Y140.693 E7.0450
G1 X127.681 Y141.719 E7.0830
G1 X126.948 Y142.391 E7.1131
G1 X126.023 Y142.925 E7.1455
G1 X125.277 Y143.197 E7.1696
G1 X124.519 Y143.330 E7.1929
G1 X124.124 Y143.365 E7.2049
G1 X121.003 Y143.365 E7.2995
G1 X120.657 Y143.339 E7.3100
G1 X119.992 Y143.236 E7.3304
G1 X119.330 Y143.027 E7.3515
G1 X118.570 Y142.653 E7.3771
G1 X118.001 Y142.255 E7.3982
G1 X117.390 Y141.669 E7.4238
G1 X116.967 Y141.118 E7.4449
G1 X116.645 Y140.532 E7.4652
G1 X116.599 Y140.430 E7.4685
G1 X110.589 Y140.430 E7.6507
G1 X110.563 Y140.501 E7.6530
G1 X110.166 Y141.189 E7.6770
G1 X109.479 Y142.007 E7.7094
G1 X108.691 Y142.612 E7.7396
G1 X107.558 Y143.141 E7.7774
G1 X106.593 Y143.356 E7.8074
G1 X103.086 Y143.365 E7.9137
G1 X102.734 Y143.339 E7.9244
G1 X102.066 Y143.236 E7.9449
G1 X101.403 Y143.027 E7.9659
G1 X100.644 Y142.653 E7.9916
G1 X100.075 Y142.254 E8.0127
G1 X99.463 Y141.669 E8.0383
G1 X99.040 Y141.118 E8.0594
G1 X98.718 Y140.532 E8.0796
G1 X98.672 Y140.430 E8.0830
G1 X91.693 Y140.430 E8.2945
G1 X89.034 Y137.771 E8.4085
G1 X89.034 Y92.293 E9.7869
G1 X91.697 Y89.633 E9.9010
G1 X91.846 Y89.993 F2400
G92 E0.0000
G1 X100.504 Y90.004 E0.2624 F1200
G1 X100.893 Y90.041 E0.2742
G1 X101.646 Y90.184 E0.2975
G1 X102.024 Y90.294 E0.3094
G1 X102.785 Y90.594 E0.3342
G1 X103.218 Y90.827 E0.3491
G1 X104.121 Y91.460 E0.3825
G1 X104.552 Y91.863 E0.4004
G1 X105.244 Y92.722 E0.4339
G1 X105.505 Y93.138 E0.4488
G1 X105.814 Y93.788 E0.4706
G1 X105.889 Y93.969 E0.4765
G1 X106.280 Y95.041 E0.5111
G1 X107.083 Y95.077 E0.5355
G1 X107.320 Y95.163 E0.5431
G1 X107.320 Y92.444 E0.6255
G1 X109.768 Y89.996 E0.7305
G1 X118.140 Y89.995 E0.9842
G1 X118.336 Y90.004 E0.9902
G1 X119.004 Y90.067 E1.0105
G1 X119.390 Y90.141 E1.0224
G1 X120.128 Y90.354 E1.0457
G1 X120.494 Y90.499 E1.0576
G1 X121.179 Y90.847 E1.0809
G1 X121.512 Y91.057 E1.0928
G1 X122.120 Y91.527 E1.1161
G1 X122.407 Y91.795 E1.1280
G1 X122.916 Y92.371 E1.1513
G1 X123.148 Y92.688 E1.1632
G1 X123.541 Y93.347 E1.1865
G1 X123.708 Y93.699 E1.1983
G1 X124.196 Y95.035 E1.2414
G1 X124.411 Y95.016 E1.2479
G1 X125.246 Y95.164 E1.2736
G1 X125.246 Y92.444 E1.3561
G1 X127.695 Y89.995 E1.4610
G1 X165.158 Y89.995 E2.5965
G1 X167.606 Y92.444 E2.7014
G1 X167.606 Y128.460 E3.7930
G1 X165.158 Y130.908 E3.8980
G1 X127.695 Y130.908 E5.0334
G1 X125.246 Y128.460 E5.1383
G1 X125.246 Y105.900 E5.8221
G1 X124.830 Y106.085 E5.8359
G1 X124.815 Y106.089 E5.8364
G1 X124.810 Y106.091 E5.8365
G1 X124.600 Y106.153 E5.8432
G1 X124.307 Y106.239 E5.8524
G1 X124.300 Y106.240 E5.8526
G1 X124.288 Y106.244 E5.8530
G1 X123.408 Y106.380 E5.8800
G1 X123.087 Y106.405 E5.8898
G1 X122.135 Y106.405 E5.9186
G1 X122.076 Y129.506 E6.6188
G1 X122.259 Y129.553 E6.6245
G1 X123.074 Y129.831 E6.6506
G1 X123.387 Y129.967 E6.6610
G1 X124.376 Y130.497 E6.6950
G1 X124.662 Y130.682 E6.7053
G1 X125.315 Y131.183 E6.7302
G1 X125.514 Y131.357 E6.7382
G1 X127.177 Y133.006 E6.8092
G1 X127.363 Y133.218 E6.8178
G1 X127.775 Y133.754 E6.8383
G1 X128.049 Y134.229 E6.8549
G1 X128.359 Y134.976 E6.8794
G1 X128.501 Y135.506 E6.8960
G1 X128.588 Y136.172 E6.9164
G1 X128.606 Y136.445 E6.9247
G1 X128.606 Y138.507 E6.9872
G1 X128.574 Y138.871 E6.9982
G1 X128.433 Y139.673 E7.0229
G1 X128.083 Y140.519 E7.0507
G1 X127.409 Y141.481 E7.0863
G1 X126.734 Y142.099 E7.1140
G1 X125.870 Y142.598 E7.1442
G1 X125.183 Y142.848 E7.1664
G1 X124.472 Y142.973 E7.1883
G1 X124.109 Y143.005 E7.1993
G1 X121.017 Y143.005 E7.2931
G1 X120.698 Y142.981 E7.3027
G1 X120.074 Y142.885 E7.3219
G1 X119.464 Y142.692 E7.3413
G1 X118.754 Y142.342 E7.3653
G1 X118.230 Y141.975 E7.3846
G1 X117.658 Y141.428 E7.4086
G1 X117.269 Y140.921 E7.4280
G1 X116.967 Y140.370 E7.4470
G1 X116.837 Y140.085 E7.4565
G1 X116.832 Y140.070 E7.4570
G1 X110.337 Y140.070 E7.6539
G1 X110.236 Y140.348 E7.6628
G1 X109.870 Y140.982 E7.6850
G1 X109.229 Y141.745 E7.7152
G1 X108.503 Y142.303 E7.7430
G1 X107.441 Y142.798 E7.7785
G1 X106.553 Y142.996 E7.8061
G1 X103.099 Y143.005 E7.9108
G1 X102.775 Y142.981 E7.9206
G1 X102.148 Y142.885 E7.9398
G1 X101.538 Y142.692 E7.9592
G1 X100.828 Y142.342 E7.9832
G1 X100.304 Y141.975 E8.0026
G1 X99.732 Y141.428 E8.0266
G1 X99.343 Y140.921 E8.0460
G1 X99.040 Y140.370 E8.0650
G1 X98.911 Y140.085 E8.0745
G1 X98.905 Y140.070 E8.0750
G1 X91.842 Y140.070 E8.2890
G1 X89.394 Y137.622 E8.3940
G1 X89.394 Y92.443 E9.7633
G1 X91.846 Y89.993 E9.8683
G92 E0.0000
G1 E-5.0000 F3000
; feature inner perimeter
G1 X93.754 Y94.356 F2400
G1 X94.101 Y94.356
G1 X94.474 Y95.077
G1 E0.0000 F3000
G92 E0.0000
G1 X96.461 Y95.079 E0.0602 F900
G1 X96.096 Y95.522 E0.0776
G1 X95.650 Y96.195 E0.1021
G1 X95.439 Y96.574 E0.1153
G1 X95.165 Y97.174 E0.1352
G1 X95.085 Y97.667 E0.1504
G1 X95.134 Y98.141 E0.1648
G1 X95.228 Y98.440 E0.1743
G1 X95.443 Y98.831 E0.1879
G1 X95.657 Y99.083 E0.1979
G1 X95.400 Y99.562 E0.2144
G1 X95.319 Y100.050 E0.2293
G1 X95.400 Y100.538 E0.2443
G1 X95.634 Y100.973 E0.2593
G1 X96.146 Y101.450 E0.2805
G1 X99.141 Y101.450 E0.3713
G1 X99.061 Y132.650 E1.3169
G1 X95.146 Y132.650 E1.4356
G1 X94.474 Y133.276 E1.4634
G1 X94.474 Y95.077 E2.6212
G1 X96.505 Y96.208 F2400
G1 X96.266 Y96.570
G1 X96.082 Y96.899
G1 X95.860 Y97.385
G1 X95.811 Y97.688
G1 X95.843 Y97.994
G1 X95.893 Y98.156
G1 X96.039 Y98.421
G1 X96.149 Y98.550
G1 X96.391 Y98.740
G1 X96.680 Y98.863
G1 X96.980 Y98.903
G1 X100.831 Y98.894
G1 X101.002 Y98.858
G1 X101.147 Y98.794
G1 X101.864 Y99.194
G92 E0.0000
G1 X102.051 Y99.041 E0.0073 F900
G1 X102.243 Y98.803 E0.0166
G1 X103.158 Y101.318 E0.0977
G1 X102.646 Y101.316 E0.1132
G1 X101.864 Y99.194 E0.1818
G1 X101.875 Y101.306 F2400
G1 X101.162 Y99.370
G1 X96.429 Y99.370
G1 X96.212 Y99.572
G1 X96.091 Y99.798
G1 X96.049 Y100.050
G1 X96.091 Y100.302
G1 X96.212 Y100.528
G1 X96.429 Y100.730
G1 X99.038 Y100.730
G1 X99.262 Y100.759
G1 X99.459 Y100.841
G1 X99.633 Y100.975
G1 X99.696 Y101.047
G1 X99.806 Y101.237
G1 X99.861 Y101.443
G1 X99.781 Y132.544
G1 X99.778 Y132.649
G1 X99.732 Y132.847
G1 X99.635 Y133.034
G1 X99.499 Y133.184
G1 X99.426 Y133.238
G1 X99.238 Y133.330
G1 X99.032 Y133.370
G1 X95.429 Y133.370
G1 X95.212 Y133.572
G1 X95.091 Y133.798
G1 X95.050 Y134.043
G1 X95.061 Y134.178
G1 X95.094 Y134.309
G1 X95.212 Y134.528
G1 X95.429 Y134.730
G1 X101.191 Y134.730
G1 X101.477 Y133.662
G1 X101.863 Y133.613
G1 X102.039 Y133.613
G1 X102.043 Y134.333
G92 E0.0000
G1 X102.326 Y134.334 E0.0086 F900
G1 X102.498 Y134.352 E0.0138
G1 X102.908 Y134.434 E0.0265
G1 X103.304 Y134.569 E0.0392
G1 X103.461 Y134.641 E0.0444
G1 X103.823 Y134.850 E0.0571
G1 X104.144 Y135.097 E0.0694
G1 X105.557 Y136.498 E0.1297
G1 X105.585 Y136.547 E0.1314
G1 X105.600 Y136.601 E0.1331
G1 X105.594 Y137.919 E0.1730
G1 X103.529 Y137.924 E0.2356
G1 X102.829 Y136.020 E0.2971
G1 X102.585 Y135.660 E0.3103
G1 X102.374 Y135.447 E0.3194
G1 X102.014 Y135.200 E0.3326
G1 X101.829 Y135.131 E0.3386
G1 X102.043 Y134.333 E0.3636
G1 X101.885 Y133.973 F2400
G92 E0.0000
G1 X102.345 Y133.974 E0.0139 F900
G1 X102.551 Y133.995 E0.0202
G1 X103.002 Y134.086 E0.0342
G1 X103.437 Y134.234 E0.0481
G1 X103.626 Y134.320 E0.0544
G1 X104.023 Y134.550 E0.0683
G1 X104.382 Y134.826 E0.0820
G1 X105.813 Y136.245 E0.1431
G1 X105.852 Y136.289 E0.1449
G1 X105.920 Y136.408 E0.1490
G1 X105.956 Y136.540 E0.1532
G1 X105.960 Y136.598 E0.1549
G1 X105.953 Y138.278 E0.2058
G1 X103.278 Y138.285 E0.2869
G1 X102.506 Y136.186 E0.3547
G1 X102.305 Y135.890 E0.3655
G1 X102.142 Y135.725 E0.3726
G1 X101.846 Y135.521 E0.3835
G1 X101.405 Y135.356 E0.3977
G1 X101.453 Y135.090 E0.4059
G1 X101.467 Y135.090 E0.4064
G1 X101.763 Y133.989 E0.4409
G1 X101.885 Y133.973 E0.4447
G1 X99.392 Y132.721 F2400
G92 E0.0000
G1 X99.337 Y132.826 E0.0036 F900
G1 X99.248 Y132.925 E0.0076
G1 X99.122 Y132.985 E0.0118
G1 X98.997 Y133.010 E0.0157
G1 X95.287 Y133.010 E0.1281
G1 X94.923 Y133.350 E0.1432
G1 X94.745 Y133.680 E0.1546
G1 X94.688 Y134.028 E0.1653
G1 X94.705 Y134.237 E0.1716
G1 X94.756 Y134.440 E0.1780
G1 X94.923 Y134.750 E0.1887
G1 X95.567 Y135.350 E0.2153
G1 X94.114 Y135.350 E0.2594
G1 X94.114 Y94.716 E1.4909
G1 X97.308 Y94.720 E1.5878
G1 X96.884 Y95.131 E1.6057
G1 X96.386 Y95.737 E1.6294
G1 X95.958 Y96.382 E1.6529
G1 X95.761 Y96.737 E1.6652
G1 X95.513 Y97.279 E1.6833
G1 X95.448 Y97.677 E1.6955
G1 X95.488 Y98.067 E1.7074
G1 X95.561 Y98.298 E1.7147
G1 X95.741 Y98.626 E1.7261
G1 X95.898 Y98.810 E1.7334
G1 X96.225 Y99.068 E1.7460
G1 X95.923 Y99.350 E1.7585
G1 X95.745 Y99.680 E1.7699
