; G-Code generated by Simplify3D(R) Version 4.1.2
; Apr 4, 2021 at 10:21:33 PM
; Settings Summary
;   processName,Process1
;   applyToModels,Body13
;   profileName,NORMAL
;   profileVersion,2021-04-03 23:45:23
;   baseProfile,Wanhao Duplicator 5S Mini
;   printMaterial,PLA
;   printQuality,0.25
;   printExtruders,
;   extruderName,Primary Extruder
;   extruderToolheadNumber,0
;   extruderDiameter,0.3
;   extruderAutoWidth,1
;   extruderWidth,0.36
;   extrusionMultiplier,0.9
;   extruderUseRetract,1
;   extruderRetractionDistance,5
;   extruderExtraRestartDistance,0
;   extruderRetractionZLift,0
;   extruderRetractionSpeed,3000
;   extruderUseCoasting,0
;   extruderCoastingDistance,1.5
;   extruderUseWipe,0
;   extruderWipeDistance,5
;   primaryExtruder,0
;   layerHeight,0.25
;   topSolidLayers,3
;   bottomSolidLayers,3
;   perimeterOutlines,3
;   printPerimetersInsideOut,1
;   startPointOption,3
;   startPointOriginX,0
;   startPointOriginY,0
;   sequentialIslands,0
;   spiralVaseMode,0
;   firstLayerHeightPercentage,150
;   firstLayerWidthPercentage,100
;   firstLayerUnderspeed,0.5
;   useRaft,0
;   raftExtruder,0
;   raftTopLayers,3
;   raftBaseLayers,2
;   raftOffset,3
;   raftSeparationDistance,0.14
;   raftTopInfill,100
;   aboveRaftSpeedMultiplier,0.3
;   useSkirt,1
;   skirtExtruder,0
;   skirtLayers,2
;   skirtOutlines,2
;   skirtOffset,4
;   usePrimePillar,0
;   primePillarExtruder,999
;   primePillarWidth,12
;   primePillarLocation,7
;   primePillarSpeedMultiplier,1
;   useOozeShield,0
;   oozeShieldExtruder,999
;   oozeShieldOffset,2
;   oozeShieldOutlines,1
;   oozeShieldSidewallShape,1
;   oozeShieldSidewallAngle,30
;   oozeShieldSpeedMultiplier,1
;   infillExtruder,0
;   internalInfillPattern,Triangular
;   externalInfillPattern,Rectilinear
;   infillPercentage,30
;   outlineOverlapPercentage,15
;   infillExtrusionWidthPercentage,150
;   minInfillLength,5
;   infillLayerInterval,1
;   internalInfillAngles,0,60,-60
;   overlapInternalInfillAngles,1
;   externalInfillAngles,45,-45
;   generateSupport,1
;   supportExtruder,0
;   supportInfillPercentage,40
;   supportExtraInflation,1
;   supportBaseLayers,0
;   denseSupportExtruder,0
;   denseSupportLayers,0
;   denseSupportInfillPercentage,70
;   supportLayerInterval,1
;   supportHorizontalPartOffset,1
;   supportUpperSeparationLayers,1
;   supportLowerSeparationLayers,1
;   supportType,0
;   supportGridSpacing,4
;   maxOverhangAngle,45
;   supportAngles,0
;   temperatureName,Primary Extruder
;   temperatureNumber,0
;   temperatureSetpointCount,2
;   temperatureSetpointLayers,1,5
;   temperatureSetpointTemperatures,220,210
;   temperatureStabilizeAtStartup,1
;   temperatureHeatedBed,0
;   fanLayers,1,2
;   fanSpeeds,100,100
;   blipFanToFullPower,0
;   adjustSpeedForCooling,1
;   minSpeedLayerTime,7
;   minCoolingSpeedSlowdown,20
;   increaseFanForCooling,0
;   minFanLayerTime,45
;   maxCoolingFanSpeed,100
;   increaseFanForBridging,0
;   bridgingFanSpeed,100
;   use5D,1
;   relativeEdistances,0
;   allowEaxisZeroing,1
;   independentExtruderAxes,0
;   includeM10123,0
;   stickySupport,1
;   applyToolheadOffsets,0
;   gcodeXoffset,0
;   gcodeYoffset,0
;   gcodeZoffset,0
;   overrideMachineDefinition,0
;   machineTypeOverride,0
;   strokeXoverride,305
;   strokeYoverride,205
;   strokeZoverride,205
;   originOffsetXoverride,0
;   originOffsetYoverride,0
;   originOffsetZoverride,0
;   homeXdirOverride,-1
;   homeYdirOverride,-1
;   homeZdirOverride,-1
;   flipXoverride,1
;   flipYoverride,-1
;   flipZoverride,1
;   toolheadOffsets,0,0|0,0|0,0|0,0|0,0|0,0
;   overrideFirmwareConfiguration,1
;   firmwareTypeOverride,RepRap (Marlin/Repetier/Sprinter)
;   GPXconfigOverride,r2
;   baudRateOverride,115200
;   overridePrinterModels,1
;   printerModelsOverride
;   startingGcode,G28 ; home all axes,G1 Z 2 ; set height for prime line,G92 E0 ; zero extruder,G1 X150 E30 F400 ; prime line
;   layerChangeGcode,
;   retractionGcode,
;   toolChangeGcode,
;   endingGcode,G28 X0 ; home X axis,M104 S0 ; turn off extruder,M84 ; disable motors
;   exportFileFormat,gcode
;   celebration,0
;   celebrationSong,Random Song
;   postProcessing,
;   defaultSpeed,2400
;   outlineUnderspeed,0.5
;   solidInfillUnderspeed,0.8
;   supportUnderspeed,0.8
;   rapidXYspeed,2400
;   rapidZspeed,900
;   minBridgingArea,50
;   bridgingExtraInflation,0
;   bridgingExtrusionMultiplier,1
;   bridgingSpeedMultiplier,1
;   useFixedBridgingAngle,0
;   fixedBridgingAngle,0
;   applyBridgingToPerimeters,0
;   filamentDiameters,1.75|3|3|3|3|3
;   filamentPricesPerKg,46|46|46|46|46|46
;   filamentDensities,1.25|1.25|1.25|1.25|1.25|1.25
;   useMinPrintHeight,0
;   minPrintHeight,0
;   useMaxPrintHeight,0
;   maxPrintHeight,0
;   useDiaphragm,0
;   diaphragmLayerInterval,20
;   robustSlicing,1
;   mergeAllIntoSolid,0
;   onlyRetractWhenCrossingOutline,1
;   retractBetweenLayers,0
;   useRetractionMinTravel,1
;   retractionMinTravel,3
;   retractWhileWiping,0
;   onlyWipeOutlines,1
;   avoidCrossingOutline,1
;   maxMovementDetourFactor,3
;   toolChangeRetractionDistance,12
;   toolChangeExtraRestartDistance,-0.5
;   toolChangeRetractionSpeed,600
;   externalThinWallType,0
;   internalThinWallType,2
;   thinWallAllowedOverlapPercentage,10
;   singleExtrusionMinLength,1
;   singleExtrusionMinPrintingWidthPercentage,50
;   singleExtrusionMaxPrintingWidthPercentage,200
;   singleExtrusionEndpointExtension,0
;   horizontalSizeCompensation,0
G90
M82
M106 S255
M104 S220 T0
M109 S220 T0
G28 ; home all axes
G1 Z 2 ; set height for prime line
G92 E0 ; zero extruder
G1 X150 E30 F400 ; prime line
; process Process1
; layer 1, Z = 0.375
T0
G92 E0.0000
G1 E-5.0000 F3000
; feature skirt
; tool H0.375 W0.360
G1 Z0.375 F900
G1 X37.399 Y66.740 F2400
G1 E0.0000 F3000
G92 E0.0000
G1 X51.601 Y66.740 E0.7174 F1200
G1 X54.260 Y69.399 E0.9073
G1 X54.260 Y82.740 E1.5812
G1 X54.740 Y82.740 E1.6055
G1 X54.740 Y69.399 E2.2793
G1 X57.399 Y66.740 E2.4693
G1 X71.601 Y66.740 E3.1867
G1 X74.260 Y69.399 E3.3767
G1 X74.260 Y70.740 E3.4444
G1 X75.601 Y70.740 E3.5121
G1 X78.260 Y73.399 E3.7021
G1 X78.260 Y91.601 E4.6215
G1 X75.601 Y94.260 E4.8115
G1 X74.260 Y94.260 E4.8792
G1 X74.260 Y109.996 E5.6741
G1 X98.740 Y109.996 E6.9106
G1 X98.740 Y94.260 E7.7055
G1 X97.399 Y94.260 E7.7732
G1 X94.740 Y91.601 E7.9632
G1 X94.740 Y73.399 E8.8826
G1 X97.399 Y70.740 E9.0726
G1 X98.740 Y70.740 E9.1403
G1 X98.740 Y69.399 E9.2080
G1 X101.399 Y66.740 E9.3980
G1 X115.601 Y66.740 E10.1154
G1 X118.260 Y69.399 E10.3054
G1 X118.260 Y82.740 E10.9792
G1 X118.740 Y82.740 E11.0035
G1 X118.740 Y69.399 E11.6774
G1 X121.399 Y66.740 E11.8674
G1 X135.601 Y66.740 E12.5847
G1 X138.260 Y69.399 E12.7747
G1 X138.260 Y70.740 E12.8424
G1 X139.601 Y70.740 E12.9101
G1 X142.260 Y73.399 E13.1001
G1 X142.260 Y91.601 E14.0195
G1 X139.601 Y94.260 E14.2095
G1 X138.260 Y94.260 E14.2772
G1 X138.260 Y109.996 E15.0721
G1 X162.740 Y109.996 E16.3087
G1 X162.740 Y98.260 E16.9015
G1 X161.399 Y98.260 E16.9692
G1 X158.740 Y95.601 E17.1592
G1 X158.740 Y73.399 E18.2806
G1 X161.399 Y70.740 E18.4706
G1 X162.740 Y70.740 E18.5383
G1 X162.740 Y69.399 E18.6061
G1 X165.399 Y66.740 E18.7960
G1 X179.601 Y66.740 E19.5134
G1 X182.260 Y69.399 E19.7034
G1 X182.260 Y82.740 E20.3773
G1 X182.740 Y82.740 E20.4015
G1 X182.740 Y69.399 E21.0754
G1 X185.399 Y66.740 E21.2654
G1 X199.601 Y66.740 E21.9827
G1 X202.260 Y69.399 E22.1727
G1 X202.260 Y74.740 E22.4425
G1 X203.601 Y74.740 E22.5102
G1 X206.260 Y77.399 E22.7002
G1 X206.260 Y91.601 E23.4175
G1 X203.601 Y94.260 E23.6075
G1 X202.260 Y94.260 E23.6752
G1 X202.260 Y95.601 E23.7430
G1 X199.601 Y98.260 E23.9329
G1 X198.260 Y98.260 E24.0007
G1 X198.260 Y109.996 E24.5935
G1 X222.616 Y109.996 E25.8238
G1 X225.276 Y112.655 E26.0138
G1 X225.276 Y120.226 E26.3962
G1 X223.346 Y122.156 E26.5341
G1 X225.276 Y124.085 E26.6719
G1 X225.276 Y131.656 E27.0544
G1 X222.616 Y134.316 E27.2443
G1 X58.584 Y134.316 E35.5302
G1 X58.584 Y163.406 E36.9997
G1 X55.925 Y166.066 E37.1897
G1 X34.384 Y166.066 E38.2778
G1 X31.724 Y163.406 E38.4678
G1 X31.724 Y112.655 E41.0314
G1 X34.384 Y109.996 E41.2214
G1 X34.740 Y109.996 E41.2394
G1 X34.740 Y94.260 E42.0343
G1 X33.399 Y94.260 E42.1020
G1 X30.740 Y91.601 E42.2920
G1 X30.740 Y73.399 E43.2114
G1 X33.399 Y70.740 E43.4014
G1 X34.740 Y70.740 E43.4691
G1 X34.740 Y69.399 E43.5368
G1 X37.399 Y66.740 E43.7268
G1 X37.549 Y67.100 F2400
G92 E0.0000
G1 X51.451 Y67.100 E0.7023 F1200
G1 X53.900 Y69.549 E0.8772
G1 X53.900 Y83.100 E1.5617
G1 X55.100 Y83.100 E1.6224
G1 X55.100 Y69.549 E2.3069
G1 X57.549 Y67.100 E2.4818
G1 X71.451 Y67.100 E3.1841
G1 X73.900 Y69.549 E3.3590
G1 X73.900 Y71.100 E3.4374
G1 X75.451 Y71.100 E3.5158
G1 X77.900 Y73.549 E3.6907
G1 X77.900 Y91.451 E4.5950
G1 X75.451 Y93.900 E4.7699
G1 X73.900 Y93.900 E4.8483
G1 X73.900 Y110.356 E5.6795
G1 X99.100 Y110.356 E6.9525
G1 X99.100 Y93.900 E7.7837
G1 X97.549 Y93.900 E7.8621
G1 X95.100 Y91.451 E8.0370
G1 X95.100 Y73.549 E8.9414
G1 X97.549 Y71.100 E9.1163
G1 X99.100 Y71.100 E9.1947
G1 X99.100 Y69.549 E9.2730
G1 X101.549 Y67.100 E9.4479
G1 X115.451 Y67.100 E10.1502
G1 X117.900 Y69.549 E10.3251
G1 X117.900 Y83.100 E11.0097
G1 X119.100 Y83.100 E11.0703
G1 X119.100 Y69.549 E11.7548
G1 X121.549 Y67.100 E11.9298
G1 X135.451 Y67.100 E12.6320
G1 X137.900 Y69.549 E12.8070
G1 X137.900 Y71.100 E12.8853
G1 X139.451 Y71.100 E12.9637
G1 X141.900 Y73.549 E13.1386
G1 X141.900 Y91.451 E14.0430
G1 X139.451 Y93.900 E14.2179
G1 X137.900 Y93.900 E14.2962
G1 X137.900 Y110.356 E15.1275
G1 X163.100 Y110.356 E16.4004
G1 X163.100 Y97.900 E17.0296
G1 X161.549 Y97.900 E17.1080
G1 X159.100 Y95.451 E17.2829
G1 X159.100 Y73.549 E18.3893
G1 X161.549 Y71.100 E18.5642
G1 X163.100 Y71.100 E18.6426
G1 X163.100 Y69.549 E18.7210
G1 X165.549 Y67.100 E18.8959
G1 X179.451 Y67.100 E19.5982
G1 X181.900 Y69.549 E19.7731
G1 X181.900 Y83.100 E20.4576
G1 X183.100 Y83.100 E20.5182
G1 X183.100 Y69.549 E21.2028
G1 X185.549 Y67.100 E21.3777
G1 X199.451 Y67.100 E22.0800
G1 X201.900 Y69.549 E22.2549
G1 X201.900 Y75.100 E22.5353
G1 X203.451 Y75.100 E22.6137
G1 X205.900 Y77.549 E22.7886
G1 X205.900 Y91.451 E23.4909
G1 X203.451 Y93.900 E23.6658
G1 X201.900 Y93.900 E23.7442
G1 X201.900 Y95.451 E23.8226
G1 X199.451 Y97.900 E23.9975
G1 X197.900 Y97.900 E24.0758
G1 X197.900 Y110.356 E24.7050
G1 X222.467 Y110.356 E25.9460
G1 X224.916 Y112.804 E26.1209
G1 X224.916 Y120.077 E26.4883
G1 X222.837 Y122.156 E26.6368
G1 X224.916 Y124.234 E26.7853
G1 X224.916 Y131.507 E27.1527
G1 X222.467 Y133.956 E27.3276
G1 X58.224 Y133.956 E35.6242
G1 X58.224 Y163.257 E37.1043
G1 X55.775 Y165.706 E37.2792
G1 X34.533 Y165.706 E38.3523
G1 X32.084 Y163.257 E38.5272
G1 X32.084 Y112.804 E41.0757
G1 X34.533 Y110.356 E41.2507
G1 X35.100 Y110.356 E41.2793
G1 X35.100 Y93.900 E42.1106
G1 X33.549 Y93.900 E42.1889
G1 X31.100 Y91.451 E42.3639
G1 X31.100 Y73.549 E43.2682
G1 X33.549 Y71.100 E43.4431
G1 X35.100 Y71.100 E43.5215
G1 X35.100 Y69.549 E43.5999
G1 X37.549 Y67.100 E43.7748
G92 E0.0000
G1 E-5.0000 F3000
; feature inner perimeter
G1 X48.383 Y99.781 F2400
G1 X48.853 Y99.781
G1 X49.102 Y100.501
G1 E0.0000 F3000
G92 E0.0000
G1 X60.256 Y100.501 E0.5634 F900
G1 X60.263 Y115.436 E1.3179
G1 X112.595 Y115.436 E3.9614
G1 X112.602 Y100.501 E4.7158
G1 X123.756 Y100.501 E5.2792
G1 X123.763 Y115.436 E6.0337
G1 X173.155 Y115.436 E8.5287
G1 X173.724 Y115.394 E8.5575
G1 X174.391 Y115.248 E8.5920
G1 X175.018 Y115.010 E8.6258
G1 X175.654 Y114.662 E8.6624
G1 X176.114 Y114.334 E8.6910
G1 X176.602 Y113.902 E8.7239
G1 X177.047 Y113.394 E8.7580
G1 X177.404 Y112.788 E8.7936
G1 X177.584 Y112.113 E8.8288
G1 X177.569 Y100.501 E9.4154
G1 X185.789 Y100.501 E9.8307
G1 X185.774 Y112.113 E10.4173
G1 X185.954 Y112.788 E10.4526
G1 X186.311 Y113.394 E10.4881
G1 X186.756 Y113.902 E10.5222
G1 X187.250 Y114.339 E10.5555
G1 X187.823 Y114.732 E10.5906
G1 X188.344 Y115.012 E10.6205
G1 X188.959 Y115.245 E10.6537
G1 X189.255 Y115.315 E10.6691
G1 X189.641 Y115.394 E10.6890
G1 X190.203 Y115.436 E10.7174
G1 X219.836 Y115.436 E12.2143
G1 X219.836 Y117.446 E12.3159
G1 X207.136 Y117.446 E12.9574
G1 X207.136 Y126.866 E13.4332
G1 X219.836 Y126.866 E14.0748
G1 X219.836 Y128.876 E14.1763
G1 X53.144 Y128.876 E22.5965
G1 X53.144 Y160.626 E24.2003
G1 X37.164 Y160.626 E25.0076
G1 X37.164 Y115.436 E27.2903
G1 X49.095 Y115.436 E27.8930
G1 X49.102 Y100.501 E28.6474
G1 X48.742 Y100.141 F2400
G92 E0.0000
G1 X60.616 Y100.141 E0.5998 F900
G1 X60.623 Y115.076 E1.3542
G1 X112.236 Y115.076 E3.9614
G1 X112.242 Y100.141 E4.7158
G1 X124.116 Y100.141 E5.3156
G1 X124.123 Y115.076 E6.0700
G1 X173.142 Y115.076 E8.5462
G1 X173.672 Y115.036 E8.5730
G1 X174.289 Y114.902 E8.6049
G1 X174.867 Y114.683 E8.6361
G1 X175.462 Y114.357 E8.6704
G1 X175.889 Y114.052 E8.6969
G1 X176.346 Y113.647 E8.7278
G1 X176.754 Y113.182 E8.7590
G1 X177.069 Y112.647 E8.7904
G1 X177.224 Y112.066 E8.8207
G1 X177.208 Y100.141 E9.4231
G1 X186.150 Y100.141 E9.8748
G1 X186.134 Y112.066 E10.4772
G1 X186.289 Y112.647 E10.5076
G1 X186.604 Y113.182 E10.5390
G1 X187.012 Y113.647 E10.5702
G1 X187.472 Y114.055 E10.6013
G1 X188.010 Y114.424 E10.6342
G1 X188.493 Y114.683 E10.6619
G1 X189.065 Y114.900 E10.6928
G1 X189.333 Y114.964 E10.7067
G1 X189.690 Y115.037 E10.7251
G1 X190.216 Y115.076 E10.7518
G1 X220.196 Y115.076 E12.2662
G1 X220.196 Y117.806 E12.4041
G1 X207.496 Y117.806 E13.0456
G1 X207.496 Y126.506 E13.4851
G1 X220.196 Y126.506 E14.1266
G1 X220.196 Y129.236 E14.2645
G1 X53.504 Y129.236 E22.6847
G1 X53.504 Y160.986 E24.2886
G1 X36.804 Y160.986 E25.1321
G1 X36.804 Y115.076 E27.4512
G1 X48.736 Y115.076 E28.0539
G1 X48.742 Y100.141 E28.8084
; feature outer perimeter
G1 X48.383 Y99.781 F2400
G92 E0.0000
G1 X60.976 Y99.781 E0.6361 F600
G1 X60.982 Y114.716 E1.3906
G1 X111.876 Y114.716 E3.9614
G1 X111.883 Y99.781 E4.7158
G1 X124.476 Y99.781 E5.3519
G1 X124.482 Y114.716 E6.1064
G1 X173.129 Y114.716 E8.5637
G1 X173.620 Y114.679 E8.5885
G1 X174.186 Y114.556 E8.6178
G1 X174.716 Y114.355 E8.6465
G1 X175.270 Y114.051 E8.6784
G1 X175.665 Y113.769 E8.7029
G1 X176.090 Y113.393 E8.7316
G1 X176.461 Y112.970 E8.7600
G1 X176.734 Y112.507 E8.7871
G1 X176.864 Y112.019 E8.8126
G1 X176.848 Y99.781 E9.4309
G1 X186.510 Y99.781 E9.9189
G1 X186.494 Y112.019 E10.5372
G1 X186.624 Y112.507 E10.5627
G1 X186.897 Y112.970 E10.5898
G1 X187.268 Y113.393 E10.6182
G1 X187.694 Y113.771 E10.6470
G1 X188.198 Y114.116 E10.6779
G1 X188.643 Y114.355 E10.7034
G1 X189.171 Y114.555 E10.7319
G1 X189.410 Y114.612 E10.7443
G1 X189.740 Y114.679 E10.7613
G1 X190.229 Y114.716 E10.7861
G1 X220.556 Y114.716 E12.3180
G1 X220.556 Y118.166 E12.4923
G1 X207.856 Y118.166 E13.1338
G1 X207.856 Y126.146 E13.5369
G1 X220.556 Y126.146 E14.1784
G1 X220.556 Y129.596 E14.3527
G1 X53.864 Y129.596 E22.7730
G1 X53.864 Y161.346 E24.3768
G1 X36.444 Y161.346 E25.2567
G1 X36.444 Y114.716 E27.6122
G1 X48.376 Y114.716 E28.2149
G1 X48.383 Y99.781 E28.9693
G92 E0.0000
G1 E-5.0000 F3000
; feature inner perimeter
G1 X48.376 Y114.716 F2400
G1 X46.738 Y114.716
G1 X46.010 Y121.332
G1 E0.0000 F3000
G92 E0.0000
G1 X45.326 Y121.257 E0.0348 F900
G1 X44.639 Y121.282 E0.0695
G1 X43.962 Y121.407 E0.1043
G1 X43.311 Y121.629 E0.1390
G1 X42.699 Y121.943 E0.1738
G1 X42.140 Y122.344 E0.2085
G1 X41.644 Y122.821 E0.2433
G1 X41.224 Y123.366 E0.2780
G1 X40.887 Y123.966 E0.3128
G1 X40.641 Y124.608 E0.3475
G1 X40.492 Y125.280 E0.3823
G1 X40.442 Y125.967 E0.4171
G1 X40.495 Y126.666 E0.4525
G1 X40.641 Y127.323 E0.4865
G1 X40.887 Y127.966 E0.5213
G1 X41.224 Y128.566 E0.5560
G1 X41.644 Y129.110 E0.5908
G1 X42.140 Y129.588 E0.6255
G1 X42.699 Y129.988 E0.6603
G1 X43.311 Y130.303 E0.6950
G1 X43.962 Y130.525 E0.7298
G1 X44.639 Y130.650 E0.7645
G1 X45.326 Y130.675 E0.7993
G1 X46.010 Y130.600 E0.8340
G1 X46.676 Y130.426 E0.8688
G1 X47.309 Y130.157 E0.9035
G1 X47.896 Y129.798 E0.9383
G1 X48.425 Y129.358 E0.9730
G1 X48.884 Y128.846 E1.0078
G1 X49.264 Y128.272 E1.0426
G1 X49.556 Y127.649 E1.0773
G1 X49.754 Y126.990 E1.1121
G1 X49.854 Y126.310 E1.1468
G1 X49.854 Y125.622 E1.1816
G1 X49.754 Y124.941 E1.2163
G1 X49.556 Y124.282 E1.2511
G1 X49.264 Y123.659 E1.2858
G1 X48.884 Y123.086 E1.3206
