; G-Code generated by Simplify3D(R) Version 4.1.2
; Nov 19, 2020 at 10:16:29 PM
; Settings Summary
;   processName,Process1
;   applyToModels,Component2
;   profileName,NORMAL
;   profileVersion,2020-11-19 22:07:27
;   baseProfile,Wanhao Duplicator 5S Mini
;   printMaterial,PLA
;   printQuality,0.25
;   printExtruders,
;   extruderName,Primary Extruder
;   extruderToolheadNumber,0
;   extruderDiameter,0.3
;   extruderAutoWidth,0
;   extruderWidth,0.33
;   extrusionMultiplier,0.87
;   extruderUseRetract,1
;   extruderRetractionDistance,7.5
;   extruderExtraRestartDistance,0
;   extruderRetractionZLift,0
;   extruderRetractionSpeed,3000
;   extruderUseCoasting,1
;   extruderCoastingDistance,2.5
;   extruderUseWipe,0
;   extruderWipeDistance,5
;   primaryExtruder,0
;   layerHeight,0.25
;   topSolidLayers,3
;   bottomSolidLayers,3
;   perimeterOutlines,3
;   printPerimetersInsideOut,1
;   startPointOption,3
;   startPointOriginX,0
;   startPointOriginY,0
;   sequentialIslands,0
;   spiralVaseMode,0
;   firstLayerHeightPercentage,150
;   firstLayerWidthPercentage,100
;   firstLayerUnderspeed,0.5
;   useRaft,0
;   raftExtruder,0
;   raftTopLayers,3
;   raftBaseLayers,2
;   raftOffset,3
;   raftSeparationDistance,0.14
;   raftTopInfill,100
;   aboveRaftSpeedMultiplier,0.3
;   useSkirt,1
;   skirtExtruder,0
;   skirtLayers,2
;   skirtOutlines,2
;   skirtOffset,4
;   usePrimePillar,0
;   primePillarExtruder,999
;   primePillarWidth,12
;   primePillarLocation,7
;   primePillarSpeedMultiplier,1
;   useOozeShield,0
;   oozeShieldExtruder,999
;   oozeShieldOffset,2
;   oozeShieldOutlines,1
;   oozeShieldSidewallShape,1
;   oozeShieldSidewallAngle,30
;   oozeShieldSpeedMultiplier,1
;   infillExtruder,0
;   internalInfillPattern,Triangular
;   externalInfillPattern,Rectilinear
;   infillPercentage,30
;   outlineOverlapPercentage,15
;   infillExtrusionWidthPercentage,150
;   minInfillLength,5
;   infillLayerInterval,1
;   internalInfillAngles,0,60,-60
;   overlapInternalInfillAngles,1
;   externalInfillAngles,45,-45
;   generateSupport,0
;   supportExtruder,0
;   supportInfillPercentage,40
;   supportExtraInflation,1
;   supportBaseLayers,0
;   denseSupportExtruder,0
;   denseSupportLayers,0
;   denseSupportInfillPercentage,70
;   supportLayerInterval,1
;   supportHorizontalPartOffset,1
;   supportUpperSeparationLayers,1
;   supportLowerSeparationLayers,1
;   supportType,0
;   supportGridSpacing,4
;   maxOverhangAngle,45
;   supportAngles,0
;   temperatureName,Primary Extruder
;   temperatureNumber,0
;   temperatureSetpointCount,2
;   temperatureSetpointLayers,1,5
;   temperatureSetpointTemperatures,220,205
;   temperatureStabilizeAtStartup,1
;   temperatureHeatedBed,0
;   fanLayers,1,2
;   fanSpeeds,100,100
;   blipFanToFullPower,0
;   adjustSpeedForCooling,1
;   minSpeedLayerTime,7
;   minCoolingSpeedSlowdown,20
;   increaseFanForCooling,0
;   minFanLayerTime,45
;   maxCoolingFanSpeed,100
;   increaseFanForBridging,0
;   bridgingFanSpeed,100
;   use5D,1
;   relativeEdistances,0
;   allowEaxisZeroing,1
;   independentExtruderAxes,0
;   includeM10123,0
;   stickySupport,1
;   applyToolheadOffsets,0
;   gcodeXoffset,0
;   gcodeYoffset,0
;   gcodeZoffset,0
;   overrideMachineDefinition,0
;   machineTypeOverride,0
;   strokeXoverride,305
;   strokeYoverride,205
;   strokeZoverride,205
;   originOffsetXoverride,0
;   originOffsetYoverride,0
;   originOffsetZoverride,0
;   homeXdirOverride,-1
;   homeYdirOverride,-1
;   homeZdirOverride,-1
;   flipXoverride,1
;   flipYoverride,-1
;   flipZoverride,1
;   toolheadOffsets,0,0|0,0|0,0|0,0|0,0|0,0
;   overrideFirmwareConfiguration,1
;   firmwareTypeOverride,RepRap (Marlin/Repetier/Sprinter)
;   GPXconfigOverride,r2
;   baudRateOverride,115200
;   overridePrinterModels,1
;   printerModelsOverride
;   startingGcode,G28 ; home all axes,G1 Z 2 ; set height for prime line,G92 E0 ; zero extruder,G1 X150 E50 F900 ; prime line
;   layerChangeGcode,
;   retractionGcode,
;   toolChangeGcode,
;   endingGcode,G28 X0 ; home X axis,M104 S0 ; turn off extruder,M84 ; disable motors
;   exportFileFormat,gcode
;   celebration,0
;   celebrationSong,Random Song
;   postProcessing,
;   defaultSpeed,2400
;   outlineUnderspeed,0.5
;   solidInfillUnderspeed,0.8
;   supportUnderspeed,0.8
;   rapidXYspeed,2400
;   rapidZspeed,900
;   minBridgingArea,50
;   bridgingExtraInflation,0
;   bridgingExtrusionMultiplier,1
;   bridgingSpeedMultiplier,1
;   useFixedBridgingAngle,0
;   fixedBridgingAngle,0
;   applyBridgingToPerimeters,0
;   filamentDiameters,1.75|3|3|3|3|3
;   filamentPricesPerKg,46|46|46|46|46|46
;   filamentDensities,1.25|1.25|1.25|1.25|1.25|1.25
;   useMinPrintHeight,0
;   minPrintHeight,0
;   useMaxPrintHeight,0
;   maxPrintHeight,0
;   useDiaphragm,0
;   diaphragmLayerInterval,20
;   robustSlicing,1
;   mergeAllIntoSolid,0
;   onlyRetractWhenCrossingOutline,1
;   retractBetweenLayers,1
;   useRetractionMinTravel,1
;   retractionMinTravel,3
;   retractWhileWiping,0
;   onlyWipeOutlines,1
;   avoidCrossingOutline,1
;   maxMovementDetourFactor,3
;   toolChangeRetractionDistance,12
;   toolChangeExtraRestartDistance,-0.5
;   toolChangeRetractionSpeed,600
;   externalThinWallType,0
;   internalThinWallType,2
;   thinWallAllowedOverlapPercentage,10
;   singleExtrusionMinLength,1
;   singleExtrusionMinPrintingWidthPercentage,50
;   singleExtrusionMaxPrintingWidthPercentage,200
;   singleExtrusionEndpointExtension,0
;   horizontalSizeCompensation,0
G90
M82
M106 S255
M104 S220 T0
M109 S220 T0
G28 ; home all axes
G1 Z 2 ; set height for prime line
G92 E0 ; zero extruder
G1 X150 E50 F900 ; prime line
; process Process1
; layer 1, Z = 0.375
T0
G92 E0.0000
G1 E-7.5000 F3000
; feature skirt
; tool H0.375 W0.330
G1 Z0.375 F900
G1 X70.391 Y27.519 F2400
G1 E0.0000 F3000
G92 E0.0000
G1 X70.744 Y26.762 E0.0374 F1200
G1 X70.941 Y26.423 E0.0550
G1 X71.420 Y25.738 E0.0923
G1 X71.672 Y25.438 E0.1099
G1 X72.263 Y24.847 E0.1473
G1 X72.563 Y24.595 E0.1649
G1 X73.248 Y24.116 E0.2023
G1 X73.587 Y23.919 E0.2198
G1 X74.344 Y23.566 E0.2572
G1 X74.713 Y23.432 E0.2748
G1 X75.520 Y23.216 E0.3122
G1 X75.907 Y23.148 E0.3297
G1 X76.641 Y23.084 E0.3627
G1 X76.837 Y23.075 E0.3715
G1 X228.163 Y23.075 E7.1450
G1 X228.359 Y23.084 E7.1538
G1 X229.093 Y23.148 E7.1868
G1 X229.480 Y23.216 E7.2043
G1 X230.287 Y23.432 E7.2417
G1 X230.656 Y23.566 E7.2593
G1 X231.413 Y23.919 E7.2967
G1 X231.752 Y24.116 E7.3143
G1 X232.437 Y24.595 E7.3516
G1 X232.737 Y24.847 E7.3692
G1 X233.328 Y25.438 E7.4066
G1 X233.580 Y25.738 E7.4242
G1 X234.059 Y26.422 E7.4616
G1 X234.256 Y26.762 E7.4791
G1 X234.609 Y27.520 E7.5165
G1 X234.743 Y27.888 E7.5341
G1 X234.959 Y28.695 E7.5715
G1 X235.027 Y29.081 E7.5890
G1 X235.091 Y29.816 E7.6220
G1 X235.100 Y30.012 E7.6308
G1 X235.100 Y174.988 E14.1201
G1 X235.091 Y175.184 E14.1289
G1 X235.027 Y175.918 E14.1618
G1 X234.959 Y176.305 E14.1794
G1 X234.743 Y177.112 E14.2168
G1 X234.609 Y177.480 E14.2344
G1 X234.256 Y178.238 E14.2718
G1 X234.059 Y178.578 E14.2893
G1 X233.580 Y179.262 E14.3267
G1 X233.328 Y179.562 E14.3443
G1 X232.737 Y180.153 E14.3817
G1 X232.437 Y180.405 E14.3992
G1 X231.752 Y180.884 E14.4366
G1 X231.413 Y181.081 E14.4542
G1 X230.656 Y181.434 E14.4916
G1 X230.287 Y181.568 E14.5091
G1 X229.480 Y181.784 E14.5465
G1 X229.093 Y181.852 E14.5641
G1 X228.359 Y181.916 E14.5971
G1 X228.163 Y181.925 E14.6059
G1 X76.837 Y181.925 E21.3794
G1 X76.641 Y181.916 E21.3881
G1 X75.907 Y181.852 E21.4211
G1 X75.520 Y181.784 E21.4387
G1 X74.713 Y181.568 E21.4761
G1 X74.344 Y181.434 E21.4937
G1 X73.587 Y181.081 E21.5311
G1 X73.248 Y180.884 E21.5486
G1 X72.563 Y180.405 E21.5860
G1 X72.263 Y180.153 E21.6036
G1 X71.672 Y179.562 E21.6410
G1 X71.420 Y179.262 E21.6585
G1 X70.941 Y178.577 E21.6959
G1 X70.744 Y178.238 E21.7135
G1 X70.391 Y177.481 E21.7509
G1 X70.257 Y177.112 E21.7684
G1 X70.041 Y176.305 E21.8058
G1 X69.973 Y175.918 E21.8234
G1 X69.909 Y175.184 E21.8564
G1 X69.900 Y174.988 E21.8652
G1 X69.900 Y30.012 E28.3544
G1 X69.909 Y29.816 E28.3632
G1 X69.973 Y29.082 E28.3962
G1 X70.041 Y28.695 E28.4138
G1 X70.257 Y27.888 E28.4512
G1 X70.391 Y27.519 E28.4687
G1 X70.697 Y27.646 F2400
G92 E0.0000
G1 X71.037 Y26.915 E0.0361 F1200
G1 X71.219 Y26.600 E0.0524
G1 X71.682 Y25.939 E0.0885
G1 X71.916 Y25.661 E0.1048
G1 X72.486 Y25.091 E0.1409
G1 X72.764 Y24.857 E0.1571
G1 X73.425 Y24.394 E0.1932
G1 X73.740 Y24.212 E0.2095
G1 X74.471 Y23.872 E0.2456
G1 X74.813 Y23.747 E0.2619
G1 X75.592 Y23.538 E0.2980
G1 X75.950 Y23.475 E0.3143
G1 X76.663 Y23.413 E0.3463
G1 X76.844 Y23.405 E0.3544
G1 X228.156 Y23.405 E7.1273
G1 X228.337 Y23.413 E7.1354
G1 X229.050 Y23.475 E7.1674
G1 X229.408 Y23.538 E7.1837
G1 X230.187 Y23.747 E7.2198
G1 X230.529 Y23.872 E7.2361
G1 X231.260 Y24.212 E7.2722
G1 X231.575 Y24.394 E7.2885
G1 X232.236 Y24.857 E7.3246
G1 X232.514 Y25.091 E7.3408
G1 X233.084 Y25.661 E7.3769
G1 X233.318 Y25.939 E7.3932
G1 X233.781 Y26.600 E7.4293
G1 X233.963 Y26.915 E7.4456
G1 X234.303 Y27.646 E7.4817
G1 X234.428 Y27.988 E7.4980
G1 X234.637 Y28.767 E7.5341
G1 X234.700 Y29.125 E7.5503
G1 X234.762 Y29.837 E7.5824
G1 X234.770 Y30.019 E7.5905
G1 X234.770 Y174.981 E14.0791
G1 X234.762 Y175.163 E14.0873
G1 X234.700 Y175.875 E14.1193
G1 X234.637 Y176.233 E14.1356
G1 X234.428 Y177.012 E14.1717
G1 X234.303 Y177.354 E14.1879
G1 X233.963 Y178.085 E14.2240
G1 X233.781 Y178.400 E14.2403
G1 X233.318 Y179.061 E14.2764
G1 X233.084 Y179.339 E14.2927
G1 X232.514 Y179.909 E14.3288
G1 X232.236 Y180.143 E14.3451
G1 X231.575 Y180.606 E14.3812
G1 X231.260 Y180.788 E14.3974
G1 X230.529 Y181.128 E14.4335
G1 X230.187 Y181.253 E14.4498
G1 X229.408 Y181.462 E14.4859
G1 X229.050 Y181.525 E14.5022
G1 X228.337 Y181.587 E14.5342
G1 X228.156 Y181.595 E14.5424
G1 X76.844 Y181.595 E21.3152
G1 X76.663 Y181.587 E21.3233
G1 X75.950 Y181.525 E21.3554
G1 X75.592 Y181.462 E21.3716
G1 X74.813 Y181.253 E21.4077
G1 X74.471 Y181.128 E21.4240
G1 X73.740 Y180.788 E21.4601
G1 X73.425 Y180.606 E21.4764
G1 X72.764 Y180.143 E21.5125
G1 X72.486 Y179.909 E21.5288
G1 X71.916 Y179.339 E21.5649
G1 X71.682 Y179.061 E21.5812
G1 X71.219 Y178.400 E21.6172
G1 X71.037 Y178.085 E21.6335
G1 X70.697 Y177.354 E21.6696
G1 X70.572 Y177.012 E21.6859
G1 X70.363 Y176.233 E21.7220
G1 X70.300 Y175.875 E21.7383
G1 X70.238 Y175.162 E21.7703
G1 X70.230 Y174.981 E21.7784
G1 X70.230 Y30.019 E28.2671
G1 X70.238 Y29.838 E28.2752
G1 X70.300 Y29.125 E28.3072
G1 X70.363 Y28.767 E28.3235
G1 X70.572 Y27.988 E28.3596
G1 X70.697 Y27.646 E28.3759
G92 E0.0000
G1 E-7.5000 F3000
; feature inner perimeter
G1 X74.704 Y29.298 F2400
G1 X74.714 Y29.276
G1 X75.326 Y29.525
G1 E0.0000 F3000
G92 E0.0000
G1 X75.452 Y29.254 E0.0134 F900
G1 X75.624 Y29.010 E0.0267
G1 X75.835 Y28.799 E0.0401
G1 X76.079 Y28.627 E0.0534
G1 X76.349 Y28.501 E0.0668
G1 X76.638 Y28.424 E0.0801
G1 X76.971 Y28.395 E0.0951
G1 X228.029 Y28.395 E6.8566
G1 X228.362 Y28.424 E6.8716
G1 X228.650 Y28.501 E6.8849
G1 X228.921 Y28.627 E6.8983
G1 X229.165 Y28.799 E6.9116
G1 X229.376 Y29.010 E6.9250
G1 X229.548 Y29.254 E6.9384
G1 X229.674 Y29.524 E6.9517
G1 X229.751 Y29.813 E6.9651
G1 X229.780 Y30.146 E6.9800
G1 X229.780 Y174.854 E13.4573
G1 X229.751 Y175.187 E13.4723
G1 X229.674 Y175.476 E13.4856
G1 X229.548 Y175.746 E13.4990
G1 X229.376 Y175.990 E13.5123
G1 X229.165 Y176.201 E13.5257
G1 X228.921 Y176.373 E13.5391
G1 X228.650 Y176.499 E13.5524
G1 X228.362 Y176.576 E13.5658
G1 X228.029 Y176.605 E13.5807
G1 X76.971 Y176.605 E20.3422
G1 X76.638 Y176.576 E20.3572
G1 X76.349 Y176.499 E20.3706
G1 X76.079 Y176.373 E20.3839
G1 X75.835 Y176.201 E20.3973
G1 X75.624 Y175.990 E20.4106
G1 X75.452 Y175.746 E20.4240
G1 X75.326 Y175.475 E20.4373
G1 X75.249 Y175.187 E20.4507
G1 X75.220 Y174.854 E20.4657
G1 X75.220 Y32.013 E26.8594
G1 X75.220 Y30.146 F900
G1 X75.249 Y29.813
G1 X75.326 Y29.525
G1 X75.015 Y29.411 F2400
G92 E0.0000
G1 X75.166 Y29.088 E0.0159 F900
G1 X75.370 Y28.797 E0.0319
G1 X75.622 Y28.545 E0.0478
G1 X75.913 Y28.341 E0.0638
G1 X76.236 Y28.190 E0.0797
G1 X76.580 Y28.098 E0.0956
G1 X76.957 Y28.065 E0.1126
G1 X228.043 Y28.065 E6.8753
G1 X228.420 Y28.098 E6.8922
G1 X228.764 Y28.190 E6.9082
G1 X229.087 Y28.341 E6.9241
G1 X229.378 Y28.545 E6.9401
G1 X229.630 Y28.797 E6.9560
G1 X229.834 Y29.088 E6.9720
G1 X229.985 Y29.411 E6.9879
G1 X230.077 Y29.755 E7.0038
G1 X230.110 Y30.132 E7.0207
G1 X230.110 Y174.868 E13.4993
G1 X230.077 Y175.245 E13.5162
G1 X229.985 Y175.589 E13.5321
G1 X229.834 Y175.912 E13.5481
G1 X229.630 Y176.203 E13.5640
G1 X229.378 Y176.455 E13.5800
G1 X229.087 Y176.659 E13.5959
G1 X228.764 Y176.810 E13.6118
G1 X228.420 Y176.902 E13.6278
G1 X228.043 Y176.935 E13.6447
G1 X76.957 Y176.935 E20.4075
G1 X76.580 Y176.902 E20.4244
G1 X76.236 Y176.810 E20.4403
G1 X75.913 Y176.659 E20.4563
G1 X75.622 Y176.455 E20.4722
G1 X75.370 Y176.203 E20.4882
G1 X75.166 Y175.912 E20.5041
G1 X75.015 Y175.589 E20.5200
G1 X74.923 Y175.245 E20.5360
G1 X74.890 Y174.868 E20.5529
G1 X74.890 Y31.898 E26.9524
G1 X74.890 Y30.132 F900
G1 X74.923 Y29.755
G1 X75.015 Y29.411
; feature outer perimeter
G1 X74.704 Y29.298 F2400
G92 E0.0000
G1 X74.879 Y28.923 E0.0185 F600
G1 X75.116 Y28.584 E0.0371
G1 X75.409 Y28.291 E0.0556
G1 X75.748 Y28.054 E0.0741
G1 X76.123 Y27.879 E0.0926
G1 X76.523 Y27.772 E0.1112
G1 X76.942 Y27.735 E0.1300
G1 X228.058 Y27.735 E6.8941
G1 X228.477 Y27.772 E6.9129
G1 X228.877 Y27.879 E6.9314
G1 X229.252 Y28.054 E6.9500
G1 X229.591 Y28.291 E6.9685
G1 X229.884 Y28.584 E6.9870
G1 X230.121 Y28.923 E7.0055
G1 X230.296 Y29.298 E7.0241
G1 X230.403 Y29.698 E7.0426
G1 X230.440 Y30.117 E7.0614
G1 X230.440 Y174.883 E13.5413
G1 X230.403 Y175.302 E13.5601
G1 X230.296 Y175.702 E13.5787
G1 X230.121 Y176.077 E13.5972
G1 X229.884 Y176.416 E13.6157
G1 X229.591 Y176.709 E13.6342
G1 X229.252 Y176.946 E13.6528
G1 X228.877 Y177.121 E13.6713
G1 X228.477 Y177.228 E13.6898
G1 X228.058 Y177.265 E13.7087
G1 X76.942 Y177.265 E20.4727
G1 X76.523 Y177.228 E20.4916
G1 X76.123 Y177.121 E20.5101
G1 X75.748 Y176.946 E20.5286
G1 X75.409 Y176.709 E20.5471
G1 X75.116 Y176.416 E20.5657
G1 X74.879 Y176.077 E20.5842
G1 X74.704 Y175.702 E20.6027
G1 X74.597 Y175.302 E20.6213
G1 X74.560 Y174.883 E20.6401
G1 X74.560 Y31.782 E27.0454
G1 X74.560 Y30.117 F600
G1 X74.597 Y29.698
G1 X74.704 Y29.298
; feature inner perimeter
G1 X119.957 Y53.093 F2400
G92 E0.0000
G1 X112.121 Y77.207 E1.1349 F900
G1 X117.289 Y80.190 E1.4020
G1 X118.834 Y76.031 E1.6006
G1 X119.477 Y74.380 E1.6799
G1 X120.695 Y71.404 E1.8238
G1 X121.296 Y70.013 E1.8917
G1 X121.933 Y68.600 E1.9611
G1 X122.521 Y67.356 E2.0226
G1 X123.100 Y66.191 E2.0809
G1 X123.668 Y65.115 E2.1353
G1 X124.175 Y64.218 E2.1814
G1 X124.464 Y63.734 E2.2067
G1 X124.961 Y62.961 E2.2478
G1 X125.454 Y62.274 E2.2857
G1 X125.885 Y61.756 E2.3158
G1 X126.277 Y61.370 E2.3405
G1 X126.441 Y61.238 E2.3499
G1 X126.660 Y61.096 E2.3615
G1 X126.895 Y60.968 E2.3735
G1 X127.208 Y60.823 E2.3890
G1 X127.959 Y60.540 E2.4249
G1 X128.913 Y60.257 E2.4694
G1 X129.973 Y60.003 E2.5182
G1 X131.266 Y59.746 E2.5772
G1 X132.628 Y59.521 E2.6390
G1 X134.157 Y59.308 E2.7081
G1 X135.741 Y59.121 E2.7795
G1 X138.237 Y58.883 E2.8917
G1 X140.036 Y58.744 E2.9725
G1 X141.901 Y58.625 E3.0561
G1 X143.956 Y58.520 E3.1483
G1 X145.927 Y58.442 E3.2366
G1 X147.938 Y58.384 E3.3266
G1 X150.785 Y58.330 E3.4541
G1 X150.785 Y53.093 E3.6885
G1 X122.457 Y53.093 E4.9565
G1 X119.957 Y53.093 F900
G1 X120.196 Y53.423 F2400
G92 E0.0000
G1 X112.518 Y77.055 E1.1122 F900
G1 X117.115 Y79.709 E1.3498
G1 X118.526 Y75.913 E1.5311
G1 X119.170 Y74.258 E1.6106
G1 X120.390 Y71.276 E1.7548
G1 X120.994 Y69.879 E1.8230
G1 X121.634 Y68.462 E1.8926
G1 X122.224 Y67.212 E1.9544
G1 X122.807 Y66.040 E2.0130
G1 X123.379 Y64.957 E2.0678
G1 X123.889 Y64.053 E2.1143
G1 X124.183 Y63.560 E2.1400
G1 X124.688 Y62.775 E2.1818
G1 X125.193 Y62.072 E2.2205
G1 X125.642 Y61.532 E2.2519
G1 X126.058 Y61.122 E2.2781
G1 X126.248 Y60.971 E2.2890
G1 X126.491 Y60.813 E2.3019
G1 X126.746 Y60.673 E2.3150
G1 X127.080 Y60.518 E2.3314
G1 X127.854 Y60.227 E2.3685
G1 X128.827 Y59.938 E2.4139
G1 X129.902 Y59.680 E2.4633
G1 X131.207 Y59.421 E2.5229
G1 X132.578 Y59.194 E2.5851
G1 X134.115 Y58.980 E2.6546
