; G-Code generated by Simplify3D(R) Version 4.1.2
; Apr 3, 2021 at 2:11:52 PM
; Settings Summary
;   processName,Process1
;   applyToModels,Component2
;   profileName,NORMAL (modified)
;   profileVersion,2020-12-15 15:32:42
;   baseProfile,Wanhao Duplicator 5S Mini
;   printMaterial,PLA
;   printQuality,0.25
;   printExtruders,
;   extruderName,Primary Extruder
;   extruderToolheadNumber,0
;   extruderDiameter,0.3
;   extruderAutoWidth,1
;   extruderWidth,0.36
;   extrusionMultiplier,0.9
;   extruderUseRetract,1
;   extruderRetractionDistance,5
;   extruderExtraRestartDistance,0
;   extruderRetractionZLift,0
;   extruderRetractionSpeed,3000
;   extruderUseCoasting,0
;   extruderCoastingDistance,1.5
;   extruderUseWipe,0
;   extruderWipeDistance,5
;   primaryExtruder,0
;   layerHeight,0.25
;   topSolidLayers,3
;   bottomSolidLayers,3
;   perimeterOutlines,4
;   printPerimetersInsideOut,1
;   startPointOption,3
;   startPointOriginX,0
;   startPointOriginY,0
;   sequentialIslands,0
;   spiralVaseMode,0
;   firstLayerHeightPercentage,150
;   firstLayerWidthPercentage,100
;   firstLayerUnderspeed,0.5
;   useRaft,0
;   raftExtruder,0
;   raftTopLayers,3
;   raftBaseLayers,2
;   raftOffset,3
;   raftSeparationDistance,0.14
;   raftTopInfill,100
;   aboveRaftSpeedMultiplier,0.3
;   useSkirt,1
;   skirtExtruder,0
;   skirtLayers,2
;   skirtOutlines,2
;   skirtOffset,4
;   usePrimePillar,0
;   primePillarExtruder,999
;   primePillarWidth,12
;   primePillarLocation,7
;   primePillarSpeedMultiplier,1
;   useOozeShield,0
;   oozeShieldExtruder,999
;   oozeShieldOffset,2
;   oozeShieldOutlines,1
;   oozeShieldSidewallShape,1
;   oozeShieldSidewallAngle,30
;   oozeShieldSpeedMultiplier,1
;   infillExtruder,0
;   internalInfillPattern,Triangular
;   externalInfillPattern,Rectilinear
;   infillPercentage,30
;   outlineOverlapPercentage,15
;   infillExtrusionWidthPercentage,150
;   minInfillLength,5
;   infillLayerInterval,1
;   internalInfillAngles,0,60,-60
;   overlapInternalInfillAngles,1
;   externalInfillAngles,45,-45
;   generateSupport,0
;   supportExtruder,0
;   supportInfillPercentage,40
;   supportExtraInflation,1
;   supportBaseLayers,0
;   denseSupportExtruder,0
;   denseSupportLayers,0
;   denseSupportInfillPercentage,70
;   supportLayerInterval,1
;   supportHorizontalPartOffset,1
;   supportUpperSeparationLayers,1
;   supportLowerSeparationLayers,1
;   supportType,0
;   supportGridSpacing,4
;   maxOverhangAngle,45
;   supportAngles,0
;   temperatureName,Primary Extruder
;   temperatureNumber,0
;   temperatureSetpointCount,2
;   temperatureSetpointLayers,1,5
;   temperatureSetpointTemperatures,220,210
;   temperatureStabilizeAtStartup,1
;   temperatureHeatedBed,0
;   fanLayers,1,2
;   fanSpeeds,100,100
;   blipFanToFullPower,0
;   adjustSpeedForCooling,1
;   minSpeedLayerTime,7
;   minCoolingSpeedSlowdown,20
;   increaseFanForCooling,0
;   minFanLayerTime,45
;   maxCoolingFanSpeed,100
;   increaseFanForBridging,0
;   bridgingFanSpeed,100
;   use5D,1
;   relativeEdistances,0
;   allowEaxisZeroing,1
;   independentExtruderAxes,0
;   includeM10123,0
;   stickySupport,1
;   applyToolheadOffsets,0
;   gcodeXoffset,0
;   gcodeYoffset,0
;   gcodeZoffset,0
;   overrideMachineDefinition,0
;   machineTypeOverride,0
;   strokeXoverride,305
;   strokeYoverride,205
;   strokeZoverride,205
;   originOffsetXoverride,0
;   originOffsetYoverride,0
;   originOffsetZoverride,0
;   homeXdirOverride,-1
;   homeYdirOverride,-1
;   homeZdirOverride,-1
;   flipXoverride,1
;   flipYoverride,-1
;   flipZoverride,1
;   toolheadOffsets,0,0|0,0|0,0|0,0|0,0|0,0
;   overrideFirmwareConfiguration,1
;   firmwareTypeOverride,RepRap (Marlin/Repetier/Sprinter)
;   GPXconfigOverride,r2
;   baudRateOverride,115200
;   overridePrinterModels,1
;   printerModelsOverride
;   startingGcode,G28 ; home all axes,G1 Z 2 ; set height for prime line,G92 E0 ; zero extruder,G1 X150 E30 F400 ; prime line
;   layerChangeGcode,
;   retractionGcode,
;   toolChangeGcode,
;   endingGcode,G28 X0 ; home X axis,M104 S0 ; turn off extruder,M84 ; disable motors
;   exportFileFormat,gcode
;   celebration,0
;   celebrationSong,Random Song
;   postProcessing,
;   defaultSpeed,2400
;   outlineUnderspeed,0.5
;   solidInfillUnderspeed,0.8
;   supportUnderspeed,0.8
;   rapidXYspeed,2400
;   rapidZspeed,900
;   minBridgingArea,50
;   bridgingExtraInflation,0
;   bridgingExtrusionMultiplier,1
;   bridgingSpeedMultiplier,1
;   useFixedBridgingAngle,0
;   fixedBridgingAngle,0
;   applyBridgingToPerimeters,0
;   filamentDiameters,1.75|3|3|3|3|3
;   filamentPricesPerKg,46|46|46|46|46|46
;   filamentDensities,1.25|1.25|1.25|1.25|1.25|1.25
;   useMinPrintHeight,0
;   minPrintHeight,0
;   useMaxPrintHeight,0
;   maxPrintHeight,0
;   useDiaphragm,0
;   diaphragmLayerInterval,20
;   robustSlicing,1
;   mergeAllIntoSolid,0
;   onlyRetractWhenCrossingOutline,1
;   retractBetweenLayers,1
;   useRetractionMinTravel,1
;   retractionMinTravel,3
;   retractWhileWiping,0
;   onlyWipeOutlines,1
;   avoidCrossingOutline,1
;   maxMovementDetourFactor,3
;   toolChangeRetractionDistance,12
;   toolChangeExtraRestartDistance,-0.5
;   toolChangeRetractionSpeed,600
;   externalThinWallType,0
;   internalThinWallType,2
;   thinWallAllowedOverlapPercentage,10
;   singleExtrusionMinLength,1
;   singleExtrusionMinPrintingWidthPercentage,50
;   singleExtrusionMaxPrintingWidthPercentage,200
;   singleExtrusionEndpointExtension,0
;   horizontalSizeCompensation,0
G90
M82
M106 S255
M104 S220 T0
M109 S220 T0
G28 ; home all axes
G1 Z 2 ; set height for prime line
G92 E0 ; zero extruder
G1 X150 E30 F400 ; prime line
; process Process1
; layer 1, Z = 0.375
T0
G92 E0.0000
G1 E-5.0000 F3000
; feature skirt
; tool H0.375 W0.360
G1 Z0.375 F900
G1 X93.480 Y76.519 F2400
G1 E0.0000 F3000
G92 E0.0000
G1 X96.139 Y73.860 E0.1900 F1200
G1 X160.861 Y73.860 E3.4593
G1 X163.520 Y76.519 E3.6493
G1 X163.520 Y84.091 E4.0317
G1 X160.861 Y86.750 E4.2217
G1 X108.297 Y86.750 E6.8769
G1 X108.127 Y86.758 E6.8855
G1 X108.082 Y86.764 E6.8878
G1 X108.033 Y86.775 E6.8903
G1 X107.987 Y86.791 E6.8928
G1 X107.941 Y86.811 E6.8953
G1 X107.898 Y86.835 E6.8978
G1 X107.858 Y86.863 E6.9003
G1 X107.819 Y86.895 E6.9028
G1 X107.785 Y86.929 E6.9053
G1 X107.753 Y86.968 E6.9078
G1 X107.731 Y86.999 E6.9097
G1 X107.695 Y87.065 E6.9135
G1 X107.681 Y87.097 E6.9153
G1 X107.665 Y87.143 E6.9178
G1 X107.654 Y87.192 E6.9203
G1 X107.647 Y87.241 E6.9228
G1 X107.640 Y87.395 E6.9306
G1 X107.640 Y156.481 E10.4203
G1 X104.981 Y159.140 E10.6103
G1 X96.139 Y159.140 E11.0569
G1 X93.480 Y156.481 E11.2469
G1 X93.480 Y76.519 E15.2860
G1 X93.840 Y76.669 F2400
G92 E0.0000
G1 X96.289 Y74.220 E0.1749 F1200
G1 X160.711 Y74.220 E3.4292
G1 X163.160 Y76.669 E3.6041
G1 X163.160 Y83.941 E3.9715
G1 X160.711 Y86.390 E4.1464
G1 X108.289 Y86.390 E6.7945
G1 X108.094 Y86.399 E6.8043
G1 X108.016 Y86.410 E6.8083
G1 X107.935 Y86.429 E6.8125
G1 X107.857 Y86.455 E6.8167
G1 X107.781 Y86.488 E6.8208
G1 X107.709 Y86.529 E6.8250
G1 X107.640 Y86.575 E6.8292
G1 X107.577 Y86.628 E6.8334
G1 X107.518 Y86.687 E6.8376
G1 X107.465 Y86.750 E6.8417
G1 X107.424 Y86.810 E6.8454
G1 X107.372 Y86.905 E6.8509
G1 X107.345 Y86.967 E6.8543
G1 X107.319 Y87.045 E6.8584
G1 X107.300 Y87.125 E6.8626
G1 X107.288 Y87.207 E6.8668
G1 X107.280 Y87.387 E6.8759
G1 X107.280 Y156.331 E10.3585
G1 X104.831 Y158.780 E10.5335
G1 X96.289 Y158.780 E10.9650
G1 X93.840 Y156.331 E11.1399
G1 X93.840 Y76.669 E15.1640
G92 E0.0000
G1 E-5.0000 F3000
; feature inner perimeter
G1 X98.200 Y78.580 F2400
G1 X98.200 Y79.066
G1 X99.280 Y79.660
G1 E0.0000 F3000
G92 E0.0000
G1 X157.720 Y79.660 E2.9520 F900
G1 X157.720 Y80.950 E3.0172
G1 X108.167 Y80.950 E5.5203
G1 X107.596 Y80.976 E5.5492
G1 X107.015 Y81.057 E5.5788
G1 X106.445 Y81.191 E5.6084
G1 X105.889 Y81.377 E5.6380
G1 X105.353 Y81.613 E5.6676
G1 X104.842 Y81.898 E5.6972
G1 X104.359 Y82.229 E5.7268
G1 X103.908 Y82.604 E5.7563
G1 X103.494 Y83.018 E5.7859
G1 X103.120 Y83.468 E5.8155
G1 X102.788 Y83.953 E5.8452
G1 X102.499 Y84.473 E5.8752
G1 X102.267 Y84.999 E5.9043
G1 X102.081 Y85.555 E5.9339
G1 X101.947 Y86.125 E5.9635
G1 X101.866 Y86.705 E5.9930
G1 X101.840 Y87.261 E6.0212
G1 X101.840 Y153.340 E9.3591
G1 X99.280 Y153.340 E9.4884
G1 X99.280 Y79.660 E13.2102
G1 X98.920 Y79.300 F2400
G92 E0.0000
G1 X158.080 Y79.300 E2.9884 F900
G1 X158.080 Y81.310 E3.0899
G1 X108.175 Y81.310 E5.6108
G1 X107.629 Y81.334 E5.6384
G1 X107.081 Y81.411 E5.6664
G1 X106.543 Y81.537 E5.6943
G1 X106.019 Y81.713 E5.7222
G1 X105.514 Y81.936 E5.7501
G1 X105.031 Y82.205 E5.7780
G1 X104.576 Y82.517 E5.8059
G1 X104.151 Y82.870 E5.8338
G1 X103.760 Y83.261 E5.8617
G1 X103.407 Y83.686 E5.8896
G1 X103.094 Y84.142 E5.9176
G1 X102.822 Y84.634 E5.9460
G1 X102.603 Y85.129 E5.9733
G1 X102.427 Y85.653 E6.0013
G1 X102.301 Y86.191 E6.0292
G1 X102.225 Y86.738 E6.0571
G1 X102.200 Y87.269 E6.0839
G1 X102.200 Y153.700 E9.4396
G1 X98.920 Y153.700 E9.6053
G1 X98.920 Y79.300 E13.3635
G1 X98.560 Y78.940 F2400
G92 E0.0000
G1 X158.440 Y78.940 E3.0248 F900
G1 X158.440 Y81.670 E3.1627
G1 X108.183 Y81.670 E5.7013
G1 X107.662 Y81.693 E5.7277
G1 X107.147 Y81.765 E5.7539
G1 X106.642 Y81.884 E5.7802
G1 X106.150 Y82.049 E5.8064
G1 X105.675 Y82.259 E5.8326
G1 X105.221 Y82.511 E5.8588
G1 X104.793 Y82.805 E5.8851
G1 X104.393 Y83.136 E5.9113
G1 X104.026 Y83.503 E5.9375
G1 X103.695 Y83.903 E5.9637
G1 X103.401 Y84.332 E5.9900
G1 X103.145 Y84.794 E6.0167
G1 X102.939 Y85.260 E6.0424
G1 X102.774 Y85.752 E6.0686
G1 X102.655 Y86.257 E6.0949
G1 X102.583 Y86.771 E6.1211
G1 X102.560 Y87.278 E6.1467
G1 X102.560 Y154.060 E9.5201
G1 X98.560 Y154.060 E9.7222
G1 X98.560 Y78.940 E13.5168
; feature outer perimeter
G1 X98.200 Y78.580 F2400
G92 E0.0000
G1 X158.800 Y78.580 E3.0611 F600
G1 X158.800 Y82.030 E3.2354
G1 X108.191 Y82.030 E5.7919
G1 X107.695 Y82.052 E5.8170
G1 X107.213 Y82.119 E5.8415
G1 X106.740 Y82.231 E5.8661
G1 X106.280 Y82.385 E5.8906
G1 X105.835 Y82.581 E5.9151
G1 X105.411 Y82.818 E5.9397
G1 X105.010 Y83.092 E5.9642
G1 X104.636 Y83.403 E5.9888
G1 X104.293 Y83.746 E6.0133
G1 X103.982 Y84.120 E6.0379
G1 X103.708 Y84.521 E6.0624
G1 X103.467 Y84.954 E6.0874
G1 X103.275 Y85.390 E6.1115
G1 X103.121 Y85.850 E6.1360
G1 X103.009 Y86.323 E6.1606
G1 X102.942 Y86.805 E6.1851
G1 X102.920 Y87.286 E6.2094
G1 X102.920 Y154.420 E9.6006
G1 X98.200 Y154.420 E9.8391
G1 X98.200 Y78.580 E13.6700
; feature solid layer
G1 X157.133 Y79.966 F2400
G92 E0.0000
G1 X157.414 Y80.247 E0.0201 F960
G1 X157.414 Y80.644 E0.0401
G1 X157.302 Y80.644 E0.0458
G1 X156.624 Y79.966 E0.0942
G1 X156.115 Y79.966 E0.1199
G1 X156.793 Y80.644 E0.1684
G1 X156.284 Y80.644 E0.1941
G1 X155.606 Y79.966 E0.2425
G1 X155.096 Y79.966 E0.2683
G1 X155.774 Y80.644 E0.3167
G1 X155.265 Y80.644 E0.3424
G1 X154.587 Y79.966 E0.3908
G1 X154.078 Y79.966 E0.4166
G1 X154.756 Y80.644 E0.4650
G1 X154.247 Y80.644 E0.4907
G1 X153.569 Y79.966 E0.5391
G1 X153.060 Y79.966 E0.5649
G1 X153.738 Y80.644 E0.6133
G1 X153.229 Y80.644 E0.6390
G1 X152.551 Y79.966 E0.6874
G1 X152.042 Y79.966 E0.7132
G1 X152.720 Y80.644 E0.7616
G1 X152.211 Y80.644 E0.7873
G1 X151.533 Y79.966 E0.8357
G1 X151.024 Y79.966 E0.8615
G1 X151.702 Y80.644 E0.9099
G1 X151.192 Y80.644 E0.9356
G1 X150.514 Y79.966 E0.9841
G1 X150.005 Y79.966 E1.0098
G1 X150.683 Y80.644 E1.0582
G1 X150.174 Y80.644 E1.0839
G1 X149.496 Y79.966 E1.1324
G1 X148.987 Y79.966 E1.1581
G1 X149.665 Y80.644 E1.2065
G1 X149.156 Y80.644 E1.2322
G1 X148.478 Y79.966 E1.2807
G1 X147.969 Y79.966 E1.3064
G1 X148.647 Y80.644 E1.3548
G1 X148.138 Y80.644 E1.3805
G1 X147.460 Y79.966 E1.4290
G1 X146.951 Y79.966 E1.4547
G1 X147.629 Y80.644 E1.5031
G1 X147.120 Y80.644 E1.5288
G1 X146.442 Y79.966 E1.5773
G1 X145.932 Y79.966 E1.6030
G1 X146.610 Y80.644 E1.6514
G1 X146.101 Y80.644 E1.6771
G1 X145.423 Y79.966 E1.7256
G1 X144.914 Y79.966 E1.7513
G1 X145.592 Y80.644 E1.7997
G1 X145.083 Y80.644 E1.8254
G1 X144.405 Y79.966 E1.8739
G1 X143.896 Y79.966 E1.8996
G1 X144.574 Y80.644 E1.9480
G1 X144.065 Y80.644 E1.9737
G1 X143.387 Y79.966 E2.0222
G1 X142.878 Y79.966 E2.0479
G1 X143.556 Y80.644 E2.0963
G1 X143.047 Y80.644 E2.1220
G1 X142.369 Y79.966 E2.1705
G1 X141.859 Y79.966 E2.1962
G1 X142.537 Y80.644 E2.2446
G1 X142.028 Y80.644 E2.2704
G1 X141.350 Y79.966 E2.3188
G1 X140.841 Y79.966 E2.3445
G1 X141.519 Y80.644 E2.3929
G1 X141.010 Y80.644 E2.4187
G1 X140.332 Y79.966 E2.4671
G1 X139.823 Y79.966 E2.4928
G1 X140.501 Y80.644 E2.5412
G1 X139.992 Y80.644 E2.5670
G1 X139.314 Y79.966 E2.6154
G1 X138.805 Y79.966 E2.6411
G1 X139.483 Y80.644 E2.6895
G1 X138.974 Y80.644 E2.7153
G1 X138.296 Y79.966 E2.7637
G1 X137.787 Y79.966 E2.7894
G1 X138.465 Y80.644 E2.8379
G1 X137.955 Y80.644 E2.8636
G1 X137.277 Y79.966 E2.9120
G1 X136.768 Y79.966 E2.9377
G1 X137.446 Y80.644 E2.9862
G1 X136.937 Y80.644 E3.0119
G1 X136.259 Y79.966 E3.0603
G1 X135.750 Y79.966 E3.0860
G1 X136.428 Y80.644 E3.1345
G1 X135.919 Y80.644 E3.1602
G1 X135.241 Y79.966 E3.2086
G1 X134.732 Y79.966 E3.2343
G1 X135.410 Y80.644 E3.2828
G1 X134.901 Y80.644 E3.3085
G1 X134.223 Y79.966 E3.3569
G1 X133.714 Y79.966 E3.3826
G1 X134.392 Y80.644 E3.4311
G1 X133.882 Y80.644 E3.4568
G1 X133.204 Y79.966 E3.5052
G1 X132.695 Y79.966 E3.5309
G1 X133.373 Y80.644 E3.5794
G1 X132.864 Y80.644 E3.6051
G1 X132.186 Y79.966 E3.6535
G1 X131.677 Y79.966 E3.6792
G1 X132.355 Y80.644 E3.7277
G1 X131.846 Y80.644 E3.7534
G1 X131.168 Y79.966 E3.8018
G1 X130.659 Y79.966 E3.8275
G1 X131.337 Y80.644 E3.8760
G1 X130.828 Y80.644 E3.9017
G1 X130.150 Y79.966 E3.9501
G1 X129.641 Y79.966 E3.9758
G1 X130.319 Y80.644 E4.0243
G1 X129.810 Y80.644 E4.0500
G1 X129.132 Y79.966 E4.0984
G1 X128.622 Y79.966 E4.1242
G1 X129.300 Y80.644 E4.1726
G1 X128.791 Y80.644 E4.1983
G1 X128.113 Y79.966 E4.2467
G1 X127.604 Y79.966 E4.2725
G1 X128.282 Y80.644 E4.3209
G1 X127.773 Y80.644 E4.3466
G1 X127.095 Y79.966 E4.3950
G1 X126.586 Y79.966 E4.4208
G1 X127.264 Y80.644 E4.4692
G1 X126.755 Y80.644 E4.4949
G1 X126.077 Y79.966 E4.5433
G1 X125.568 Y79.966 E4.5691
G1 X126.246 Y80.644 E4.6175
G1 X125.737 Y80.644 E4.6432
G1 X125.059 Y79.966 E4.6917
G1 X124.549 Y79.966 E4.7174
G1 X125.227 Y80.644 E4.7658
G1 X124.718 Y80.644 E4.7915
G1 X124.040 Y79.966 E4.8400
G1 X123.531 Y79.966 E4.8657
G1 X124.209 Y80.644 E4.9141
G1 X123.700 Y80.644 E4.9398
G1 X123.022 Y79.966 E4.9883
G1 X122.513 Y79.966 E5.0140
G1 X123.191 Y80.644 E5.0624
G1 X122.682 Y80.644 E5.0881
G1 X122.004 Y79.966 E5.1366
G1 X121.495 Y79.966 E5.1623
G1 X122.173 Y80.644 E5.2107
G1 X121.664 Y80.644 E5.2364
G1 X120.986 Y79.966 E5.2849
G1 X120.477 Y79.966 E5.3106
G1 X121.155 Y80.644 E5.3590
G1 X120.645 Y80.644 E5.3847
G1 X119.967 Y79.966 E5.4332
G1 X119.458 Y79.966 E5.4589
G1 X120.136 Y80.644 E5.5073
G1 X119.627 Y80.644 E5.5330
G1 X118.949 Y79.966 E5.5815
G1 X118.440 Y79.966 E5.6072
G1 X119.118 Y80.644 E5.6556
G1 X118.609 Y80.644 E5.6813
G1 X117.931 Y79.966 E5.7298
G1 X117.422 Y79.966 E5.7555
G1 X118.100 Y80.644 E5.8039
G1 X117.591 Y80.644 E5.8296
G1 X116.913 Y79.966 E5.8781
G1 X116.404 Y79.966 E5.9038
G1 X117.082 Y80.644 E5.9522
G1 X116.572 Y80.644 E5.9780
G1 X115.894 Y79.966 E6.0264
G1 X115.385 Y79.966 E6.0521
G1 X116.063 Y80.644 E6.1005
G1 X115.554 Y80.644 E6.1263
G1 X114.876 Y79.966 E6.1747
G1 X114.367 Y79.966 E6.2004
G1 X115.045 Y80.644 E6.2488
G1 X114.536 Y80.644 E6.2746
G1 X113.858 Y79.966 E6.3230
G1 X113.349 Y79.966 E6.3487
G1 X114.027 Y80.644 E6.3971
G1 X113.518 Y80.644 E6.4229
G1 X112.840 Y79.966 E6.4713
G1 X112.331 Y79.966 E6.4970
G1 X113.009 Y80.644 E6.5454
G1 X112.500 Y80.644 E6.5712
G1 X111.822 Y79.966 E6.6196
G1 X111.312 Y79.966 E6.6453
G1 X111.990 Y80.644 E6.6938
G1 X111.481 Y80.644 E6.7195
G1 X110.803 Y79.966 E6.7679
G1 X110.294 Y79.966 E6.7936
G1 X110.972 Y80.644 E6.8421
G1 X110.463 Y80.644 E6.8678
G1 X109.785 Y79.966 E6.9162
G1 X109.276 Y79.966 E6.9419
G1 X109.954 Y80.644 E6.9904
G1 X109.445 Y80.644 E7.0161
G1 X108.767 Y79.966 E7.0645
G1 X108.258 Y79.966 E7.0902
G1 X108.936 Y80.644 E7.1387
G1 X108.427 Y80.644 E7.1644
G1 X107.749 Y79.966 E7.2128
G1 X107.240 Y79.966 E7.2385
G1 X107.928 Y80.654 E7.2877
G1 X107.568 Y80.671 E7.3059
G1 X107.451 Y80.687 E7.3119
G1 X106.730 Y79.966 E7.3634
