; G-Code generated by Simplify3D(R) Version 4.1.2
; Nov 21, 2020 at 3:34:12 PM
; Settings Summary
;   processName,Process1
;   applyToModels,CuteOcto
;   profileName,HIGH DETAIL
;   profileVersion,2020-11-20 15:29:32
;   baseProfile,Wanhao Duplicator 5S Mini
;   printMaterial,PLA
;   printQuality,0.15
;   printExtruders,
;   extruderName,Primary Extruder
;   extruderToolheadNumber,0
;   extruderDiameter,0.3
;   extruderAutoWidth,0
;   extruderWidth,0.3
;   extrusionMultiplier,0.87
;   extruderUseRetract,1
;   extruderRetractionDistance,7.5
;   extruderExtraRestartDistance,0
;   extruderRetractionZLift,0
;   extruderRetractionSpeed,3000
;   extruderUseCoasting,1
;   extruderCoastingDistance,2
;   extruderUseWipe,0
;   extruderWipeDistance,5
;   primaryExtruder,0
;   layerHeight,0.15
;   topSolidLayers,3
;   bottomSolidLayers,3
;   perimeterOutlines,3
;   printPerimetersInsideOut,1
;   startPointOption,3
;   startPointOriginX,0
;   startPointOriginY,0
;   sequentialIslands,0
;   spiralVaseMode,0
;   firstLayerHeightPercentage,150
;   firstLayerWidthPercentage,100
;   firstLayerUnderspeed,0.5
;   useRaft,0
;   raftExtruder,0
;   raftTopLayers,3
;   raftBaseLayers,2
;   raftOffset,3
;   raftSeparationDistance,0.14
;   raftTopInfill,100
;   aboveRaftSpeedMultiplier,0.3
;   useSkirt,1
;   skirtExtruder,0
;   skirtLayers,1
;   skirtOutlines,2
;   skirtOffset,4
;   usePrimePillar,0
;   primePillarExtruder,999
;   primePillarWidth,12
;   primePillarLocation,7
;   primePillarSpeedMultiplier,1
;   useOozeShield,0
;   oozeShieldExtruder,999
;   oozeShieldOffset,2
;   oozeShieldOutlines,1
;   oozeShieldSidewallShape,1
;   oozeShieldSidewallAngle,30
;   oozeShieldSpeedMultiplier,1
;   infillExtruder,0
;   internalInfillPattern,Triangular
;   externalInfillPattern,Rectilinear
;   infillPercentage,35
;   outlineOverlapPercentage,15
;   infillExtrusionWidthPercentage,150
;   minInfillLength,5
;   infillLayerInterval,2
;   internalInfillAngles,0,60,-60
;   overlapInternalInfillAngles,1
;   externalInfillAngles,45,-45
;   generateSupport,0
;   supportExtruder,0
;   supportInfillPercentage,30
;   supportExtraInflation,1
;   supportBaseLayers,0
;   denseSupportExtruder,0
;   denseSupportLayers,0
;   denseSupportInfillPercentage,70
;   supportLayerInterval,2
;   supportHorizontalPartOffset,1
;   supportUpperSeparationLayers,1
;   supportLowerSeparationLayers,1
;   supportType,0
;   supportGridSpacing,4
;   maxOverhangAngle,45
;   supportAngles,0
;   temperatureName,Primary Extruder
;   temperatureNumber,0
;   temperatureSetpointCount,2
;   temperatureSetpointLayers,1,5
;   temperatureSetpointTemperatures,220,210
;   temperatureStabilizeAtStartup,1
;   temperatureHeatedBed,0
;   fanLayers,1,2
;   fanSpeeds,100,100
;   blipFanToFullPower,0
;   adjustSpeedForCooling,1
;   minSpeedLayerTime,7
;   minCoolingSpeedSlowdown,20
;   increaseFanForCooling,0
;   minFanLayerTime,45
;   maxCoolingFanSpeed,100
;   increaseFanForBridging,0
;   bridgingFanSpeed,100
;   use5D,1
;   relativeEdistances,0
;   allowEaxisZeroing,1
;   independentExtruderAxes,0
;   includeM10123,0
;   stickySupport,1
;   applyToolheadOffsets,0
;   gcodeXoffset,0
;   gcodeYoffset,0
;   gcodeZoffset,0
;   overrideMachineDefinition,0
;   machineTypeOverride,0
;   strokeXoverride,305
;   strokeYoverride,205
;   strokeZoverride,205
;   originOffsetXoverride,0
;   originOffsetYoverride,0
;   originOffsetZoverride,0
;   homeXdirOverride,-1
;   homeYdirOverride,-1
;   homeZdirOverride,-1
;   flipXoverride,1
;   flipYoverride,-1
;   flipZoverride,1
;   toolheadOffsets,0,0|0,0|0,0|0,0|0,0|0,0
;   overrideFirmwareConfiguration,1
;   firmwareTypeOverride,RepRap (Marlin/Repetier/Sprinter)
;   GPXconfigOverride,r2
;   baudRateOverride,115200
;   overridePrinterModels,1
;   printerModelsOverride
;   startingGcode,G28 ; home all axes,G1 Z2  ; set height for prime line,G92 E0 ; zero extruder,G1 X150 E30 F400 ; prime line
;   layerChangeGcode,
;   retractionGcode,
;   toolChangeGcode,
;   endingGcode,G28 X0 ; home X axis,M104 S0 ; turn off extruder,M84 ; disable motors
;   exportFileFormat,gcode
;   celebration,0
;   celebrationSong,Random Song
;   postProcessing,
;   defaultSpeed,1800
;   outlineUnderspeed,0.5
;   solidInfillUnderspeed,0.8
;   supportUnderspeed,0.8
;   rapidXYspeed,2400
;   rapidZspeed,600
;   minBridgingArea,50
;   bridgingExtraInflation,0
;   bridgingExtrusionMultiplier,1
;   bridgingSpeedMultiplier,1
;   useFixedBridgingAngle,0
;   fixedBridgingAngle,0
;   applyBridgingToPerimeters,0
;   filamentDiameters,1.75|3|3|3|3|3
;   filamentPricesPerKg,46|46|46|46|46|46
;   filamentDensities,1.25|1.25|1.25|1.25|1.25|1.25
;   useMinPrintHeight,0
;   minPrintHeight,0
;   useMaxPrintHeight,0
;   maxPrintHeight,0
;   useDiaphragm,0
;   diaphragmLayerInterval,20
;   robustSlicing,1
;   mergeAllIntoSolid,0
;   onlyRetractWhenCrossingOutline,1
;   retractBetweenLayers,0
;   useRetractionMinTravel,1
;   retractionMinTravel,3
;   retractWhileWiping,0
;   onlyWipeOutlines,1
;   avoidCrossingOutline,1
;   maxMovementDetourFactor,3
;   toolChangeRetractionDistance,12
;   toolChangeExtraRestartDistance,-0.5
;   toolChangeRetractionSpeed,600
;   externalThinWallType,0
;   internalThinWallType,2
;   thinWallAllowedOverlapPercentage,10
;   singleExtrusionMinLength,1
;   singleExtrusionMinPrintingWidthPercentage,50
;   singleExtrusionMaxPrintingWidthPercentage,200
;   singleExtrusionEndpointExtension,0.2
;   horizontalSizeCompensation,0
G90
M82
M106 S255
M104 S220 T0
M109 S220 T0
G28 ; home all axes
G1 Z2  ; set height for prime line
G92 E0 ; zero extruder
G1 X150 E30 F400 ; prime line
; process Process1
; layer 1, Z = 0.225
T0
G92 E0.0000
G1 E-7.5000 F3000
; feature skirt
; tool H0.225 W0.300
G1 Z0.225 F600
G1 X105.974 Y103.927 F2400
G1 E0.0000 F3000
G92 E0.0000
G1 X106.530 Y103.523 E0.0168 F900
G1 X107.367 Y103.095 E0.0397
G1 X107.939 Y102.894 E0.0545
G1 X108.806 Y102.717 E0.0762
G1 X109.238 Y102.672 E0.0867
G1 X109.833 Y102.668 E0.1013
G1 X110.209 Y102.698 E0.1105
G1 X111.114 Y102.846 E0.1329
G1 X111.501 Y102.946 E0.1426
G1 X112.306 Y103.232 E0.1635
G1 X112.514 Y103.318 E0.1690
G1 X113.069 Y103.582 E0.1840
G1 X113.245 Y103.675 E0.1889
G1 X113.788 Y103.996 E0.2043
G1 X113.804 Y103.565 E0.2148
G1 X113.809 Y103.474 E0.2170
G1 X113.893 Y102.375 E0.2439
G1 X113.905 Y102.258 E0.2468
G1 X114.166 Y100.246 E0.2963
G1 X114.192 Y100.091 E0.3002
G1 X114.359 Y99.262 E0.3208
G1 X114.392 Y99.122 E0.3243
G1 X114.648 Y98.178 E0.3482
G1 X114.699 Y98.014 E0.3524
G1 X114.982 Y97.218 E0.3730
G1 X115.040 Y97.072 E0.3769
G1 X115.397 Y96.256 E0.3986
G1 X115.473 Y96.100 E0.4028
G1 X115.959 Y95.188 E0.4281
G1 X116.079 Y94.990 E0.4337
G1 X116.594 Y94.228 E0.4562
G1 X116.823 Y93.943 E0.4651
G1 X117.422 Y93.311 E0.4864
G1 X117.795 Y92.996 E0.4983
G1 X118.702 Y92.385 E0.5250
G1 X119.397 Y92.073 E0.5436
G1 X120.303 Y91.840 E0.5664
G1 X120.886 Y91.770 E0.5808
G1 X121.614 Y91.779 E0.5985
G1 X122.119 Y91.843 E0.6110
G1 X122.802 Y92.011 E0.6282
G1 X123.233 Y92.165 E0.6393
G1 X123.771 Y92.423 E0.6539
G1 X124.095 Y92.613 E0.6631
G1 X124.592 Y92.964 E0.6779
G1 X124.892 Y93.218 E0.6875
G1 X125.471 Y93.805 E0.7076
G1 X125.803 Y94.234 E0.7209
G1 X126.383 Y95.213 E0.7487
G1 X126.555 Y95.571 E0.7584
G1 X126.989 Y96.733 E0.7887
G1 X127.075 Y97.021 E0.7960
G1 X127.143 Y97.323 E0.8036
G1 X127.334 Y97.142 E0.8100
G1 X127.426 Y97.059 E0.8130
G1 X128.623 Y96.045 E0.8513
G1 X128.724 Y95.964 E0.8545
G1 X130.242 Y94.823 E0.9008
G1 X130.391 Y94.721 E0.9052
G1 X131.329 Y94.128 E0.9323
G1 X131.504 Y94.028 E0.9373
G1 X132.716 Y93.408 E0.9705
G1 X132.946 Y93.307 E0.9766
G1 X134.058 Y92.889 E1.0056
G1 X134.247 Y92.827 E1.0105
G1 X135.156 Y92.575 E1.0335
G1 X135.376 Y92.526 E1.0390
G1 X136.262 Y92.374 E1.0610
G1 X136.665 Y92.342 E1.0708
G1 X137.632 Y92.354 E1.0944
G1 X138.222 Y92.441 E1.1090
G1 X139.173 Y92.714 E1.1332
G1 X139.761 Y92.980 E1.1489
G1 X140.496 Y93.450 E1.1702
G1 X140.927 Y93.809 E1.1839
G1 X141.448 Y94.368 E1.2026
G1 X141.789 Y94.849 E1.2170
G1 X142.151 Y95.535 E1.2359
G1 X142.342 Y96.034 E1.2489
G1 X142.536 Y96.808 E1.2684
G1 X142.603 Y97.360 E1.2820
G1 X142.599 Y98.401 E1.3074
G1 X142.549 Y98.865 E1.3188
G1 X142.401 Y99.549 E1.3359
G1 X142.325 Y99.816 E1.3427
G1 X142.065 Y100.558 E1.3619
G1 X141.966 Y100.795 E1.3682
G1 X141.648 Y101.448 E1.3859
G1 X141.555 Y101.619 E1.3906
G1 X141.291 Y102.059 E1.4032
G1 X142.628 Y102.144 E1.4359
G1 X142.729 Y102.153 E1.4384
G1 X144.139 Y102.309 E1.4730
G1 X144.252 Y102.324 E1.4758
G1 X145.506 Y102.528 E1.5068
G1 X145.703 Y102.569 E1.5117
G1 X147.116 Y102.932 E1.5473
G1 X147.369 Y103.013 E1.5538
G1 X148.796 Y103.567 E1.5912
G1 X149.066 Y103.693 E1.5984
G1 X150.366 Y104.411 E1.6347
G1 X150.608 Y104.566 E1.6417
G1 X151.255 Y105.040 E1.6613
G1 X151.512 Y105.261 E1.6696
G1 X152.160 Y105.909 E1.6920
G1 X152.490 Y106.330 E1.7050
G1 X152.933 Y107.060 E1.7259
G1 X153.155 Y107.552 E1.7390
G1 X153.420 Y108.398 E1.7607
G1 X153.520 Y109.149 E1.7792
G1 X153.485 Y110.107 E1.8026
G1 X153.389 Y110.679 E1.8167
G1 X153.181 Y111.358 E1.8341
G1 X152.969 Y111.840 E1.8469
G1 X152.574 Y112.509 E1.8659
G1 X152.304 Y112.875 E1.8770
G1 X151.877 Y113.345 E1.8925
G1 X151.628 Y113.579 E1.9009
G1 X150.973 Y114.109 E1.9214
G1 X150.667 Y114.317 E1.9305
G1 X150.117 Y114.626 E1.9459
G1 X149.966 Y114.704 E1.9500
G1 X149.492 Y114.925 E1.9628
G1 X149.268 Y115.016 E1.9687
G1 X148.463 Y115.290 E1.9894
G1 X148.251 Y115.350 E1.9948
G1 X147.943 Y115.422 E2.0026
G1 X148.365 Y115.876 E2.0177
G1 X148.459 Y115.984 E2.0212
G1 X149.853 Y117.693 E2.0750
G1 X149.932 Y117.795 E2.0782
G1 X150.477 Y118.548 E2.1009
G1 X150.548 Y118.653 E2.1040
G1 X151.078 Y119.481 E2.1280
G1 X151.150 Y119.602 E2.1314
G1 X151.475 Y120.188 E2.1478
G1 X151.548 Y120.331 E2.1517
G1 X152.021 Y121.351 E2.1791
G1 X152.093 Y121.525 E2.1837
G1 X152.402 Y122.375 E2.2058
G1 X152.457 Y122.548 E2.2102
G1 X152.708 Y123.461 E2.2334
G1 X152.753 Y123.663 E2.2384
G1 X152.879 Y124.379 E2.2562
G1 X152.911 Y124.676 E2.2635
G1 X152.948 Y125.594 E2.2859
G1 X152.896 Y126.172 E2.3001
G1 X152.675 Y127.158 E2.3247
G1 X152.452 Y127.749 E2.3402
G1 X152.042 Y128.494 E2.3609
G1 X151.660 Y129.000 E2.3764
G1 X151.070 Y129.588 E2.3967
G1 X150.600 Y129.945 E2.4111
G1 X149.796 Y130.403 E2.4337
G1 X149.204 Y130.637 E2.4493
G1 X148.479 Y130.808 E2.4675
G1 X148.066 Y130.866 E2.4776
G1 X147.342 Y130.899 E2.4954
G1 X146.982 Y130.886 E2.5041
G1 X146.380 Y130.816 E2.5189
G1 X145.996 Y130.736 E2.5285
G1 X144.945 Y130.420 E2.5553
G1 X144.678 Y130.320 E2.5623
G1 X144.096 Y130.060 E2.5778
G1 X143.897 Y129.958 E2.5833
G1 X143.556 Y129.762 E2.5929
G1 X143.485 Y130.106 E2.6015
G1 X143.197 Y131.025 E2.6250
G1 X142.843 Y131.711 E2.6438
G1 X142.002 Y132.817 E2.6777
G1 X140.775 Y133.642 E2.7138
G1 X139.472 Y133.992 E2.7468
G1 X138.526 Y134.039 E2.7699
G1 X137.788 Y133.919 E2.7882
G1 X137.460 Y133.840 E2.7964
G1 X137.320 Y133.794 E2.8000
G1 X136.860 Y133.879 E2.8114
G1 X136.406 Y133.914 E2.8225
G1 X135.285 Y133.888 E2.8499
G1 X134.819 Y134.014 E2.8617
G1 X133.727 Y134.089 E2.8884
G1 X132.734 Y133.933 E2.9130
G1 X132.130 Y133.691 E2.9289
G1 X131.878 Y134.041 E2.9394
G1 X131.782 Y134.165 E2.9432
G1 X131.173 Y134.897 E2.9664
G1 X131.078 Y135.004 E2.9699
G1 X130.374 Y135.747 E2.9949
G1 X130.252 Y135.866 E2.9991
G1 X129.061 Y136.944 E3.0383
G1 X128.953 Y137.036 E3.0418
G1 X127.299 Y138.352 E3.0934
G1 X127.186 Y138.436 E3.0968
G1 X126.407 Y138.980 E3.1200
G1 X126.283 Y139.060 E3.1236
G1 X125.462 Y139.555 E3.1470
G1 X125.318 Y139.635 E3.1510
G1 X124.433 Y140.084 E3.1753
G1 X124.265 Y140.160 E3.1798
G1 X123.370 Y140.525 E3.2034
G1 X123.182 Y140.592 E3.2082
G1 X122.091 Y140.926 E3.2361
G1 X121.857 Y140.984 E3.2420
G1 X120.951 Y141.156 E3.2645
G1 X120.619 Y141.194 E3.2727
G1 X119.711 Y141.229 E3.2949
G1 X119.204 Y141.191 E3.3073
G1 X118.262 Y141.010 E3.3307
G1 X117.600 Y140.770 E3.3479
G1 X116.802 Y140.328 E3.3701
G1 X116.333 Y139.981 E3.3844
G1 X115.778 Y139.445 E3.4032
G1 X115.459 Y139.060 E3.4154
G1 X115.069 Y138.462 E3.4329
G1 X114.840 Y138.004 E3.4454
G1 X114.608 Y137.364 E3.4620
G1 X114.496 Y136.921 E3.4731
G1 X114.401 Y136.260 E3.4894
G1 X114.380 Y135.846 E3.4996
G1 X114.415 Y135.030 E3.5195
G1 X114.467 Y134.638 E3.5292
G1 X114.632 Y133.900 E3.5476
G1 X114.734 Y133.569 E3.5561
G1 X115.120 Y132.591 E3.5818
G1 X115.234 Y132.347 E3.5883
G1 X115.619 Y131.636 E3.6081
G1 X115.705 Y131.498 E3.6120
G1 X115.637 Y131.496 E3.6137
G1 X115.531 Y131.492 E3.6163
G1 X114.162 Y131.395 E3.6498
G1 X114.068 Y131.386 E3.6521
G1 X112.826 Y131.246 E3.6826
G1 X112.719 Y131.231 E3.6852
G1 X111.480 Y131.030 E3.7159
G1 X111.286 Y130.989 E3.7207
G1 X109.936 Y130.644 E3.7548
G1 X109.738 Y130.584 E3.7598
G1 X108.979 Y130.313 E3.7795
G1 X108.814 Y130.246 E3.7838
G1 X107.649 Y129.721 E3.8150
G1 X107.456 Y129.623 E3.8203
G1 X106.670 Y129.172 E3.8424
G1 X106.465 Y129.040 E3.8484
G1 X105.669 Y128.459 E3.8725
G1 X105.386 Y128.214 E3.8816
G1 X104.831 Y127.646 E3.9010
G1 X104.517 Y127.239 E3.9135
G1 X104.063 Y126.486 E3.9350
G1 X103.857 Y126.038 E3.9470
G1 X103.651 Y125.419 E3.9630
G1 X103.543 Y124.886 E3.9762
G1 X103.478 Y124.041 E3.9969
G1 X103.523 Y123.390 E4.0129
G1 X103.699 Y122.588 E4.0329
G1 X103.869 Y122.096 E4.0456
G1 X104.210 Y121.388 E4.0648
G1 X104.533 Y120.897 E4.0792
G1 X105.140 Y120.195 E4.1018
G1 X105.474 Y119.880 E4.1130
G1 X106.124 Y119.385 E4.1330
G1 X106.451 Y119.177 E4.1424
G1 X107.382 Y118.696 E4.1680
G1 X107.683 Y118.567 E4.1760
G1 X108.566 Y118.264 E4.1988
G1 X108.775 Y118.203 E4.2041
G1 X109.064 Y118.135 E4.2114
G1 X107.849 Y116.750 E4.2563
G1 X107.753 Y116.633 E4.2600
G1 X106.652 Y115.190 E4.3044
G1 X106.535 Y115.021 E4.3094
G1 X105.727 Y113.731 E4.3465
G1 X105.626 Y113.552 E4.3516
G1 X105.234 Y112.775 E4.3728
G1 X105.167 Y112.631 E4.3767
G1 X104.814 Y111.786 E4.3990
G1 X104.742 Y111.586 E4.4042
G1 X104.344 Y110.300 E4.4371
G1 X104.279 Y110.035 E4.4438
G1 X104.109 Y109.089 E4.4672
G1 X104.075 Y108.668 E4.4775
G1 X104.088 Y107.592 E4.5038
G1 X104.165 Y107.035 E4.5175
G1 X104.369 Y106.282 E4.5366
G1 X104.571 Y105.785 E4.5497
G1 X104.988 Y105.032 E4.5707
G1 X105.368 Y104.529 E4.5861
G1 X105.974 Y103.927 E4.6069
G1 X106.169 Y104.156 F2400
G92 E0.0000
G1 X106.688 Y103.780 E0.0157 F900
G1 X107.485 Y103.371 E0.0375
G1 X108.019 Y103.184 E0.0514
G1 X108.852 Y103.014 E0.0721
G1 X109.254 Y102.972 E0.0820
G1 X109.823 Y102.968 E0.0959
G1 X110.173 Y102.996 E0.1044
G1 X111.052 Y103.140 E0.1262
G1 X111.413 Y103.233 E0.1353
G1 X112.198 Y103.512 E0.1556
G1 X112.392 Y103.593 E0.1608
G1 X112.934 Y103.850 E0.1754
G1 X113.098 Y103.937 E0.1799
G1 X113.824 Y104.365 E0.2005
G1 X113.976 Y104.464 E0.2050
G1 X114.069 Y104.531 E0.2077
G1 X114.103 Y103.579 E0.2310
G1 X114.108 Y103.494 E0.2331
G1 X114.192 Y102.401 E0.2598
G1 X114.203 Y102.293 E0.2625
G1 X114.463 Y100.290 E0.3118
G1 X114.487 Y100.145 E0.3154
G1 X114.652 Y99.327 E0.3358
G1 X114.683 Y99.196 E0.3391
G1 X114.936 Y98.262 E0.3627
G1 X114.984 Y98.109 E0.3666
G1 X115.263 Y97.324 E0.3869
G1 X115.317 Y97.187 E0.3905
G1 X115.669 Y96.382 E0.4120
G1 X115.740 Y96.236 E0.4160
G1 X116.220 Y95.336 E0.4408
G1 X116.332 Y95.151 E0.4461
G1 X116.835 Y94.407 E0.4681
G1 X117.049 Y94.140 E0.4764
G1 X117.628 Y93.529 E0.4970
G1 X117.976 Y93.235 E0.5081
G1 X118.848 Y92.648 E0.5337
G1 X119.496 Y92.357 E0.5511
G1 X120.358 Y92.135 E0.5728
G1 X120.902 Y92.070 E0.5862
G1 X121.593 Y92.079 E0.6031
G1 X122.064 Y92.139 E0.6147
G1 X122.716 Y92.299 E0.6310
G1 X123.117 Y92.443 E0.6415
G1 X123.630 Y92.688 E0.6554
G1 X123.932 Y92.865 E0.6639
G1 X124.408 Y93.201 E0.6781
G1 X124.688 Y93.438 E0.6871
G1 X125.245 Y94.002 E0.7064
G1 X125.554 Y94.403 E0.7188
G1 X126.119 Y95.354 E0.7458
G1 X126.279 Y95.689 E0.7548
G1 X126.704 Y96.829 E0.7845
G1 X126.784 Y97.097 E0.7914
G1 X126.967 Y97.904 E0.8116
G1 X127.538 Y97.363 E0.8308
G1 X127.624 Y97.286 E0.8336
G1 X128.813 Y96.277 E0.8717
G1 X128.908 Y96.201 E0.8747
G1 X130.418 Y95.067 E0.9208
G1 X130.556 Y94.971 E0.9249
G1 X131.483 Y94.386 E0.9516
G1 X131.647 Y94.292 E0.9562
G1 X132.845 Y93.679 E0.9891
G1 X133.059 Y93.585 E0.9948
G1 X134.158 Y93.172 E1.0235
G1 X134.333 Y93.114 E1.0280
