; G-Code generated by Simplify3D(R) Version 4.1.2
; Nov 21, 2020 at 10:43:38 AM
; Settings Summary
;   processName,Process1
;   applyToModels,GLASS CLIP v0,GLASS CLIP v0(2),GLASS CLIP v0(3),GLASS CLIP v0(4)
;   profileName,HIGH DETAIL (modified)
;   profileVersion,2020-11-20 15:29:32
;   baseProfile,Wanhao Duplicator 5S Mini
;   printMaterial,PLA
;   printQuality,0.15
;   printExtruders,
;   extruderName,Primary Extruder
;   extruderToolheadNumber,0
;   extruderDiameter,0.3
;   extruderAutoWidth,0
;   extruderWidth,0.3
;   extrusionMultiplier,0.87
;   extruderUseRetract,1
;   extruderRetractionDistance,7.5
;   extruderExtraRestartDistance,0
;   extruderRetractionZLift,0
;   extruderRetractionSpeed,3000
;   extruderUseCoasting,1
;   extruderCoastingDistance,2
;   extruderUseWipe,0
;   extruderWipeDistance,5
;   primaryExtruder,0
;   layerHeight,0.15
;   topSolidLayers,3
;   bottomSolidLayers,3
;   perimeterOutlines,4
;   printPerimetersInsideOut,1
;   startPointOption,3
;   startPointOriginX,0
;   startPointOriginY,0
;   sequentialIslands,0
;   spiralVaseMode,0
;   firstLayerHeightPercentage,150
;   firstLayerWidthPercentage,100
;   firstLayerUnderspeed,0.5
;   useRaft,0
;   raftExtruder,0
;   raftTopLayers,3
;   raftBaseLayers,2
;   raftOffset,3
;   raftSeparationDistance,0.14
;   raftTopInfill,100
;   aboveRaftSpeedMultiplier,0.3
;   useSkirt,1
;   skirtExtruder,0
;   skirtLayers,1
;   skirtOutlines,2
;   skirtOffset,4
;   usePrimePillar,0
;   primePillarExtruder,999
;   primePillarWidth,12
;   primePillarLocation,7
;   primePillarSpeedMultiplier,1
;   useOozeShield,0
;   oozeShieldExtruder,999
;   oozeShieldOffset,2
;   oozeShieldOutlines,1
;   oozeShieldSidewallShape,1
;   oozeShieldSidewallAngle,30
;   oozeShieldSpeedMultiplier,1
;   infillExtruder,0
;   internalInfillPattern,Triangular
;   externalInfillPattern,Rectilinear
;   infillPercentage,53
;   outlineOverlapPercentage,15
;   infillExtrusionWidthPercentage,150
;   minInfillLength,5
;   infillLayerInterval,2
;   internalInfillAngles,0,60,-60
;   overlapInternalInfillAngles,1
;   externalInfillAngles,45,-45
;   generateSupport,0
;   supportExtruder,0
;   supportInfillPercentage,30
;   supportExtraInflation,1
;   supportBaseLayers,0
;   denseSupportExtruder,0
;   denseSupportLayers,0
;   denseSupportInfillPercentage,70
;   supportLayerInterval,2
;   supportHorizontalPartOffset,1
;   supportUpperSeparationLayers,1
;   supportLowerSeparationLayers,1
;   supportType,0
;   supportGridSpacing,4
;   maxOverhangAngle,45
;   supportAngles,0
;   temperatureName,Primary Extruder
;   temperatureNumber,0
;   temperatureSetpointCount,2
;   temperatureSetpointLayers,1,5
;   temperatureSetpointTemperatures,220,210
;   temperatureStabilizeAtStartup,1
;   temperatureHeatedBed,0
;   fanLayers,1,2
;   fanSpeeds,100,100
;   blipFanToFullPower,0
;   adjustSpeedForCooling,1
;   minSpeedLayerTime,7
;   minCoolingSpeedSlowdown,20
;   increaseFanForCooling,0
;   minFanLayerTime,45
;   maxCoolingFanSpeed,100
;   increaseFanForBridging,0
;   bridgingFanSpeed,100
;   use5D,1
;   relativeEdistances,0
;   allowEaxisZeroing,1
;   independentExtruderAxes,0
;   includeM10123,0
;   stickySupport,1
;   applyToolheadOffsets,0
;   gcodeXoffset,0
;   gcodeYoffset,0
;   gcodeZoffset,0
;   overrideMachineDefinition,0
;   machineTypeOverride,0
;   strokeXoverride,305
;   strokeYoverride,205
;   strokeZoverride,205
;   originOffsetXoverride,0
;   originOffsetYoverride,0
;   originOffsetZoverride,0
;   homeXdirOverride,-1
;   homeYdirOverride,-1
;   homeZdirOverride,-1
;   flipXoverride,1
;   flipYoverride,-1
;   flipZoverride,1
;   toolheadOffsets,0,0|0,0|0,0|0,0|0,0|0,0
;   overrideFirmwareConfiguration,1
;   firmwareTypeOverride,RepRap (Marlin/Repetier/Sprinter)
;   GPXconfigOverride,r2
;   baudRateOverride,115200
;   overridePrinterModels,1
;   printerModelsOverride
;   startingGcode,G28 ; home all axes,G1 Z2  ; set height for prime line,G92 E0 ; zero extruder,G1 X150 E30 F400 ; prime line
;   layerChangeGcode,
;   retractionGcode,
;   toolChangeGcode,
;   endingGcode,G28 X0 ; home X axis,M104 S0 ; turn off extruder,M84 ; disable motors
;   exportFileFormat,gcode
;   celebration,0
;   celebrationSong,Random Song
;   postProcessing,
;   defaultSpeed,1800
;   outlineUnderspeed,0.5
;   solidInfillUnderspeed,0.8
;   supportUnderspeed,0.8
;   rapidXYspeed,2400
;   rapidZspeed,600
;   minBridgingArea,50
;   bridgingExtraInflation,0
;   bridgingExtrusionMultiplier,1
;   bridgingSpeedMultiplier,1
;   useFixedBridgingAngle,0
;   fixedBridgingAngle,0
;   applyBridgingToPerimeters,0
;   filamentDiameters,1.75|3|3|3|3|3
;   filamentPricesPerKg,46|46|46|46|46|46
;   filamentDensities,1.25|1.25|1.25|1.25|1.25|1.25
;   useMinPrintHeight,0
;   minPrintHeight,0
;   useMaxPrintHeight,0
;   maxPrintHeight,0
;   useDiaphragm,0
;   diaphragmLayerInterval,20
;   robustSlicing,1
;   mergeAllIntoSolid,0
;   onlyRetractWhenCrossingOutline,1
;   retractBetweenLayers,0
;   useRetractionMinTravel,1
;   retractionMinTravel,3
;   retractWhileWiping,0
;   onlyWipeOutlines,1
;   avoidCrossingOutline,1
;   maxMovementDetourFactor,3
;   toolChangeRetractionDistance,12
;   toolChangeExtraRestartDistance,-0.5
;   toolChangeRetractionSpeed,600
;   externalThinWallType,0
;   internalThinWallType,2
;   thinWallAllowedOverlapPercentage,10
;   singleExtrusionMinLength,1
;   singleExtrusionMinPrintingWidthPercentage,50
;   singleExtrusionMaxPrintingWidthPercentage,200
;   singleExtrusionEndpointExtension,0.2
;   horizontalSizeCompensation,0
G90
M82
M106 S255
M104 S220 T0
M109 S220 T0
G28 ; home all axes
G1 Z2  ; set height for prime line
G92 E0 ; zero extruder
G1 X150 E30 F400 ; prime line
; process Process1
; layer 1, Z = 0.225
T0
G92 E0.0000
G1 E-7.5000 F3000
; feature skirt
; tool H0.225 W0.300
G1 Z0.225 F600
G1 X113.800 Y85.457 F2400
G1 E0.0000 F3000
G92 E0.0000
G1 X116.407 Y82.850 E0.0900 F900
G1 X151.731 Y82.850 E0.9525
G1 X152.444 Y83.563 E0.9771
G1 X153.157 Y82.850 E1.0017
G1 X188.481 Y82.850 E1.8641
G1 X191.088 Y85.457 E1.9541
G1 X191.088 Y101.843 E2.3542
G1 X190.431 Y102.500 E2.3769
G1 X191.088 Y103.157 E2.3996
G1 X191.088 Y119.543 E2.7996
G1 X188.481 Y122.150 E2.8897
G1 X153.157 Y122.150 E3.7521
G1 X152.444 Y121.437 E3.7767
G1 X151.731 Y122.150 E3.8013
G1 X116.407 Y122.150 E4.6638
G1 X113.800 Y119.543 E4.7538
G1 X113.800 Y103.157 E5.1539
G1 X114.457 Y102.500 E5.1765
G1 X113.800 Y101.843 E5.1992
G1 X113.800 Y85.457 E5.5993
G1 X114.100 Y85.581 F2400
G92 E0.0000
G1 X116.531 Y83.150 E0.0839 F900
G1 X151.607 Y83.150 E0.9403
G1 X152.444 Y83.987 E0.9692
G1 X153.281 Y83.150 E0.9981
G1 X188.357 Y83.150 E1.8545
G1 X190.788 Y85.581 E1.9384
G1 X190.788 Y101.719 E2.3325
G1 X190.007 Y102.500 E2.3594
G1 X190.788 Y103.281 E2.3864
G1 X190.788 Y119.419 E2.7804
G1 X188.357 Y121.850 E2.8643
G1 X153.281 Y121.850 E3.7207
G1 X152.444 Y121.013 E3.7496
G1 X151.607 Y121.850 E3.7785
G1 X116.531 Y121.850 E4.6349
G1 X114.100 Y119.419 E4.7188
G1 X114.100 Y103.281 E5.1129
G1 X114.881 Y102.500 E5.1398
G1 X114.100 Y101.719 E5.1668
G1 X114.100 Y85.581 E5.5608
G92 E0.0000
G1 E-7.5000 F3000
; feature inner perimeter
G1 X118.400 Y87.450 F2400
G1 X118.400 Y87.871
G1 X119.300 Y88.350
G1 E0.0000 F3000
G92 E0.0000
G1 X148.838 Y88.350 E0.7212 F675
G1 X148.838 Y98.950 E0.9800
G1 X119.300 Y98.950 E1.7011
G1 X119.300 Y90.350 E1.9111
G1 X119.300 Y88.350 F675
G1 X119.000 Y88.050 F2400
G92 E0.0000
G1 X149.138 Y88.050 E0.7358 F675
G1 X149.138 Y99.250 E1.0093
G1 X119.000 Y99.250 E1.7451
G1 X119.000 Y90.050 E1.9697
G1 X119.000 Y88.050 F675
G1 X118.700 Y87.750 F2400
G92 E0.0000
G1 X149.438 Y87.750 E0.7505 F675
G1 X149.438 Y99.550 E1.0386
G1 X118.700 Y99.550 E1.7890
G1 X118.700 Y89.750 E2.0283
G1 X118.700 Y87.750 F675
; feature outer perimeter
G1 X118.400 Y87.450 F2400
G92 E0.0000
G1 X149.738 Y87.450 E0.7651 F450
G1 X149.738 Y99.850 E1.0679
G1 X118.400 Y99.850 E1.8330
G1 X118.400 Y89.450 E2.0869
G1 X118.400 Y87.450 F450
; feature solid layer
G1 X119.555 Y98.405 F2400
G92 E0.0000
G1 X119.845 Y98.695 E0.0100 F720
G1 X120.269 Y98.695 E0.0204
G1 X119.555 Y97.981 E0.0450
G1 X119.555 Y97.556 E0.0554
G1 X120.694 Y98.695 E0.0947
G1 X121.118 Y98.695 E0.1051
G1 X119.555 Y97.132 E0.1590
G1 X119.555 Y96.708 E0.1694
G1 X121.542 Y98.695 E0.2380
G1 X121.966 Y98.695 E0.2484
G1 X119.555 Y96.284 E0.3316
G1 X119.555 Y95.859 E0.3420
G1 X122.391 Y98.695 E0.4399
G1 X122.815 Y98.695 E0.4503
G1 X119.555 Y95.435 E0.5628
G1 X119.555 Y95.011 E0.5732
G1 X123.239 Y98.695 E0.7004
G1 X123.663 Y98.695 E0.7108
G1 X119.555 Y94.586 E0.8526
G1 X119.555 Y94.162 E0.8630
G1 X124.088 Y98.695 E1.0195
G1 X124.512 Y98.695 E1.0298
G1 X119.555 Y93.738 E1.2010
G1 X119.555 Y93.314 E1.2114
G1 X124.936 Y98.695 E1.3972
G1 X125.360 Y98.695 E1.4075
G1 X119.555 Y92.889 E1.6080
G1 X119.555 Y92.465 E1.6183
G1 X125.785 Y98.695 E1.8334
G1 X126.209 Y98.695 E1.8438
G1 X119.555 Y92.041 E2.0735
G1 X119.555 Y91.617 E2.0839
G1 X126.633 Y98.695 E2.3283
G1 X127.058 Y98.695 E2.3387
G1 X119.555 Y91.192 E2.5977
G1 X119.555 Y90.768 E2.6081
G1 X127.482 Y98.695 E2.8818
G1 X127.906 Y98.695 E2.8921
G1 X119.555 Y90.344 E3.1805
G1 X119.555 Y89.920 E3.1908
G1 X128.330 Y98.695 E3.4938
G1 X128.755 Y98.695 E3.5042
G1 X119.555 Y89.495 E3.8218
G1 X119.555 Y89.071 E3.8322
G1 X129.179 Y98.695 E4.1645
G1 X129.603 Y98.695 E4.1749
G1 X119.555 Y88.647 E4.5218
G1 X119.555 Y88.605 E4.5228
G1 X119.937 Y88.605 E4.5322
G1 X130.027 Y98.695 E4.8806
G1 X130.452 Y98.695 E4.8909
G1 X120.362 Y88.605 E5.2393
G1 X120.786 Y88.605 E5.2497
G1 X130.876 Y98.695 E5.5981
G1 X131.300 Y98.695 E5.6084
G1 X121.210 Y88.605 E5.9568
G1 X121.634 Y88.605 E5.9672
G1 X131.724 Y98.695 E6.3156
G1 X132.149 Y98.695 E6.3259
G1 X122.059 Y88.605 E6.6743
G1 X122.483 Y88.605 E6.6847
G1 X132.573 Y98.695 E7.0330
G1 X132.997 Y98.695 E7.0434
G1 X122.907 Y88.605 E7.3918
G1 X123.331 Y88.605 E7.4022
G1 X133.421 Y98.695 E7.7505
G1 X133.846 Y98.695 E7.7609
G1 X123.756 Y88.605 E8.1093
G1 X124.180 Y88.605 E8.1197
G1 X134.270 Y98.695 E8.4680
G1 X134.694 Y98.695 E8.4784
G1 X124.604 Y88.605 E8.8268
G1 X125.028 Y88.605 E8.8371
G1 X135.119 Y98.695 E9.1855
G1 X135.543 Y98.695 E9.1959
G1 X125.453 Y88.605 E9.5443
G1 X125.877 Y88.605 E9.5546
G1 X135.967 Y98.695 E9.9030
G1 X136.391 Y98.695 E9.9134
G1 X126.301 Y88.605 E10.2618
G1 X126.726 Y88.605 E10.2721
G1 X136.816 Y98.695 E10.6205
G1 X137.240 Y98.695 E10.6309
G1 X127.150 Y88.605 E10.9793
G1 X127.574 Y88.605 E10.9896
G1 X137.664 Y98.695 E11.3380
G1 X138.088 Y98.695 E11.3484
G1 X127.998 Y88.605 E11.6968
G1 X128.423 Y88.605 E11.7071
G1 X138.513 Y98.695 E12.0555
G1 X138.937 Y98.695 E12.0659
G1 X128.847 Y88.605 E12.4143
G1 X129.271 Y88.605 E12.4246
G1 X139.361 Y98.695 E12.7730
G1 X139.785 Y98.695 E12.7834
G1 X129.695 Y88.605 E13.1318
G1 X130.120 Y88.605 E13.1421
G1 X140.210 Y98.695 E13.4905
G1 X140.634 Y98.695 E13.5009
G1 X130.544 Y88.605 E13.8493
G1 X130.968 Y88.605 E13.8596
G1 X141.058 Y98.695 E14.2080
G1 X141.483 Y98.695 E14.2184
G1 X131.392 Y88.605 E14.5668
G1 X131.817 Y88.605 E14.5771
G1 X141.907 Y98.695 E14.9255
G1 X142.331 Y98.695 E14.9359
G1 X132.241 Y88.605 E15.2843
G1 X132.665 Y88.605 E15.2946
G1 X142.755 Y98.695 E15.6430
G1 X143.180 Y98.695 E15.6534
G1 X133.090 Y88.605 E16.0018
G1 X133.514 Y88.605 E16.0121
G1 X143.604 Y98.695 E16.3605
G1 X144.028 Y98.695 E16.3709
G1 X133.938 Y88.605 E16.7193
G1 X134.362 Y88.605 E16.7296
G1 X144.452 Y98.695 E17.0780
G1 X144.877 Y98.695 E17.0884
G1 X134.787 Y88.605 E17.4367
G1 X135.211 Y88.605 E17.4471
G1 X145.301 Y98.695 E17.7955
G1 X145.725 Y98.695 E17.8059
G1 X135.635 Y88.605 E18.1542
G1 X136.059 Y88.605 E18.1646
G1 X146.149 Y98.695 E18.5130
G1 X146.574 Y98.695 E18.5234
G1 X136.484 Y88.605 E18.8717
G1 X136.908 Y88.605 E18.8821
G1 X146.998 Y98.695 E19.2305
G1 X147.422 Y98.695 E19.2408
G1 X137.332 Y88.605 E19.5892
G1 X137.756 Y88.605 E19.5996
G1 X147.846 Y98.695 E19.9480
G1 X148.271 Y98.695 E19.9583
G1 X138.181 Y88.605 E20.3067
G1 X138.605 Y88.605 E20.3171
G1 X148.583 Y98.583 E20.6616
G1 X148.583 Y98.158 E20.6720
G1 X139.029 Y88.605 E21.0018
G1 X139.453 Y88.605 E21.0122
G1 X148.583 Y97.734 E21.3274
G1 X148.583 Y97.310 E21.3377
G1 X139.878 Y88.605 E21.6383
G1 X140.302 Y88.605 E21.6487
G1 X148.583 Y96.886 E21.9346
G1 X148.583 Y96.461 E21.9449
G1 X140.726 Y88.605 E22.2162
G1 X141.151 Y88.605 E22.2266
G1 X148.583 Y96.037 E22.4832
G1 X148.583 Y95.613 E22.4935
G1 X141.575 Y88.605 E22.7355
G1 X141.999 Y88.605 E22.7459
G1 X148.583 Y95.189 E22.9732
G1 X148.583 Y94.764 E22.9835
G1 X142.423 Y88.605 E23.1962
G1 X142.848 Y88.605 E23.2066
G1 X148.583 Y94.340 E23.4046
G1 X148.583 Y93.916 E23.4149
G1 X143.272 Y88.605 E23.5983
G1 X143.696 Y88.605 E23.6087
G1 X148.583 Y93.491 E23.7774
G1 X148.583 Y93.067 E23.7878
G1 X144.120 Y88.605 E23.9418
G1 X144.545 Y88.605 E23.9522
G1 X148.583 Y92.643 E24.0916
G1 X148.583 Y92.219 E24.1020
G1 X144.969 Y88.605 E24.2267
G1 X145.393 Y88.605 E24.2371
G1 X148.583 Y91.794 E24.3472
G1 X148.583 Y91.370 E24.3576
G1 X145.817 Y88.605 E24.4531
G1 X146.242 Y88.605 E24.4634
G1 X148.583 Y90.946 E24.5442
G1 X148.583 Y90.522 E24.5546
G1 X146.666 Y88.605 E24.6208
G1 X147.090 Y88.605 E24.6311
G1 X148.583 Y90.097 E24.6827
G1 X148.583 Y89.673 E24.6930
G1 X147.515 Y88.605 E24.7299
G1 X147.584 Y88.605 E24.7316
G1 X147.939 Y88.605 F720
G1 X148.583 Y89.249
G1 X148.583 Y88.825
G1 X148.363 Y88.605
G92 E0.0000
G1 E-7.5000 F3000
; feature inner perimeter
G1 X156.050 Y88.350 F2400
G1 E0.0000 F3000
G92 E0.0000
G1 X185.588 Y88.350 E0.7212 F675
G1 X185.588 Y98.950 E0.9800
G1 X156.050 Y98.950 E1.7011
G1 X156.050 Y90.350 E1.9111
G1 X156.050 Y88.350 F675
G1 X155.750 Y88.050 F2400
G92 E0.0000
G1 X185.888 Y88.050 E0.7358 F675
G1 X185.888 Y99.250 E1.0093
G1 X155.750 Y99.250 E1.7451
G1 X155.750 Y90.050 E1.9697
G1 X155.750 Y88.050 F675
G1 X155.450 Y87.750 F2400
G92 E0.0000
G1 X186.188 Y87.750 E0.7505 F675
G1 X186.188 Y99.550 E1.0386
G1 X155.450 Y99.550 E1.7890
G1 X155.450 Y89.750 E2.0283
G1 X155.450 Y87.750 F675
; feature outer perimeter
G1 X155.150 Y87.450 F2400
G92 E0.0000
G1 X186.488 Y87.450 E0.7651 F450
G1 X186.488 Y99.850 E1.0679
G1 X155.150 Y99.850 E1.8330
G1 X155.150 Y89.450 E2.0869
G1 X155.150 Y87.450 F450
; feature solid layer
G1 X156.332 Y98.695 F2400
G92 E0.0000
G1 X156.305 Y98.668 E0.0009 F720
G1 X156.305 Y98.244 E0.0113
G1 X156.756 Y98.695 E0.0268
G1 X157.180 Y98.695 E0.0372
G1 X156.305 Y97.820 E0.0674
G1 X156.305 Y97.396 E0.0778
G1 X157.605 Y98.695 E0.1226
G1 X158.029 Y98.695 E0.1330
G1 X156.305 Y96.971 E0.1925
G1 X156.305 Y96.547 E0.2029
G1 X158.453 Y98.695 E0.2770
G1 X158.877 Y98.695 E0.2874
G1 X156.305 Y96.123 E0.3762
G1 X156.305 Y95.699 E0.3866
G1 X159.302 Y98.695 E0.4900
G1 X159.726 Y98.695 E0.5004
G1 X156.305 Y95.274 E0.6185
G1 X156.305 Y94.850 E0.6289
G1 X160.150 Y98.695 E0.7616
G1 X160.574 Y98.695 E0.7720
G1 X156.305 Y94.426 E0.9194
G1 X156.305 Y94.001 E0.9297
G1 X160.999 Y98.695 E1.0918
G1 X161.423 Y98.695 E1.1022
G1 X156.305 Y93.577 E1.2789
G1 X156.305 Y93.153 E1.2892
G1 X161.847 Y98.695 E1.4806
G1 X162.271 Y98.695 E1.4909
G1 X156.305 Y92.729 E1.6969
G1 X156.305 Y92.304 E1.7073
G1 X162.696 Y98.695 E1.9280
G1 X163.120 Y98.695 E1.9383
G1 X156.305 Y91.880 E2.1736
G1 X156.305 Y91.456 E2.1840
G1 X163.544 Y98.695 E2.4339
G1 X163.969 Y98.695 E2.4443
G1 X156.305 Y91.032 E2.7089
G1 X156.305 Y90.607 E2.7193
G1 X164.393 Y98.695 E2.9985
G1 X164.817 Y98.695 E3.0089
G1 X156.305 Y90.183 E3.3028
G1 X156.305 Y89.759 E3.3131
G1 X165.241 Y98.695 E3.6217
G1 X165.666 Y98.695 E3.6320
G1 X156.305 Y89.335 E3.9552
G1 X156.305 Y88.910 E3.9656
G1 X166.090 Y98.695 E4.3034
G1 X166.514 Y98.695 E4.3138
G1 X156.424 Y88.605 E4.6622
G1 X156.848 Y88.605 E4.6725
G1 X166.938 Y98.695 E5.0209
G1 X167.363 Y98.695 E5.0313
G1 X157.273 Y88.605 E5.3797
G1 X157.697 Y88.605 E5.3900
G1 X167.787 Y98.695 E5.7384
G1 X168.211 Y98.695 E5.7488
G1 X158.121 Y88.605 E6.0972
G1 X158.545 Y88.605 E6.1075
G1 X168.635 Y98.695 E6.4559
G1 X169.060 Y98.695 E6.4663
G1 X158.970 Y88.605 E6.8147
G1 X159.394 Y88.605 E6.8250
G1 X169.484 Y98.695 E7.1734
G1 X169.908 Y98.695 E7.1838
G1 X159.818 Y88.605 E7.5322
G1 X160.242 Y88.605 E7.5425
G1 X170.332 Y98.695 E7.8909
