; G-Code generated by Simplify3D(R) Version 4.1.2
; May 3, 2021 at 5:16:45 PM
; Settings Summary
;   processName,Process1
;   applyToModels,GLASS CLIP v2
;   profileName,NORMAL (modified)
;   profileVersion,2021-04-03 23:45:23
;   baseProfile,Wanhao Duplicator 5S Mini
;   printMaterial,PLA
;   printQuality,0.25
;   printExtruders,
;   extruderName,Primary Extruder
;   extruderToolheadNumber,0
;   extruderDiameter,0.3
;   extruderAutoWidth,1
;   extruderWidth,0.36
;   extrusionMultiplier,0.9
;   extruderUseRetract,1
;   extruderRetractionDistance,5
;   extruderExtraRestartDistance,0
;   extruderRetractionZLift,0
;   extruderRetractionSpeed,3000
;   extruderUseCoasting,0
;   extruderCoastingDistance,1.5
;   extruderUseWipe,0
;   extruderWipeDistance,5
;   primaryExtruder,0
;   layerHeight,0.25
;   topSolidLayers,3
;   bottomSolidLayers,3
;   perimeterOutlines,3
;   printPerimetersInsideOut,1
;   startPointOption,3
;   startPointOriginX,0
;   startPointOriginY,0
;   sequentialIslands,0
;   spiralVaseMode,0
;   firstLayerHeightPercentage,150
;   firstLayerWidthPercentage,100
;   firstLayerUnderspeed,0.5
;   useRaft,0
;   raftExtruder,0
;   raftTopLayers,3
;   raftBaseLayers,2
;   raftOffset,3
;   raftSeparationDistance,0.14
;   raftTopInfill,100
;   aboveRaftSpeedMultiplier,0.3
;   useSkirt,1
;   skirtExtruder,0
;   skirtLayers,2
;   skirtOutlines,2
;   skirtOffset,4
;   usePrimePillar,0
;   primePillarExtruder,999
;   primePillarWidth,12
;   primePillarLocation,7
;   primePillarSpeedMultiplier,1
;   useOozeShield,0
;   oozeShieldExtruder,999
;   oozeShieldOffset,2
;   oozeShieldOutlines,1
;   oozeShieldSidewallShape,1
;   oozeShieldSidewallAngle,30
;   oozeShieldSpeedMultiplier,1
;   infillExtruder,0
;   internalInfillPattern,Triangular
;   externalInfillPattern,Rectilinear
;   infillPercentage,30
;   outlineOverlapPercentage,15
;   infillExtrusionWidthPercentage,150
;   minInfillLength,5
;   infillLayerInterval,1
;   internalInfillAngles,0,60,-60
;   overlapInternalInfillAngles,1
;   externalInfillAngles,45,-45
;   generateSupport,1
;   supportExtruder,0
;   supportInfillPercentage,40
;   supportExtraInflation,1
;   supportBaseLayers,0
;   denseSupportExtruder,0
;   denseSupportLayers,0
;   denseSupportInfillPercentage,70
;   supportLayerInterval,1
;   supportHorizontalPartOffset,1
;   supportUpperSeparationLayers,1
;   supportLowerSeparationLayers,1
;   supportType,0
;   supportGridSpacing,4
;   maxOverhangAngle,45
;   supportAngles,0
;   temperatureName,Primary Extruder
;   temperatureNumber,0
;   temperatureSetpointCount,2
;   temperatureSetpointLayers,1,5
;   temperatureSetpointTemperatures,220,210
;   temperatureStabilizeAtStartup,1
;   temperatureHeatedBed,0
;   fanLayers,1,2
;   fanSpeeds,100,100
;   blipFanToFullPower,0
;   adjustSpeedForCooling,1
;   minSpeedLayerTime,7
;   minCoolingSpeedSlowdown,20
;   increaseFanForCooling,0
;   minFanLayerTime,45
;   maxCoolingFanSpeed,100
;   increaseFanForBridging,0
;   bridgingFanSpeed,100
;   use5D,1
;   relativeEdistances,0
;   allowEaxisZeroing,1
;   independentExtruderAxes,0
;   includeM10123,0
;   stickySupport,1
;   applyToolheadOffsets,0
;   gcodeXoffset,0
;   gcodeYoffset,0
;   gcodeZoffset,0
;   overrideMachineDefinition,0
;   machineTypeOverride,0
;   strokeXoverride,305
;   strokeYoverride,205
;   strokeZoverride,205
;   originOffsetXoverride,0
;   originOffsetYoverride,0
;   originOffsetZoverride,0
;   homeXdirOverride,-1
;   homeYdirOverride,-1
;   homeZdirOverride,-1
;   flipXoverride,1
;   flipYoverride,-1
;   flipZoverride,1
;   toolheadOffsets,0,0|0,0|0,0|0,0|0,0|0,0
;   overrideFirmwareConfiguration,1
;   firmwareTypeOverride,RepRap (Marlin/Repetier/Sprinter)
;   GPXconfigOverride,r2
;   baudRateOverride,115200
;   overridePrinterModels,1
;   printerModelsOverride
;   startingGcode,G28 ; home all axes,G1 Z 2 ; set height for prime line,G92 E0 ; zero extruder,G1 X150 E30 F400 ; prime line
;   layerChangeGcode,
;   retractionGcode,
;   toolChangeGcode,
;   endingGcode,G28 X0 ; home X axis,M104 S0 ; turn off extruder,M84 ; disable motors
;   exportFileFormat,gcode
;   celebration,0
;   celebrationSong,Random Song
;   postProcessing,
;   defaultSpeed,2400
;   outlineUnderspeed,0.5
;   solidInfillUnderspeed,0.8
;   supportUnderspeed,0.8
;   rapidXYspeed,2400
;   rapidZspeed,900
;   minBridgingArea,50
;   bridgingExtraInflation,0
;   bridgingExtrusionMultiplier,1
;   bridgingSpeedMultiplier,1
;   useFixedBridgingAngle,0
;   fixedBridgingAngle,0
;   applyBridgingToPerimeters,0
;   filamentDiameters,1.75|3|3|3|3|3
;   filamentPricesPerKg,46|46|46|46|46|46
;   filamentDensities,1.25|1.25|1.25|1.25|1.25|1.25
;   useMinPrintHeight,0
;   minPrintHeight,0
;   useMaxPrintHeight,0
;   maxPrintHeight,0
;   useDiaphragm,0
;   diaphragmLayerInterval,20
;   robustSlicing,1
;   mergeAllIntoSolid,0
;   onlyRetractWhenCrossingOutline,1
;   retractBetweenLayers,0
;   useRetractionMinTravel,1
;   retractionMinTravel,3
;   retractWhileWiping,0
;   onlyWipeOutlines,1
;   avoidCrossingOutline,1
;   maxMovementDetourFactor,3
;   toolChangeRetractionDistance,12
;   toolChangeExtraRestartDistance,-0.5
;   toolChangeRetractionSpeed,600
;   externalThinWallType,0
;   internalThinWallType,2
;   thinWallAllowedOverlapPercentage,10
;   singleExtrusionMinLength,1
;   singleExtrusionMinPrintingWidthPercentage,50
;   singleExtrusionMaxPrintingWidthPercentage,200
;   singleExtrusionEndpointExtension,0
;   horizontalSizeCompensation,0
G90
M82
M106 S255
M104 S220 T0
M109 S220 T0
G28 ; home all axes
G1 Z 2 ; set height for prime line
G92 E0 ; zero extruder
G1 X150 E30 F400 ; prime line
; process Process1
; layer 1, Z = 0.375
T0
G92 E0.0000
G1 E-5.0000 F3000
; feature skirt
; tool H0.375 W0.360
G1 Z0.375 F900
G1 X114.435 Y93.254 F2400
G1 E0.0000 F3000
G92 E0.0000
G1 X117.094 Y90.595 E0.1900 F1200
G1 X139.906 Y90.595 E1.3423
G1 X142.565 Y93.254 E1.5322
G1 X142.565 Y139.746 E3.8807
G1 X139.906 Y142.405 E4.0707
G1 X117.094 Y142.405 E5.2230
G1 X114.435 Y139.746 E5.4129
G1 X114.435 Y93.254 E7.7614
G1 X114.795 Y93.403 F2400
G92 E0.0000
G1 X117.244 Y90.955 E0.1749 F1200
G1 X139.756 Y90.955 E1.3121
G1 X142.205 Y93.403 E1.4870
G1 X142.205 Y139.597 E3.8204
G1 X139.756 Y142.045 E3.9954
G1 X117.244 Y142.045 E5.1326
G1 X114.795 Y139.597 E5.3075
G1 X114.795 Y93.403 E7.6409
G92 E0.0000
G1 E-5.0000 F3000
; feature inner perimeter
G1 X119.155 Y95.315 F2400
G1 X119.155 Y95.662
G1 X119.875 Y96.035
G1 E0.0000 F3000
G92 E0.0000
G1 X137.125 Y96.035 E0.8714 F900
G1 X137.125 Y136.965 E2.9389
G1 X119.875 Y136.965 E3.8103
G1 X119.875 Y96.035 E5.8778
G1 X119.515 Y95.675 F2400
G92 E0.0000
G1 X137.485 Y95.675 E0.9077 F900
G1 X137.485 Y137.325 E3.0116
G1 X119.515 Y137.325 E3.9194
G1 X119.515 Y95.675 E6.0233
; feature outer perimeter
G1 X119.155 Y95.315 F2400
G92 E0.0000
G1 X137.845 Y95.315 E0.9441 F600
G1 X137.845 Y137.685 E3.0844
G1 X119.155 Y137.685 E4.0285
G1 X119.155 Y95.315 E6.1688
; feature inner perimeter
G1 X122.139 Y97.827 F2400
G92 E0.0000
G1 X122.139 Y135.173 E1.8865 F900
G1 X134.861 Y135.173 E2.5291
G1 X134.861 Y97.827 E4.4156
G1 X122.139 Y97.827 E5.0583
G1 X122.499 Y98.187 F2400
G92 E0.0000
G1 X122.499 Y134.813 E1.8501 F900
G1 X134.501 Y134.813 E2.4564
G1 X134.501 Y98.187 E4.3065
G1 X122.499 Y98.187 E4.9128
; feature outer perimeter
G1 X122.859 Y98.547 F2400
G92 E0.0000
G1 X122.859 Y134.453 E1.8138 F600
G1 X134.141 Y134.453 E2.3836
G1 X134.141 Y98.547 E4.1974
G1 X122.859 Y98.547 E4.7673
; feature solid layer
G1 X135.167 Y98.220 F2400
G92 E0.0000
G1 X136.819 Y99.872 E0.1180 F960
G1 X136.819 Y100.381 E0.1437
G1 X135.167 Y98.729 E0.2617
G1 X135.167 Y99.238 E0.2875
G1 X136.819 Y100.890 E0.4055
G1 X136.819 Y101.400 E0.4312
G1 X135.167 Y99.748 E0.5492
G1 X135.167 Y100.257 E0.5749
G1 X136.819 Y101.909 E0.6929
G1 X136.819 Y102.418 E0.7187
G1 X135.167 Y100.766 E0.8367
G1 X135.167 Y101.275 E0.8624
G1 X136.819 Y102.927 E0.9804
G1 X136.819 Y103.436 E1.0061
G1 X135.167 Y101.784 E1.1241
G1 X135.167 Y102.293 E1.1499
G1 X136.819 Y103.945 E1.2679
G1 X136.819 Y104.454 E1.2936
G1 X135.167 Y102.802 E1.4116
G1 X135.167 Y103.311 E1.4373
G1 X136.819 Y104.963 E1.5553
G1 X136.819 Y105.473 E1.5811
G1 X135.167 Y103.821 E1.6991
G1 X135.167 Y104.330 E1.7248
G1 X136.819 Y105.982 E1.8428
G1 X136.819 Y106.491 E1.8685
G1 X135.167 Y104.839 E1.9865
G1 X135.167 Y105.348 E2.0122
G1 X136.819 Y107.000 E2.1303
G1 X136.819 Y107.509 E2.1560
G1 X135.167 Y105.857 E2.2740
G1 X135.167 Y106.366 E2.2997
G1 X136.819 Y108.018 E2.4177
G1 X136.819 Y108.527 E2.4434
G1 X135.167 Y106.875 E2.5615
G1 X135.167 Y107.384 E2.5872
G1 X136.819 Y109.036 E2.7052
G1 X136.819 Y109.545 E2.7309
G1 X135.167 Y107.893 E2.8489
G1 X135.167 Y108.403 E2.8746
G1 X136.819 Y110.055 E2.9927
G1 X136.819 Y110.564 E3.0184
G1 X135.167 Y108.912 E3.1364
G1 X135.167 Y109.421 E3.1621
G1 X136.819 Y111.073 E3.2801
G1 X136.819 Y111.582 E3.3058
G1 X135.167 Y109.930 E3.4238
G1 X135.167 Y110.439 E3.4496
G1 X136.819 Y112.091 E3.5676
G1 X136.819 Y112.600 E3.5933
G1 X135.167 Y110.948 E3.7113
G1 X135.167 Y111.457 E3.7370
G1 X136.819 Y113.109 E3.8550
G1 X136.819 Y113.618 E3.8808
G1 X135.167 Y111.966 E3.9988
G1 X135.167 Y112.476 E4.0245
G1 X136.819 Y114.128 E4.1425
G1 X136.819 Y114.637 E4.1682
G1 X135.167 Y112.985 E4.2862
G1 X135.167 Y113.494 E4.3120
G1 X136.819 Y115.146 E4.4300
G1 X136.819 Y115.655 E4.4557
G1 X135.167 Y114.003 E4.5737
G1 X135.167 Y114.512 E4.5994
G1 X136.819 Y116.164 E4.7174
G1 X136.819 Y116.673 E4.7432
G1 X135.167 Y115.021 E4.8612
G1 X135.167 Y115.530 E4.8869
G1 X136.819 Y117.182 E5.0049
G1 X136.819 Y117.691 E5.0306
G1 X135.167 Y116.039 E5.1486
G1 X135.167 Y116.548 E5.1743
G1 X136.819 Y118.200 E5.2924
G1 X136.819 Y118.710 E5.3181
G1 X135.167 Y117.058 E5.4361
G1 X135.167 Y117.567 E5.4618
G1 X136.819 Y119.219 E5.5798
G1 X136.819 Y119.728 E5.6055
G1 X135.167 Y118.076 E5.7236
G1 X135.167 Y118.585 E5.7493
G1 X136.819 Y120.237 E5.8673
G1 X136.819 Y120.746 E5.8930
G1 X135.167 Y119.094 E6.0110
G1 X135.167 Y119.603 E6.0367
G1 X136.819 Y121.255 E6.1548
G1 X136.819 Y121.764 E6.1805
G1 X135.167 Y120.112 E6.2985
G1 X135.167 Y120.621 E6.3242
G1 X136.819 Y122.273 E6.4422
G1 X136.819 Y122.783 E6.4679
G1 X135.167 Y121.131 E6.5860
G1 X135.167 Y121.640 E6.6117
G1 X136.819 Y123.292 E6.7297
G1 X136.819 Y123.801 E6.7554
G1 X135.167 Y122.149 E6.8734
G1 X135.167 Y122.658 E6.8991
G1 X136.819 Y124.310 E7.0171
G1 X136.819 Y124.819 E7.0429
G1 X135.167 Y123.167 E7.1609
G1 X135.167 Y123.676 E7.1866
G1 X136.819 Y125.328 E7.3046
G1 X136.819 Y125.837 E7.3303
G1 X135.167 Y124.185 E7.4483
G1 X135.167 Y124.694 E7.4741
G1 X136.819 Y126.346 E7.5921
G1 X136.819 Y126.855 E7.6178
G1 X135.167 Y125.203 E7.7358
G1 X135.167 Y125.713 E7.7615
G1 X136.819 Y127.365 E7.8795
G1 X136.819 Y127.874 E7.9053
G1 X135.167 Y126.222 E8.0233
G1 X135.167 Y126.731 E8.0490
G1 X136.819 Y128.383 E8.1670
G1 X136.819 Y128.892 E8.1927
G1 X135.167 Y127.240 E8.3107
G1 X135.167 Y127.749 E8.3365
G1 X136.819 Y129.401 E8.4545
G1 X136.819 Y129.910 E8.4802
G1 X135.167 Y128.258 E8.5982
G1 X135.167 Y128.767 E8.6239
G1 X136.819 Y130.419 E8.7419
G1 X136.819 Y130.928 E8.7676
G1 X135.167 Y129.276 E8.8857
G1 X135.167 Y129.785 E8.9114
G1 X136.819 Y131.437 E9.0294
G1 X136.819 Y131.947 E9.0551
G1 X135.167 Y130.295 E9.1731
G1 X135.167 Y130.804 E9.1988
G1 X136.819 Y132.456 E9.3169
G1 X136.819 Y132.965 E9.3426
G1 X135.167 Y131.313 E9.4606
G1 X135.167 Y131.822 E9.4863
G1 X136.819 Y133.474 E9.6043
G1 X136.819 Y133.983 E9.6300
G1 X135.167 Y132.331 E9.7481
G1 X135.167 Y132.840 E9.7738
G1 X136.819 Y134.492 E9.8918
G1 X136.819 Y135.001 E9.9175
G1 X135.167 Y133.349 E10.0355
G1 X135.167 Y133.858 E10.0612
G1 X136.819 Y135.510 E10.1792
G1 X136.819 Y136.020 E10.2050
G1 X135.167 Y134.368 E10.3230
G1 X135.167 Y134.877 E10.3487
G1 X136.819 Y136.529 E10.4667
G1 X136.819 Y136.659 E10.4733
G1 X136.440 Y136.659 E10.4924
G1 X135.167 Y135.386 E10.5834
G1 X135.167 Y135.479 E10.5881
G1 X134.751 Y135.479 E10.6091
G1 X135.931 Y136.659 E10.6934
G1 X135.422 Y136.659 E10.7191
G1 X134.242 Y135.479 E10.8034
G1 X133.733 Y135.479 E10.8292
G1 X134.913 Y136.659 E10.9135
G1 X134.404 Y136.659 E10.9392
G1 X133.224 Y135.479 E11.0235
G1 X132.715 Y135.479 E11.0492
G1 X133.895 Y136.659 E11.1335
G1 X133.386 Y136.659 E11.1592
G1 X132.206 Y135.479 E11.2435
G1 X131.696 Y135.479 E11.2692
G1 X132.876 Y136.659 E11.3535
G1 X132.367 Y136.659 E11.3793
G1 X131.187 Y135.479 E11.4636
G1 X130.678 Y135.479 E11.4893
G1 X131.858 Y136.659 E11.5736
G1 X131.349 Y136.659 E11.5993
G1 X130.169 Y135.479 E11.6836
G1 X129.660 Y135.479 E11.7093
G1 X130.840 Y136.659 E11.7936
G1 X130.331 Y136.659 E11.8193
G1 X129.151 Y135.479 E11.9036
G1 X128.642 Y135.479 E11.9294
G1 X129.822 Y136.659 E12.0137
G1 X129.313 Y136.659 E12.0394
G1 X128.133 Y135.479 E12.1237
G1 X127.623 Y135.479 E12.1494
G1 X128.804 Y136.659 E12.2337
G1 X128.294 Y136.659 E12.2594
G1 X127.114 Y135.479 E12.3437
G1 X126.605 Y135.479 E12.3694
G1 X127.785 Y136.659 E12.4537
G1 X127.276 Y136.659 E12.4795
G1 X126.096 Y135.479 E12.5638
G1 X125.587 Y135.479 E12.5895
G1 X126.767 Y136.659 E12.6738
G1 X126.258 Y136.659 E12.6995
G1 X125.078 Y135.479 E12.7838
G1 X124.569 Y135.479 E12.8095
G1 X125.749 Y136.659 E12.8938
G1 X125.240 Y136.659 E12.9195
G1 X124.060 Y135.479 E13.0038
G1 X123.551 Y135.479 E13.0295
G1 X124.731 Y136.659 E13.1139
G1 X124.222 Y136.659 E13.1396
G1 X123.041 Y135.479 E13.2239
G1 X122.532 Y135.479 E13.2496
G1 X123.712 Y136.659 E13.3339
G1 X123.203 Y136.659 E13.3596
G1 X122.023 Y135.479 E13.4439
G1 X120.658 Y136.659 F2400
G92 E0.0000
G1 X120.181 Y136.182 E0.0341 F960
G1 X120.181 Y135.673 E0.0598
G1 X121.167 Y136.659 E0.1302
G1 X121.676 Y136.659 E0.1559
G1 X120.181 Y135.164 E0.2627
G1 X120.181 Y134.655 E0.2884
G1 X122.185 Y136.659 E0.4316
G1 X122.694 Y136.659 E0.4573
G1 X120.181 Y134.146 E0.6368
G1 X120.181 Y133.637 E0.6626
G1 X121.833 Y135.289 E0.7806
G1 X121.833 Y134.780 E0.8063
G1 X120.181 Y133.128 E0.9243
G1 X120.181 Y132.619 E0.9500
G1 X121.833 Y134.271 E1.0680
G1 X121.833 Y133.761 E1.0937
G1 X120.181 Y132.109 E1.2118
G1 X120.181 Y131.600 E1.2375
G1 X121.833 Y133.252 E1.3555
G1 X121.833 Y132.743 E1.3812
G1 X120.181 Y131.091 E1.4992
G1 X120.181 Y130.582 E1.5249
G1 X121.833 Y132.234 E1.6430
G1 X121.833 Y131.725 E1.6687
G1 X120.181 Y130.073 E1.7867
G1 X120.181 Y129.564 E1.8124
G1 X121.833 Y131.216 E1.9304
G1 X121.833 Y130.707 E1.9561
G1 X120.181 Y129.055 E2.0742
G1 X120.181 Y128.546 E2.0999
G1 X121.833 Y130.198 E2.2179
G1 X121.833 Y129.689 E2.2436
G1 X120.181 Y128.037 E2.3616
G1 X120.181 Y127.527 E2.3873
G1 X121.833 Y129.179 E2.5053
G1 X121.833 Y128.670 E2.5311
G1 X120.181 Y127.018 E2.6491
G1 X120.181 Y126.509 E2.6748
G1 X121.833 Y128.161 E2.7928
G1 X121.833 Y127.652 E2.8185
G1 X120.181 Y126.000 E2.9365
G1 X120.181 Y125.491 E2.9623
G1 X121.833 Y127.143 E3.0803
G1 X121.833 Y126.634 E3.1060
G1 X120.181 Y124.982 E3.2240
G1 X120.181 Y124.473 E3.2497
G1 X121.833 Y126.125 E3.3677
G1 X121.833 Y125.616 E3.3935
G1 X120.181 Y123.964 E3.5115
G1 X120.181 Y123.454 E3.5372
G1 X121.833 Y125.106 E3.6552
G1 X121.833 Y124.597 E3.6809
G1 X120.181 Y122.945 E3.7989
G1 X120.181 Y122.436 E3.8247
G1 X121.833 Y124.088 E3.9427
G1 X121.833 Y123.579 E3.9684
G1 X120.181 Y121.927 E4.0864
G1 X120.181 Y121.418 E4.1121
G1 X121.833 Y123.070 E4.2301
G1 X121.833 Y122.561 E4.2559
G1 X120.181 Y120.909 E4.3739
G1 X120.181 Y120.400 E4.3996
G1 X121.833 Y122.052 E4.5176
G1 X121.833 Y121.543 E4.5433
G1 X120.181 Y119.891 E4.6613
G1 X120.181 Y119.382 E4.6870
G1 X121.833 Y121.034 E4.8051
G1 X121.833 Y120.524 E4.8308
G1 X120.181 Y118.872 E4.9488
G1 X120.181 Y118.363 E4.9745
G1 X121.833 Y120.015 E5.0925
G1 X121.833 Y119.506 E5.1182
G1 X120.181 Y117.854 E5.2363
G1 X120.181 Y117.345 E5.2620
G1 X121.833 Y118.997 E5.3800
G1 X121.833 Y118.488 E5.4057
G1 X120.181 Y116.836 E5.5237
G1 X120.181 Y116.327 E5.5494
G1 X121.833 Y117.979 E5.6675
G1 X121.833 Y117.470 E5.6932
G1 X120.181 Y115.818 E5.8112
G1 X120.181 Y115.309 E5.8369
G1 X121.833 Y116.961 E5.9549
G1 X121.833 Y116.452 E5.9806
G1 X120.181 Y114.800 E6.0986
G1 X120.181 Y114.290 E6.1244
G1 X121.833 Y115.942 E6.2424
G1 X121.833 Y115.433 E6.2681
