; G-Code generated by Simplify3D(R) Version 4.1.2
; Jun 29, 2021 at 4:35:12 PM
; Settings Summary
;   processName,Process1
;   applyToModels,JRCNC0012 v8
;   profileName,JR NORMAL (modified)
;   profileVersion,2021-06-28 21:15:49
;   baseProfile,Wanhao Duplicator 5S Mini
;   printMaterial,PLA
;   printQuality,0.25
;   printExtruders,
;   extruderName,Primary Extruder
;   extruderToolheadNumber,0
;   extruderDiameter,0.3
;   extruderAutoWidth,1
;   extruderWidth,0.36
;   extrusionMultiplier,0.9
;   extruderUseRetract,1
;   extruderRetractionDistance,5
;   extruderExtraRestartDistance,0
;   extruderRetractionZLift,0
;   extruderRetractionSpeed,3000
;   extruderUseCoasting,1
;   extruderCoastingDistance,1.1
;   extruderUseWipe,0
;   extruderWipeDistance,5
;   primaryExtruder,0
;   layerHeight,0.25
;   topSolidLayers,3
;   bottomSolidLayers,3
;   perimeterOutlines,3
;   printPerimetersInsideOut,1
;   startPointOption,3
;   startPointOriginX,0
;   startPointOriginY,0
;   sequentialIslands,0
;   spiralVaseMode,0
;   firstLayerHeightPercentage,150
;   firstLayerWidthPercentage,100
;   firstLayerUnderspeed,0.5
;   useRaft,0
;   raftExtruder,0
;   raftTopLayers,3
;   raftBaseLayers,2
;   raftOffset,3
;   raftSeparationDistance,0.14
;   raftTopInfill,100
;   aboveRaftSpeedMultiplier,0.3
;   useSkirt,1
;   skirtExtruder,0
;   skirtLayers,2
;   skirtOutlines,2
;   skirtOffset,4
;   usePrimePillar,0
;   primePillarExtruder,999
;   primePillarWidth,12
;   primePillarLocation,7
;   primePillarSpeedMultiplier,1
;   useOozeShield,0
;   oozeShieldExtruder,999
;   oozeShieldOffset,2
;   oozeShieldOutlines,1
;   oozeShieldSidewallShape,1
;   oozeShieldSidewallAngle,30
;   oozeShieldSpeedMultiplier,1
;   infillExtruder,0
;   internalInfillPattern,Triangular
;   externalInfillPattern,Rectilinear
;   infillPercentage,30
;   outlineOverlapPercentage,15
;   infillExtrusionWidthPercentage,150
;   minInfillLength,5
;   infillLayerInterval,1
;   internalInfillAngles,0,60,-60
;   overlapInternalInfillAngles,1
;   externalInfillAngles,45,-45
;   generateSupport,1
;   supportExtruder,0
;   supportInfillPercentage,40
;   supportExtraInflation,1
;   supportBaseLayers,0
;   denseSupportExtruder,0
;   denseSupportLayers,0
;   denseSupportInfillPercentage,70
;   supportLayerInterval,1
;   supportHorizontalPartOffset,1
;   supportUpperSeparationLayers,1
;   supportLowerSeparationLayers,1
;   supportType,0
;   supportGridSpacing,4
;   maxOverhangAngle,45
;   supportAngles,0
;   temperatureName,Primary Extruder
;   temperatureNumber,0
;   temperatureSetpointCount,2
;   temperatureSetpointLayers,1,5
;   temperatureSetpointTemperatures,220,210
;   temperatureStabilizeAtStartup,1
;   temperatureHeatedBed,0
;   fanLayers,1,2
;   fanSpeeds,100,100
;   blipFanToFullPower,0
;   adjustSpeedForCooling,1
;   minSpeedLayerTime,7
;   minCoolingSpeedSlowdown,20
;   increaseFanForCooling,0
;   minFanLayerTime,45
;   maxCoolingFanSpeed,100
;   increaseFanForBridging,0
;   bridgingFanSpeed,100
;   use5D,1
;   relativeEdistances,0
;   allowEaxisZeroing,1
;   independentExtruderAxes,0
;   includeM10123,0
;   stickySupport,1
;   applyToolheadOffsets,0
;   gcodeXoffset,0
;   gcodeYoffset,0
;   gcodeZoffset,0
;   overrideMachineDefinition,0
;   machineTypeOverride,0
;   strokeXoverride,305
;   strokeYoverride,205
;   strokeZoverride,205
;   originOffsetXoverride,0
;   originOffsetYoverride,0
;   originOffsetZoverride,0
;   homeXdirOverride,-1
;   homeYdirOverride,-1
;   homeZdirOverride,-1
;   flipXoverride,1
;   flipYoverride,-1
;   flipZoverride,1
;   toolheadOffsets,0,0|0,0|0,0|0,0|0,0|0,0
;   overrideFirmwareConfiguration,1
;   firmwareTypeOverride,RepRap (Marlin/Repetier/Sprinter)
;   GPXconfigOverride,r2
;   baudRateOverride,115200
;   overridePrinterModels,1
;   printerModelsOverride
;   startingGcode,G28 ; home all axes,G1 Z 2 ; set height for prime line,G92 E0 ; zero extruder,G1 X150 E30 F400 ; prime line
;   layerChangeGcode,
;   retractionGcode,
;   toolChangeGcode,
;   endingGcode,G28 X0 ; home X axis,M104 S0 ; turn off extruder,M84 ; disable motors
;   exportFileFormat,gcode
;   celebration,0
;   celebrationSong,Random Song
;   postProcessing,
;   defaultSpeed,2400
;   outlineUnderspeed,0.5
;   solidInfillUnderspeed,0.8
;   supportUnderspeed,0.8
;   rapidXYspeed,2400
;   rapidZspeed,900
;   minBridgingArea,50
;   bridgingExtraInflation,0
;   bridgingExtrusionMultiplier,1
;   bridgingSpeedMultiplier,1
;   useFixedBridgingAngle,0
;   fixedBridgingAngle,0
;   applyBridgingToPerimeters,0
;   filamentDiameters,1.75|3|3|3|3|3
;   filamentPricesPerKg,46|46|46|46|46|46
;   filamentDensities,1.25|1.25|1.25|1.25|1.25|1.25
;   useMinPrintHeight,0
;   minPrintHeight,0
;   useMaxPrintHeight,0
;   maxPrintHeight,0
;   useDiaphragm,0
;   diaphragmLayerInterval,20
;   robustSlicing,1
;   mergeAllIntoSolid,0
;   onlyRetractWhenCrossingOutline,1
;   retractBetweenLayers,0
;   useRetractionMinTravel,1
;   retractionMinTravel,3
;   retractWhileWiping,0
;   onlyWipeOutlines,1
;   avoidCrossingOutline,1
;   maxMovementDetourFactor,3
;   toolChangeRetractionDistance,12
;   toolChangeExtraRestartDistance,-0.5
;   toolChangeRetractionSpeed,600
;   externalThinWallType,0
;   internalThinWallType,2
;   thinWallAllowedOverlapPercentage,10
;   singleExtrusionMinLength,1
;   singleExtrusionMinPrintingWidthPercentage,50
;   singleExtrusionMaxPrintingWidthPercentage,200
;   singleExtrusionEndpointExtension,0
;   horizontalSizeCompensation,0
G90
M82
M106 S255
M104 S220 T0
M109 S220 T0
G28 ; home all axes
G1 Z 2 ; set height for prime line
G92 E0 ; zero extruder
G1 X150 E30 F400 ; prime line
; process Process1
; layer 1, Z = 0.375
T0
G92 E0.0000
G1 E-5.0000 F3000
; feature skirt
; tool H0.375 W0.360
G1 Z0.375 F900
G1 X90.380 Y66.569 F2400
G1 E0.0000 F3000
G92 E0.0000
G1 X93.039 Y63.910 E0.1900 F1200
G1 X106.961 Y63.910 E0.8932
G1 X109.620 Y66.569 E1.0832
G1 X109.620 Y76.521 E1.5859
G1 X109.656 Y76.550 E1.5882
G1 X109.786 Y76.664 E1.5969
G1 X110.283 Y77.134 E1.6315
G1 X110.404 Y77.258 E1.6402
G1 X111.226 Y78.164 E1.7020
G1 X111.372 Y78.343 E1.7137
G1 X112.098 Y79.328 E1.7755
G1 X112.195 Y79.471 E1.7842
G1 X112.542 Y80.026 E1.8173
G1 X112.601 Y80.126 E1.8232
G1 X112.920 Y80.698 E1.8563
G1 X112.998 Y80.852 E1.8650
G1 X113.510 Y81.964 E1.9268
G1 X113.596 Y82.178 E1.9385
G1 X114.002 Y83.363 E2.0017
G1 X114.066 Y83.584 E2.0134
G1 X114.343 Y84.776 E2.0752
G1 X114.376 Y84.946 E2.0839
G1 X114.479 Y85.622 E2.1185
G1 X114.499 Y85.794 E2.1272
G1 X114.590 Y86.985 E2.1876
G1 X114.597 Y87.158 E2.1963
G1 X114.597 Y87.842 E2.2308
G1 X114.590 Y88.015 E2.2396
G1 X114.497 Y89.235 E2.3014
G1 X114.468 Y89.464 E2.3130
G1 X114.251 Y90.668 E2.3749
G1 X114.214 Y90.837 E2.3836
G1 X114.042 Y91.499 E2.4181
G1 X113.993 Y91.665 E2.4269
G1 X113.596 Y92.822 E2.4887
G1 X113.510 Y93.036 E2.5003
G1 X112.986 Y94.174 E2.5636
G1 X112.879 Y94.378 E2.5753
G1 X112.257 Y95.432 E2.6371
G1 X112.163 Y95.577 E2.6458
G1 X111.771 Y96.138 E2.6804
G1 X111.667 Y96.276 E2.6891
G1 X110.892 Y97.223 E2.7509
G1 X110.737 Y97.394 E2.7626
G1 X109.870 Y98.257 E2.8244
G1 X109.743 Y98.374 E2.8331
G1 X109.620 Y98.480 E2.8413
G1 X109.620 Y104.673 E3.1541
G1 X109.896 Y105.004 E3.1759
G1 X110.053 Y105.215 E3.1892
G1 X110.697 Y106.199 E3.2486
G1 X110.828 Y106.427 E3.2619
G1 X111.354 Y107.479 E3.3213
G1 X111.458 Y107.721 E3.3346
G1 X111.859 Y108.826 E3.3940
G1 X111.934 Y109.078 E3.4072
G1 X112.204 Y110.222 E3.4666
G1 X112.250 Y110.482 E3.4799
G1 X112.382 Y111.617 E3.5377
G1 X112.396 Y111.814 E3.5476
G1 X112.414 Y112.434 E3.5790
G1 X112.414 Y112.566 E3.5856
G1 X112.396 Y113.186 E3.6170
G1 X112.382 Y113.383 E3.6270
G1 X112.250 Y114.518 E3.6847
G1 X112.204 Y114.778 E3.6980
G1 X111.934 Y115.922 E3.7574
G1 X111.859 Y116.174 E3.7707
G1 X111.458 Y117.279 E3.8301
G1 X111.354 Y117.521 E3.8434
G1 X110.828 Y118.573 E3.9028
G1 X110.697 Y118.801 E3.9161
G1 X110.053 Y119.785 E3.9755
G1 X109.896 Y119.996 E3.9888
G1 X109.620 Y120.327 E4.0105
G1 X109.620 Y133.431 E4.6724
G1 X106.961 Y136.090 E4.8624
G1 X93.039 Y136.090 E5.5656
G1 X90.380 Y133.431 E5.7556
G1 X90.380 Y120.345 E6.4166
G1 X90.367 Y120.328 E6.4177
G1 X89.706 Y119.437 E6.4737
G1 X89.595 Y119.273 E6.4837
G1 X89.253 Y118.716 E6.5167
G1 X89.157 Y118.543 E6.5267
G1 X88.661 Y117.551 E6.5828
G1 X88.580 Y117.371 E6.5927
G1 X88.340 Y116.763 E6.6258
G1 X88.275 Y116.576 E6.6357
G1 X87.949 Y115.481 E6.6935
G1 X87.888 Y115.225 E6.7068
G1 X87.685 Y114.067 E6.7662
G1 X87.654 Y113.805 E6.7795
G1 X87.588 Y112.665 E6.8372
G1 X87.585 Y112.467 E6.8472
G1 X87.604 Y111.814 E6.8802
G1 X87.618 Y111.617 E6.8902
G1 X87.750 Y110.482 E6.9479
G1 X87.796 Y110.222 E6.9612
G1 X88.066 Y109.078 E7.0206
G1 X88.141 Y108.826 E7.0339
G1 X88.542 Y107.721 E7.0932
G1 X88.646 Y107.479 E7.1065
G1 X89.172 Y106.427 E7.1659
G1 X89.303 Y106.199 E7.1792
G1 X89.947 Y105.215 E7.2386
G1 X90.104 Y105.004 E7.2519
G1 X90.380 Y104.673 E7.2737
G1 X90.380 Y98.480 E7.5865
G1 X90.257 Y98.374 E7.5947
G1 X90.130 Y98.257 E7.6035
G1 X89.263 Y97.394 E7.6653
G1 X89.108 Y97.223 E7.6769
G1 X88.333 Y96.276 E7.7387
G1 X88.229 Y96.138 E7.7475
G1 X87.837 Y95.577 E7.7820
G1 X87.743 Y95.432 E7.7908
G1 X87.121 Y94.378 E7.8526
G1 X87.014 Y94.174 E7.8642
G1 X86.502 Y93.062 E7.9260
G1 X86.436 Y92.903 E7.9348
G1 X86.197 Y92.261 E7.9693
G1 X86.143 Y92.097 E7.9780
G1 X85.814 Y90.949 E8.0384
G1 X85.773 Y90.781 E8.0471
G1 X85.640 Y90.139 E8.0802
G1 X85.620 Y90.026 E8.0861
G1 X85.521 Y89.378 E8.1192
G1 X85.501 Y89.206 E8.1279
G1 X85.410 Y88.015 E8.1882
G1 X85.403 Y87.842 E8.1970
G1 X85.403 Y87.158 E8.2315
G1 X85.410 Y86.985 E8.2403
G1 X85.503 Y85.765 E8.3021
G1 X85.532 Y85.536 E8.3137
G1 X85.749 Y84.332 E8.3755
G1 X85.786 Y84.163 E8.3843
G1 X85.958 Y83.501 E8.4188
G1 X86.007 Y83.335 E8.4276
G1 X86.404 Y82.178 E8.4894
G1 X86.490 Y81.964 E8.5010
G1 X87.014 Y80.826 E8.5643
G1 X87.121 Y80.622 E8.5759
G1 X87.758 Y79.544 E8.6392
G1 X87.885 Y79.351 E8.6509
G1 X88.628 Y78.343 E8.7141
G1 X88.774 Y78.164 E8.7258
G1 X89.596 Y77.258 E8.7876
G1 X89.717 Y77.134 E8.7963
G1 X90.214 Y76.664 E8.8309
G1 X90.344 Y76.550 E8.8396
G1 X90.380 Y76.521 E8.8420
G1 X90.380 Y66.569 E9.3446
G1 X90.740 Y66.719 F2400
G92 E0.0000
G1 X93.189 Y64.270 E0.1749 F1200
G1 X106.811 Y64.270 E0.8631
G1 X109.260 Y66.719 E1.0380
G1 X109.260 Y76.692 E1.5418
G1 X109.424 Y76.825 E1.5524
G1 X109.543 Y76.930 E1.5605
G1 X110.030 Y77.391 E1.5944
G1 X110.142 Y77.505 E1.6024
G1 X110.953 Y78.399 E1.6634
G1 X111.087 Y78.564 E1.6741
G1 X111.804 Y79.536 E1.7351
G1 X111.893 Y79.668 E1.7432
G1 X112.235 Y80.213 E1.7757
G1 X112.289 Y80.305 E1.7811
G1 X112.602 Y80.867 E1.8136
G1 X112.674 Y81.009 E1.8216
G1 X113.179 Y82.106 E1.8826
G1 X113.258 Y82.303 E1.8933
G1 X113.658 Y83.471 E1.9557
G1 X113.717 Y83.675 E1.9664
G1 X113.991 Y84.851 E2.0274
G1 X114.021 Y85.007 E2.0355
G1 X114.123 Y85.670 E2.0693
G1 X114.141 Y85.828 E2.0774
G1 X114.231 Y87.006 E2.1370
G1 X114.237 Y87.165 E2.1451
G1 X114.237 Y87.835 E2.1789
G1 X114.231 Y87.994 E2.1870
G1 X114.139 Y89.198 E2.2480
G1 X114.112 Y89.409 E2.2587
G1 X113.898 Y90.598 E2.3197
G1 X113.864 Y90.753 E2.3277
G1 X113.696 Y91.402 E2.3616
G1 X113.650 Y91.554 E2.3696
G1 X113.258 Y92.697 E2.4306
G1 X113.179 Y92.894 E2.4414
G1 X112.663 Y94.015 E2.5037
G1 X112.564 Y94.203 E2.5144
G1 X111.950 Y95.243 E2.5754
G1 X111.864 Y95.377 E2.5835
G1 X111.480 Y95.926 E2.6173
G1 X111.384 Y96.053 E2.6254
G1 X110.619 Y96.988 E2.6864
G1 X110.477 Y97.145 E2.6971
G1 X109.621 Y97.997 E2.7581
G1 X109.504 Y98.105 E2.7662
G1 X109.260 Y98.314 E2.7824
G1 X109.260 Y104.804 E3.1102
G1 X109.613 Y105.227 E3.1380
G1 X109.757 Y105.421 E3.1503
G1 X110.390 Y106.387 E3.2086
G1 X110.511 Y106.597 E3.2209
G1 X111.027 Y107.630 E3.2792
G1 X111.123 Y107.853 E3.2914
G1 X111.517 Y108.939 E3.3498
G1 X111.586 Y109.171 E3.3620
G1 X111.851 Y110.295 E3.4203
G1 X111.893 Y110.534 E3.4326
G1 X112.023 Y111.651 E3.4894
G1 X112.036 Y111.832 E3.4986
G1 X112.054 Y112.439 E3.5293
G1 X112.054 Y112.561 E3.5354
G1 X112.036 Y113.168 E3.5661
G1 X112.023 Y113.349 E3.5753
G1 X111.893 Y114.466 E3.6321
G1 X111.851 Y114.705 E3.6443
G1 X111.586 Y115.829 E3.7027
G1 X111.517 Y116.061 E3.7149
G1 X111.123 Y117.147 E3.7732
G1 X111.027 Y117.370 E3.7855
G1 X110.511 Y118.403 E3.8438
G1 X110.390 Y118.613 E3.8561
G1 X109.757 Y119.579 E3.9144
G1 X109.613 Y119.773 E3.9266
G1 X109.260 Y120.196 E3.9545
G1 X109.260 Y133.281 E4.6154
G1 X106.811 Y135.730 E4.7904
G1 X93.189 Y135.730 E5.4785
G1 X90.740 Y133.281 E5.6534
G1 X90.740 Y120.217 E6.3133
G1 X90.651 Y120.108 E6.3205
G1 X90.000 Y119.229 E6.3757
G1 X89.898 Y119.078 E6.3849
G1 X89.564 Y118.534 E6.4171
G1 X89.476 Y118.375 E6.4263
G1 X88.986 Y117.397 E6.4816
G1 X88.912 Y117.231 E6.4908
G1 X88.677 Y116.637 E6.5230
G1 X88.618 Y116.466 E6.5322
G1 X88.296 Y115.388 E6.5890
G1 X88.241 Y115.152 E6.6012
G1 X88.041 Y114.015 E6.6596
G1 X88.013 Y113.774 E6.6718
G1 X87.948 Y112.651 E6.7286
G1 X87.945 Y112.470 E6.7378
G1 X87.964 Y111.832 E6.7700
G1 X87.977 Y111.651 E6.7792
G1 X88.107 Y110.534 E6.8360
G1 X88.149 Y110.295 E6.8483
G1 X88.414 Y109.171 E6.9066
G1 X88.483 Y108.939 E6.9188
G1 X88.877 Y107.853 E6.9772
G1 X88.973 Y107.630 E6.9894
G1 X89.489 Y106.597 E7.0478
G1 X89.610 Y106.387 E7.0600
G1 X90.243 Y105.421 E7.1183
G1 X90.387 Y105.227 E7.1306
G1 X90.740 Y104.804 E7.1584
G1 X90.740 Y98.314 E7.4862
G1 X90.496 Y98.105 E7.5024
G1 X90.379 Y97.997 E7.5105
G1 X89.523 Y97.145 E7.5715
G1 X89.381 Y96.988 E7.5822
G1 X88.616 Y96.053 E7.6432
G1 X88.520 Y95.926 E7.6513
G1 X88.136 Y95.377 E7.6851
G1 X88.050 Y95.243 E7.6932
G1 X87.436 Y94.203 E7.7542
G1 X87.337 Y94.015 E7.7649
G1 X86.832 Y92.918 E7.8259
G1 X86.771 Y92.771 E7.8339
G1 X86.537 Y92.143 E7.8678
G1 X86.488 Y91.991 E7.8758
G1 X86.162 Y90.856 E7.9355
G1 X86.124 Y90.701 E7.9435
G1 X85.994 Y90.071 E7.9761
G1 X85.975 Y89.966 E7.9814
G1 X85.877 Y89.330 E8.0140
G1 X85.859 Y89.172 E8.0220
G1 X85.769 Y87.994 E8.0817
G1 X85.763 Y87.835 E8.0897
G1 X85.763 Y87.165 E8.1236
G1 X85.769 Y87.006 E8.1316
G1 X85.861 Y85.802 E8.1926
G1 X85.888 Y85.591 E8.2033
G1 X86.102 Y84.402 E8.2643
G1 X86.136 Y84.247 E8.2724
G1 X86.304 Y83.598 E8.3062
G1 X86.350 Y83.446 E8.3143
G1 X86.742 Y82.303 E8.3753
G1 X86.821 Y82.106 E8.3860
G1 X87.337 Y80.985 E8.4483
G1 X87.436 Y80.797 E8.4591
G1 X88.063 Y79.734 E8.5214
G1 X88.180 Y79.557 E8.5321
G1 X88.913 Y78.564 E8.5945
G1 X89.047 Y78.399 E8.6052
G1 X89.858 Y77.505 E8.6662
G1 X89.970 Y77.391 E8.6743
G1 X90.456 Y76.930 E8.7081
G1 X90.576 Y76.825 E8.7162
G1 X90.740 Y76.692 E8.7268
G1 X90.740 Y66.719 E9.2306
G92 E0.0000
G1 E-5.0000 F3000
; feature inner perimeter
G1 X98.550 Y68.630 F2400
G1 X95.100 Y68.630
G1 X95.100 Y78.917
G1 X94.584 Y79.237
G1 X94.172 Y79.522
G1 X93.774 Y79.829
G1 X93.393 Y80.155
G1 X93.066 Y80.464
G1 X93.215 Y81.347
G1 E0.0000 F3000
G92 E0.0000
G1 X93.536 Y81.010 E0.0235 F900
G1 X93.874 Y80.690 E0.0470
G1 X94.228 Y80.388 E0.0705
G1 X94.596 Y80.104 E0.0940
G1 X94.979 Y79.839 E0.1175
G1 X95.820 Y79.318 E0.1675
G1 X95.820 Y69.350 E0.6710
G1 X97.830 Y69.350 E0.7725
G1 X97.830 Y80.691 E1.3454
G1 X97.648 Y80.747 E1.3550
G1 X97.213 Y80.915 E1.3786
G1 X96.789 Y81.111 E1.4022
G1 X96.379 Y81.334 E1.4257
G1 X95.985 Y81.583 E1.4493
G1 X95.608 Y81.858 E1.4729
G1 X95.249 Y82.156 E1.4964
G1 X94.910 Y82.477 E1.5200
G1 X94.594 Y82.820 E1.5436
G1 X94.300 Y83.183 E1.5672
G1 X94.031 Y83.564 E1.5907
G1 X93.787 Y83.961 E1.6143
G1 X93.569 Y84.374 E1.6379
G1 X93.379 Y84.800 E1.6614
G1 X93.217 Y85.238 E1.6850
G1 X93.084 Y85.685 E1.7086
G1 X92.980 Y86.140 E1.7321
G1 X92.906 Y86.601 E1.7557
G1 X92.863 Y87.065 E1.7793
G1 X92.850 Y87.532 E1.8029
G1 X92.867 Y87.998 E1.8264
G1 X92.915 Y88.462 E1.8500
G1 X92.992 Y88.922 E1.8736
G1 X93.100 Y89.376 E1.8971
G1 X93.237 Y89.822 E1.9207
G1 X93.403 Y90.258 E1.9443
G1 X93.597 Y90.683 E1.9678
G1 X93.818 Y91.093 E1.9914
G1 X94.066 Y91.489 E2.0150
G1 X94.338 Y91.867 E2.0385
G1 X94.635 Y92.228 E2.0621
G1 X94.955 Y92.567 E2.0857
G1 X95.296 Y92.886 E2.1093
G1 X95.657 Y93.181 E2.1328
G1 X96.037 Y93.452 E2.1564
G1 X96.434 Y93.698 E2.1800
G1 X96.846 Y93.917 E2.2035
G1 X97.271 Y94.109 E2.2271
G1 X97.708 Y94.273 E2.2507
G1 X98.154 Y94.408 E2.2742
G1 X98.609 Y94.514 E2.2978
