; G-Code generated by Simplify3D(R) Version 4.1.2
; Jul 13, 2021 at 6:07:29 PM
; Settings Summary
;   processName,Process1
;   applyToModels,JRCNC0016 v13
;   profileName,JR NORMAL (modified)
;   profileVersion,2021-06-28 21:15:49
;   baseProfile,Wanhao Duplicator 5S Mini
;   printMaterial,PLA
;   printQuality,0.25
;   printExtruders,
;   extruderName,Primary Extruder
;   extruderToolheadNumber,0
;   extruderDiameter,0.3
;   extruderAutoWidth,1
;   extruderWidth,0.36
;   extrusionMultiplier,0.9
;   extruderUseRetract,1
;   extruderRetractionDistance,5
;   extruderExtraRestartDistance,0
;   extruderRetractionZLift,0
;   extruderRetractionSpeed,3000
;   extruderUseCoasting,0
;   extruderCoastingDistance,1.5
;   extruderUseWipe,0
;   extruderWipeDistance,5
;   primaryExtruder,0
;   layerHeight,0.25
;   topSolidLayers,3
;   bottomSolidLayers,3
;   perimeterOutlines,3
;   printPerimetersInsideOut,1
;   startPointOption,3
;   startPointOriginX,0
;   startPointOriginY,0
;   sequentialIslands,0
;   spiralVaseMode,0
;   firstLayerHeightPercentage,150
;   firstLayerWidthPercentage,100
;   firstLayerUnderspeed,0.5
;   useRaft,0
;   raftExtruder,0
;   raftTopLayers,3
;   raftBaseLayers,2
;   raftOffset,3
;   raftSeparationDistance,0.14
;   raftTopInfill,100
;   aboveRaftSpeedMultiplier,0.3
;   useSkirt,1
;   skirtExtruder,0
;   skirtLayers,2
;   skirtOutlines,2
;   skirtOffset,4
;   usePrimePillar,0
;   primePillarExtruder,999
;   primePillarWidth,12
;   primePillarLocation,7
;   primePillarSpeedMultiplier,1
;   useOozeShield,0
;   oozeShieldExtruder,999
;   oozeShieldOffset,2
;   oozeShieldOutlines,1
;   oozeShieldSidewallShape,1
;   oozeShieldSidewallAngle,30
;   oozeShieldSpeedMultiplier,1
;   infillExtruder,0
;   internalInfillPattern,Triangular
;   externalInfillPattern,Rectilinear
;   infillPercentage,30
;   outlineOverlapPercentage,15
;   infillExtrusionWidthPercentage,150
;   minInfillLength,5
;   infillLayerInterval,1
;   internalInfillAngles,0,60,-60
;   overlapInternalInfillAngles,1
;   externalInfillAngles,45,-45
;   generateSupport,0
;   supportExtruder,0
;   supportInfillPercentage,40
;   supportExtraInflation,1
;   supportBaseLayers,0
;   denseSupportExtruder,0
;   denseSupportLayers,0
;   denseSupportInfillPercentage,70
;   supportLayerInterval,1
;   supportHorizontalPartOffset,1
;   supportUpperSeparationLayers,1
;   supportLowerSeparationLayers,1
;   supportType,0
;   supportGridSpacing,4
;   maxOverhangAngle,45
;   supportAngles,0
;   temperatureName,Primary Extruder
;   temperatureNumber,0
;   temperatureSetpointCount,2
;   temperatureSetpointLayers,1,5
;   temperatureSetpointTemperatures,220,210
;   temperatureStabilizeAtStartup,1
;   temperatureHeatedBed,0
;   fanLayers,1,2
;   fanSpeeds,100,100
;   blipFanToFullPower,0
;   adjustSpeedForCooling,1
;   minSpeedLayerTime,7
;   minCoolingSpeedSlowdown,20
;   increaseFanForCooling,0
;   minFanLayerTime,45
;   maxCoolingFanSpeed,100
;   increaseFanForBridging,0
;   bridgingFanSpeed,100
;   use5D,1
;   relativeEdistances,0
;   allowEaxisZeroing,1
;   independentExtruderAxes,0
;   includeM10123,0
;   stickySupport,1
;   applyToolheadOffsets,0
;   gcodeXoffset,0
;   gcodeYoffset,0
;   gcodeZoffset,0
;   overrideMachineDefinition,0
;   machineTypeOverride,0
;   strokeXoverride,305
;   strokeYoverride,205
;   strokeZoverride,205
;   originOffsetXoverride,0
;   originOffsetYoverride,0
;   originOffsetZoverride,0
;   homeXdirOverride,-1
;   homeYdirOverride,-1
;   homeZdirOverride,-1
;   flipXoverride,1
;   flipYoverride,-1
;   flipZoverride,1
;   toolheadOffsets,0,0|0,0|0,0|0,0|0,0|0,0
;   overrideFirmwareConfiguration,1
;   firmwareTypeOverride,RepRap (Marlin/Repetier/Sprinter)
;   GPXconfigOverride,r2
;   baudRateOverride,115200
;   overridePrinterModels,1
;   printerModelsOverride
;   startingGcode,G28 ; home all axes,G1 Z 2 ; set height for prime line,G92 E0 ; zero extruder,G1 X150 E30 F400 ; prime line
;   layerChangeGcode,
;   retractionGcode,
;   toolChangeGcode,
;   endingGcode,G28 X0 ; home X axis,M104 S0 ; turn off extruder,M84 ; disable motors
;   exportFileFormat,gcode
;   celebration,0
;   celebrationSong,Random Song
;   postProcessing,
;   defaultSpeed,2400
;   outlineUnderspeed,0.5
;   solidInfillUnderspeed,0.8
;   supportUnderspeed,0.8
;   rapidXYspeed,2400
;   rapidZspeed,900
;   minBridgingArea,50
;   bridgingExtraInflation,0
;   bridgingExtrusionMultiplier,1
;   bridgingSpeedMultiplier,1
;   useFixedBridgingAngle,0
;   fixedBridgingAngle,0
;   applyBridgingToPerimeters,0
;   filamentDiameters,1.75|3|3|3|3|3
;   filamentPricesPerKg,46|46|46|46|46|46
;   filamentDensities,1.25|1.25|1.25|1.25|1.25|1.25
;   useMinPrintHeight,0
;   minPrintHeight,0
;   useMaxPrintHeight,0
;   maxPrintHeight,0
;   useDiaphragm,0
;   diaphragmLayerInterval,20
;   robustSlicing,1
;   mergeAllIntoSolid,0
;   onlyRetractWhenCrossingOutline,1
;   retractBetweenLayers,0
;   useRetractionMinTravel,1
;   retractionMinTravel,3
;   retractWhileWiping,0
;   onlyWipeOutlines,1
;   avoidCrossingOutline,1
;   maxMovementDetourFactor,3
;   toolChangeRetractionDistance,12
;   toolChangeExtraRestartDistance,-0.5
;   toolChangeRetractionSpeed,600
;   externalThinWallType,0
;   internalThinWallType,2
;   thinWallAllowedOverlapPercentage,10
;   singleExtrusionMinLength,1
;   singleExtrusionMinPrintingWidthPercentage,50
;   singleExtrusionMaxPrintingWidthPercentage,200
;   singleExtrusionEndpointExtension,0
;   horizontalSizeCompensation,0
G90
M82
M106 S255
M104 S220 T0
M109 S220 T0
G28 ; home all axes
G1 Z 2 ; set height for prime line
G92 E0 ; zero extruder
G1 X150 E30 F400 ; prime line
; process Process1
; layer 1, Z = 0.375
T0
G92 E0.0000
G1 E-5.0000 F3000
; feature skirt
; tool H0.375 W0.360
G1 Z0.375 F900
G1 X80.173 Y74.780 F2400
G1 E0.0000 F3000
G92 E0.0000
G1 X80.825 Y74.128 E0.0466 F1200
G1 X80.963 Y74.001 E0.0561
G1 X81.667 Y73.405 E0.1027
G1 X81.815 Y73.289 E0.1121
G1 X82.566 Y72.753 E0.1587
G1 X82.723 Y72.650 E0.1682
G1 X83.516 Y72.178 E0.2148
G1 X83.681 Y72.089 E0.2243
G1 X84.509 Y71.684 E0.2709
G1 X84.681 Y71.608 E0.2804
G1 X85.541 Y71.273 E0.3270
G1 X85.718 Y71.212 E0.3365
G1 X86.602 Y70.949 E0.3831
G1 X86.784 Y70.903 E0.3925
G1 X87.687 Y70.714 E0.4391
G1 X87.872 Y70.683 E0.4486
G1 X88.787 Y70.569 E0.4952
G1 X88.975 Y70.553 E0.5047
G1 X89.896 Y70.515 E0.5513
G1 X90.084 Y70.515 E0.5608
G1 X91.005 Y70.553 E0.6074
G1 X91.193 Y70.569 E0.6169
G1 X92.108 Y70.683 E0.6635
G1 X92.293 Y70.714 E0.6729
G1 X93.196 Y70.903 E0.7195
G1 X93.378 Y70.949 E0.7290
G1 X94.262 Y71.212 E0.7756
G1 X94.439 Y71.273 E0.7851
G1 X95.299 Y71.608 E0.8317
G1 X95.471 Y71.684 E0.8412
G1 X96.299 Y72.089 E0.8878
G1 X96.464 Y72.178 E0.8972
G1 X97.257 Y72.650 E0.9438
G1 X97.414 Y72.753 E0.9533
G1 X98.165 Y73.289 E0.9999
G1 X98.313 Y73.405 E1.0094
G1 X99.017 Y74.001 E1.0560
G1 X99.155 Y74.128 E1.0655
G1 X99.807 Y74.780 E1.1121
G1 X99.934 Y74.918 E1.1216
G1 X100.531 Y75.622 E1.1682
G1 X100.646 Y75.770 E1.1776
G1 X101.182 Y76.521 E1.2242
G1 X101.284 Y76.678 E1.2337
G1 X101.757 Y77.470 E1.2803
G1 X101.846 Y77.636 E1.2898
G1 X102.251 Y78.464 E1.3364
G1 X102.327 Y78.636 E1.3459
G1 X102.662 Y79.495 E1.3925
G1 X102.723 Y79.673 E1.4019
G1 X102.986 Y80.557 E1.4485
G1 X103.032 Y80.739 E1.4580
G1 X103.221 Y81.642 E1.5046
G1 X103.252 Y81.827 E1.5141
G1 X103.366 Y82.742 E1.5607
G1 X103.382 Y82.929 E1.5702
G1 X103.418 Y83.804 E1.6144
G1 X103.420 Y83.898 E1.6191
G1 X103.420 Y112.705 E3.0743
G1 X130.827 Y112.705 E4.4587
G1 X132.025 Y113.040 E4.5216
G1 X133.813 Y114.123 E4.6272
G1 X135.020 Y114.791 E4.6969
G1 X136.252 Y115.413 E4.7666
G1 X137.507 Y115.985 E4.8362
G1 X138.784 Y116.509 E4.9059
G1 X140.080 Y116.982 E4.9756
G1 X141.393 Y117.405 E5.0453
G1 X142.722 Y117.776 E5.1150
G1 X144.064 Y118.095 E5.1847
G1 X145.418 Y118.362 E5.2544
G1 X146.781 Y118.576 E5.3241
G1 X148.151 Y118.736 E5.3938
G1 X149.527 Y118.844 E5.4635
G1 X150.906 Y118.897 E5.5332
G1 X152.285 Y118.897 E5.6029
G1 X153.664 Y118.844 E5.6726
G1 X155.039 Y118.736 E5.7423
G1 X156.410 Y118.576 E5.8120
G1 X157.773 Y118.362 E5.8817
G1 X159.127 Y118.095 E5.9514
G1 X160.469 Y117.776 E6.0211
G1 X161.798 Y117.405 E6.0908
G1 X163.111 Y116.982 E6.1605
G1 X164.407 Y116.509 E6.2301
G1 X165.684 Y115.985 E6.2998
G1 X166.939 Y115.413 E6.3695
G1 X168.171 Y114.791 E6.4392
G1 X169.378 Y114.123 E6.5089
G1 X171.166 Y113.040 E6.6145
G1 X172.364 Y112.705 E6.6774
G1 X201.580 Y112.705 E8.1532
G1 X201.580 Y108.898 E8.3455
G1 X201.582 Y108.804 E8.3502
G1 X201.618 Y107.929 E8.3945
G1 X201.634 Y107.742 E8.4039
G1 X201.748 Y106.827 E8.4505
G1 X201.779 Y106.642 E8.4600
G1 X201.968 Y105.739 E8.5066
G1 X202.014 Y105.557 E8.5161
G1 X202.277 Y104.673 E8.5627
G1 X202.338 Y104.496 E8.5722
G1 X202.673 Y103.636 E8.6188
G1 X202.749 Y103.464 E8.6282
G1 X203.154 Y102.635 E8.6748
G1 X203.243 Y102.470 E8.6843
G1 X203.715 Y101.678 E8.7309
G1 X203.818 Y101.521 E8.7404
G1 X204.354 Y100.770 E8.7870
G1 X204.469 Y100.622 E8.7965
G1 X205.066 Y99.918 E8.8431
G1 X205.193 Y99.780 E8.8526
G1 X205.845 Y99.128 E8.8992
G1 X205.983 Y99.001 E8.9086
G1 X206.687 Y98.404 E8.9552
G1 X206.835 Y98.289 E8.9647
G1 X207.586 Y97.753 E9.0113
G1 X207.743 Y97.651 E9.0208
G1 X208.535 Y97.178 E9.0674
G1 X208.701 Y97.089 E9.0769
G1 X209.529 Y96.684 E9.1235
G1 X209.701 Y96.608 E9.1329
G1 X210.560 Y96.273 E9.1795
G1 X210.738 Y96.212 E9.1890
G1 X211.622 Y95.949 E9.2356
G1 X211.804 Y95.903 E9.2451
G1 X212.707 Y95.714 E9.2917
G1 X212.892 Y95.683 E9.3012
G1 X213.807 Y95.569 E9.3478
G1 X213.995 Y95.553 E9.3573
G1 X214.916 Y95.515 E9.4039
G1 X215.104 Y95.515 E9.4133
G1 X216.025 Y95.553 E9.4599
G1 X216.213 Y95.569 E9.4694
G1 X217.128 Y95.683 E9.5160
G1 X217.313 Y95.714 E9.5255
G1 X218.216 Y95.903 E9.5721
G1 X218.398 Y95.949 E9.5816
G1 X219.282 Y96.212 E9.6282
G1 X219.459 Y96.273 E9.6376
G1 X220.319 Y96.608 E9.6842
G1 X220.491 Y96.684 E9.6937
G1 X221.319 Y97.089 E9.7403
G1 X221.485 Y97.178 E9.7498
G1 X222.277 Y97.651 E9.7964
G1 X222.434 Y97.753 E9.8059
G1 X223.185 Y98.289 E9.8525
G1 X223.333 Y98.404 E9.8620
G1 X224.037 Y99.001 E9.9086
G1 X224.175 Y99.128 E9.9180
G1 X224.827 Y99.780 E9.9646
G1 X224.954 Y99.918 E9.9741
G1 X225.551 Y100.622 E10.0207
G1 X225.666 Y100.770 E10.0302
G1 X226.202 Y101.521 E10.0768
G1 X226.304 Y101.678 E10.0863
G1 X226.777 Y102.471 E10.1329
G1 X226.866 Y102.636 E10.1423
G1 X227.271 Y103.464 E10.1889
G1 X227.347 Y103.636 E10.1984
G1 X227.682 Y104.496 E10.2450
G1 X227.743 Y104.673 E10.2545
G1 X228.006 Y105.557 E10.3011
G1 X228.052 Y105.739 E10.3106
G1 X228.241 Y106.642 E10.3572
G1 X228.272 Y106.827 E10.3667
G1 X228.386 Y107.742 E10.4133
G1 X228.402 Y107.929 E10.4227
G1 X228.438 Y108.804 E10.4670
G1 X228.440 Y108.898 E10.4717
G1 X228.440 Y131.826 E11.6299
G1 X225.781 Y134.485 E11.8198
G1 X79.219 Y134.485 E19.2232
G1 X76.560 Y131.826 E19.4132
G1 X76.560 Y83.898 E21.8342
G1 X76.562 Y83.804 E21.8389
G1 X76.598 Y82.929 E21.8832
G1 X76.614 Y82.742 E21.8926
G1 X76.728 Y81.827 E21.9392
G1 X76.759 Y81.642 E21.9487
G1 X76.948 Y80.739 E21.9953
G1 X76.994 Y80.557 E22.0048
G1 X77.257 Y79.673 E22.0514
G1 X77.318 Y79.495 E22.0609
G1 X77.653 Y78.636 E22.1075
G1 X77.729 Y78.464 E22.1169
G1 X78.134 Y77.636 E22.1635
G1 X78.223 Y77.471 E22.1730
G1 X78.696 Y76.678 E22.2196
G1 X78.798 Y76.521 E22.2291
G1 X79.334 Y75.770 E22.2757
G1 X79.449 Y75.622 E22.2852
G1 X80.046 Y74.918 E22.3318
G1 X80.173 Y74.780 E22.3413
G1 X80.433 Y75.029 F2400
G92 E0.0000
G1 X81.074 Y74.388 E0.0458 F1200
G1 X81.202 Y74.271 E0.0546
G1 X81.894 Y73.684 E0.1004
G1 X82.030 Y73.578 E0.1091
G1 X82.769 Y73.050 E0.1550
G1 X82.914 Y72.956 E0.1637
G1 X83.693 Y72.491 E0.2096
G1 X83.845 Y72.409 E0.2183
G1 X84.661 Y72.011 E0.2641
G1 X84.819 Y71.941 E0.2729
G1 X85.664 Y71.611 E0.3187
G1 X85.828 Y71.555 E0.3274
G1 X86.698 Y71.296 E0.3733
G1 X86.865 Y71.254 E0.3820
G1 X87.754 Y71.067 E0.4279
G1 X87.924 Y71.039 E0.4366
G1 X88.825 Y70.927 E0.4824
G1 X88.997 Y70.912 E0.4912
G1 X89.904 Y70.875 E0.5370
G1 X90.076 Y70.875 E0.5457
G1 X90.983 Y70.912 E0.5916
G1 X91.155 Y70.927 E0.6003
G1 X92.056 Y71.039 E0.6462
G1 X92.226 Y71.067 E0.6549
G1 X93.115 Y71.254 E0.7007
G1 X93.282 Y71.296 E0.7095
G1 X94.152 Y71.555 E0.7553
G1 X94.316 Y71.611 E0.7640
G1 X95.161 Y71.941 E0.8099
G1 X95.319 Y72.011 E0.8186
G1 X96.135 Y72.409 E0.8645
G1 X96.287 Y72.491 E0.8732
G1 X97.066 Y72.956 E0.9190
G1 X97.211 Y73.051 E0.9278
G1 X97.950 Y73.578 E0.9736
G1 X98.086 Y73.684 E0.9823
G1 X98.778 Y74.271 E1.0282
G1 X98.906 Y74.388 E1.0369
G1 X99.547 Y75.029 E1.0828
G1 X99.664 Y75.156 E1.0915
G1 X100.251 Y75.849 E1.1373
G1 X100.357 Y75.985 E1.1461
G1 X100.885 Y76.724 E1.1919
G1 X100.979 Y76.869 E1.2006
G1 X101.444 Y77.648 E1.2465
G1 X101.526 Y77.800 E1.2552
G1 X101.924 Y78.616 E1.3010
G1 X101.994 Y78.774 E1.3098
G1 X102.324 Y79.619 E1.3556
G1 X102.380 Y79.783 E1.3644
G1 X102.639 Y80.653 E1.4102
G1 X102.681 Y80.820 E1.4189
G1 X102.868 Y81.709 E1.4648
G1 X102.896 Y81.879 E1.4735
G1 X103.008 Y82.780 E1.5193
G1 X103.022 Y82.952 E1.5281
G1 X103.058 Y83.815 E1.5717
G1 X103.060 Y83.902 E1.5761
G1 X103.060 Y113.065 E3.0492
G1 X130.778 Y113.065 E4.4494
G1 X131.881 Y113.373 E4.5072
G1 X133.633 Y114.435 E4.6107
G1 X134.852 Y115.110 E4.6811
G1 X136.096 Y115.737 E4.7515
G1 X137.364 Y116.316 E4.8219
G1 X138.654 Y116.844 E4.8923
G1 X139.963 Y117.323 E4.9627
G1 X141.290 Y117.750 E5.0331
G1 X142.632 Y118.125 E5.1035
G1 X143.988 Y118.447 E5.1739
G1 X145.355 Y118.716 E5.2443
G1 X146.732 Y118.933 E5.3147
G1 X148.116 Y119.095 E5.3851
G1 X149.506 Y119.203 E5.4555
G1 X150.899 Y119.257 E5.5259
G1 X152.292 Y119.257 E5.5963
G1 X153.685 Y119.203 E5.6667
G1 X155.074 Y119.095 E5.7371
G1 X156.459 Y118.933 E5.8075
G1 X157.836 Y118.716 E5.8779
G1 X159.203 Y118.447 E5.9483
G1 X160.559 Y118.125 E6.0187
G1 X161.901 Y117.750 E6.0891
G1 X163.228 Y117.323 E6.1595
G1 X164.537 Y116.844 E6.2300
G1 X165.827 Y116.316 E6.3003
G1 X167.095 Y115.737 E6.3708
G1 X168.339 Y115.110 E6.4412
G1 X169.558 Y114.435 E6.5116
G1 X171.310 Y113.373 E6.6150
G1 X172.413 Y113.065 E6.6729
G1 X201.940 Y113.065 E8.1644
G1 X201.940 Y108.902 E8.3747
G1 X201.942 Y108.815 E8.3791
G1 X201.977 Y107.952 E8.4227
G1 X201.992 Y107.780 E8.4314
G1 X202.104 Y106.879 E8.4773
G1 X202.132 Y106.709 E8.4860
G1 X202.319 Y105.820 E8.5319
G1 X202.361 Y105.653 E8.5406
G1 X202.620 Y104.783 E8.5864
G1 X202.676 Y104.619 E8.5952
G1 X203.006 Y103.774 E8.6410
G1 X203.076 Y103.616 E8.6497
G1 X203.474 Y102.800 E8.6956
G1 X203.556 Y102.648 E8.7043
G1 X204.021 Y101.869 E8.7502
G1 X204.115 Y101.724 E8.7589
G1 X204.643 Y100.985 E8.8047
G1 X204.749 Y100.849 E8.8135
G1 X205.336 Y100.156 E8.8593
G1 X205.453 Y100.029 E8.8680
G1 X206.094 Y99.388 E8.9139
G1 X206.222 Y99.271 E8.9226
G1 X206.914 Y98.684 E8.9685
G1 X207.050 Y98.578 E8.9772
G1 X207.789 Y98.050 E9.0230
G1 X207.934 Y97.956 E9.0318
G1 X208.713 Y97.491 E9.0776
G1 X208.865 Y97.409 E9.0863
G1 X209.681 Y97.011 E9.1322
G1 X209.839 Y96.941 E9.1409
G1 X210.684 Y96.611 E9.1868
G1 X210.848 Y96.555 E9.1955
G1 X211.718 Y96.296 E9.2413
G1 X211.885 Y96.254 E9.2501
G1 X212.774 Y96.067 E9.2959
G1 X212.944 Y96.039 E9.3046
G1 X213.845 Y95.927 E9.3505
G1 X214.017 Y95.912 E9.3592
G1 X214.924 Y95.875 E9.4050
G1 X215.096 Y95.875 E9.4138
G1 X216.003 Y95.912 E9.4596
G1 X216.175 Y95.927 E9.4684
G1 X217.076 Y96.039 E9.5142
G1 X217.247 Y96.067 E9.5229
G1 X218.135 Y96.254 E9.5688
G1 X218.302 Y96.296 E9.5775
G1 X219.172 Y96.555 E9.6233
G1 X219.336 Y96.611 E9.6321
G1 X220.181 Y96.941 E9.6779
G1 X220.339 Y97.011 E9.6866
G1 X221.155 Y97.409 E9.7325
G1 X221.307 Y97.491 E9.7412
G1 X222.086 Y97.956 E9.7871
G1 X222.231 Y98.050 E9.7958
G1 X222.970 Y98.578 E9.8416
G1 X223.106 Y98.684 E9.8504
G1 X223.798 Y99.271 E9.8962
G1 X223.926 Y99.388 E9.9049
G1 X224.567 Y100.029 E9.9508
G1 X224.684 Y100.157 E9.9595
G1 X225.271 Y100.849 E10.0054
G1 X225.377 Y100.985 E10.0141
G1 X225.905 Y101.724 E10.0599
G1 X225.999 Y101.869 E10.0687
G1 X226.464 Y102.648 E10.1145
G1 X226.546 Y102.800 E10.1232
G1 X226.944 Y103.616 E10.1691
G1 X227.014 Y103.774 E10.1778
G1 X227.344 Y104.619 E10.2237
G1 X227.400 Y104.783 E10.2324
G1 X227.659 Y105.653 E10.2782
G1 X227.701 Y105.820 E10.2870
G1 X227.888 Y106.709 E10.3328
