; G-Code generated by Simplify3D(R) Version 4.1.2
; Jul 11, 2021 at 5:14:25 PM
; Settings Summary
;   processName,Process1
;   applyToModels,JRCNC0016 v11
;   profileName,JR NORMAL
;   profileVersion,2021-06-28 21:15:49
;   baseProfile,Wanhao Duplicator 5S Mini
;   printMaterial,PLA
;   printQuality,0.25
;   printExtruders,
;   extruderName,Primary Extruder
;   extruderToolheadNumber,0
;   extruderDiameter,0.3
;   extruderAutoWidth,1
;   extruderWidth,0.36
;   extrusionMultiplier,0.9
;   extruderUseRetract,1
;   extruderRetractionDistance,5
;   extruderExtraRestartDistance,0
;   extruderRetractionZLift,0
;   extruderRetractionSpeed,3000
;   extruderUseCoasting,0
;   extruderCoastingDistance,1.5
;   extruderUseWipe,0
;   extruderWipeDistance,5
;   primaryExtruder,0
;   layerHeight,0.25
;   topSolidLayers,3
;   bottomSolidLayers,3
;   perimeterOutlines,3
;   printPerimetersInsideOut,1
;   startPointOption,3
;   startPointOriginX,0
;   startPointOriginY,0
;   sequentialIslands,0
;   spiralVaseMode,0
;   firstLayerHeightPercentage,150
;   firstLayerWidthPercentage,100
;   firstLayerUnderspeed,0.5
;   useRaft,0
;   raftExtruder,0
;   raftTopLayers,3
;   raftBaseLayers,2
;   raftOffset,3
;   raftSeparationDistance,0.14
;   raftTopInfill,100
;   aboveRaftSpeedMultiplier,0.3
;   useSkirt,1
;   skirtExtruder,0
;   skirtLayers,2
;   skirtOutlines,2
;   skirtOffset,4
;   usePrimePillar,0
;   primePillarExtruder,999
;   primePillarWidth,12
;   primePillarLocation,7
;   primePillarSpeedMultiplier,1
;   useOozeShield,0
;   oozeShieldExtruder,999
;   oozeShieldOffset,2
;   oozeShieldOutlines,1
;   oozeShieldSidewallShape,1
;   oozeShieldSidewallAngle,30
;   oozeShieldSpeedMultiplier,1
;   infillExtruder,0
;   internalInfillPattern,Triangular
;   externalInfillPattern,Rectilinear
;   infillPercentage,30
;   outlineOverlapPercentage,15
;   infillExtrusionWidthPercentage,150
;   minInfillLength,5
;   infillLayerInterval,1
;   internalInfillAngles,0,60,-60
;   overlapInternalInfillAngles,1
;   externalInfillAngles,45,-45
;   generateSupport,1
;   supportExtruder,0
;   supportInfillPercentage,40
;   supportExtraInflation,1
;   supportBaseLayers,0
;   denseSupportExtruder,0
;   denseSupportLayers,0
;   denseSupportInfillPercentage,70
;   supportLayerInterval,1
;   supportHorizontalPartOffset,1
;   supportUpperSeparationLayers,1
;   supportLowerSeparationLayers,1
;   supportType,0
;   supportGridSpacing,4
;   maxOverhangAngle,45
;   supportAngles,0
;   temperatureName,Primary Extruder
;   temperatureNumber,0
;   temperatureSetpointCount,2
;   temperatureSetpointLayers,1,5
;   temperatureSetpointTemperatures,220,210
;   temperatureStabilizeAtStartup,1
;   temperatureHeatedBed,0
;   fanLayers,1,2
;   fanSpeeds,100,100
;   blipFanToFullPower,0
;   adjustSpeedForCooling,1
;   minSpeedLayerTime,7
;   minCoolingSpeedSlowdown,20
;   increaseFanForCooling,0
;   minFanLayerTime,45
;   maxCoolingFanSpeed,100
;   increaseFanForBridging,0
;   bridgingFanSpeed,100
;   use5D,1
;   relativeEdistances,0
;   allowEaxisZeroing,1
;   independentExtruderAxes,0
;   includeM10123,0
;   stickySupport,1
;   applyToolheadOffsets,0
;   gcodeXoffset,0
;   gcodeYoffset,0
;   gcodeZoffset,0
;   overrideMachineDefinition,0
;   machineTypeOverride,0
;   strokeXoverride,305
;   strokeYoverride,205
;   strokeZoverride,205
;   originOffsetXoverride,0
;   originOffsetYoverride,0
;   originOffsetZoverride,0
;   homeXdirOverride,-1
;   homeYdirOverride,-1
;   homeZdirOverride,-1
;   flipXoverride,1
;   flipYoverride,-1
;   flipZoverride,1
;   toolheadOffsets,0,0|0,0|0,0|0,0|0,0|0,0
;   overrideFirmwareConfiguration,1
;   firmwareTypeOverride,RepRap (Marlin/Repetier/Sprinter)
;   GPXconfigOverride,r2
;   baudRateOverride,115200
;   overridePrinterModels,1
;   printerModelsOverride
;   startingGcode,G28 ; home all axes,G1 Z 2 ; set height for prime line,G92 E0 ; zero extruder,G1 X150 E30 F400 ; prime line
;   layerChangeGcode,
;   retractionGcode,
;   toolChangeGcode,
;   endingGcode,G28 X0 ; home X axis,M104 S0 ; turn off extruder,M84 ; disable motors
;   exportFileFormat,gcode
;   celebration,0
;   celebrationSong,Random Song
;   postProcessing,
;   defaultSpeed,2400
;   outlineUnderspeed,0.5
;   solidInfillUnderspeed,0.8
;   supportUnderspeed,0.8
;   rapidXYspeed,2400
;   rapidZspeed,900
;   minBridgingArea,50
;   bridgingExtraInflation,0
;   bridgingExtrusionMultiplier,1
;   bridgingSpeedMultiplier,1
;   useFixedBridgingAngle,0
;   fixedBridgingAngle,0
;   applyBridgingToPerimeters,0
;   filamentDiameters,1.75|3|3|3|3|3
;   filamentPricesPerKg,46|46|46|46|46|46
;   filamentDensities,1.25|1.25|1.25|1.25|1.25|1.25
;   useMinPrintHeight,0
;   minPrintHeight,0
;   useMaxPrintHeight,0
;   maxPrintHeight,0
;   useDiaphragm,0
;   diaphragmLayerInterval,20
;   robustSlicing,1
;   mergeAllIntoSolid,0
;   onlyRetractWhenCrossingOutline,1
;   retractBetweenLayers,0
;   useRetractionMinTravel,1
;   retractionMinTravel,3
;   retractWhileWiping,0
;   onlyWipeOutlines,1
;   avoidCrossingOutline,1
;   maxMovementDetourFactor,3
;   toolChangeRetractionDistance,12
;   toolChangeExtraRestartDistance,-0.5
;   toolChangeRetractionSpeed,600
;   externalThinWallType,0
;   internalThinWallType,2
;   thinWallAllowedOverlapPercentage,10
;   singleExtrusionMinLength,1
;   singleExtrusionMinPrintingWidthPercentage,50
;   singleExtrusionMaxPrintingWidthPercentage,200
;   singleExtrusionEndpointExtension,0
;   horizontalSizeCompensation,0
G90
M82
M106 S255
M104 S220 T0
M109 S220 T0
G28 ; home all axes
G1 Z 2 ; set height for prime line
G92 E0 ; zero extruder
G1 X150 E30 F400 ; prime line
; process Process1
; layer 1, Z = 0.375
T0
G92 E0.0000
G1 E-5.0000 F3000
; feature skirt
; tool H0.375 W0.360
G1 Z0.375 F900
G1 X80.173 Y74.780 F2400
G1 E0.0000 F3000
G92 E0.0000
G1 X80.825 Y74.128 E0.0466 F1200
G1 X80.963 Y74.001 E0.0561
G1 X81.667 Y73.405 E0.1027
G1 X81.815 Y73.289 E0.1121
G1 X82.566 Y72.753 E0.1587
G1 X82.723 Y72.650 E0.1682
G1 X83.516 Y72.178 E0.2148
G1 X83.681 Y72.089 E0.2243
G1 X84.509 Y71.684 E0.2709
G1 X84.681 Y71.608 E0.2804
G1 X85.541 Y71.273 E0.3270
G1 X85.718 Y71.212 E0.3365
G1 X86.602 Y70.949 E0.3831
G1 X86.784 Y70.903 E0.3925
G1 X87.687 Y70.714 E0.4391
G1 X87.872 Y70.683 E0.4486
G1 X88.787 Y70.569 E0.4952
G1 X88.975 Y70.553 E0.5047
G1 X89.896 Y70.515 E0.5513
G1 X90.084 Y70.515 E0.5608
G1 X91.005 Y70.553 E0.6074
G1 X91.193 Y70.569 E0.6169
G1 X92.108 Y70.683 E0.6635
G1 X92.293 Y70.714 E0.6729
G1 X93.196 Y70.903 E0.7195
G1 X93.378 Y70.949 E0.7290
G1 X94.262 Y71.212 E0.7756
G1 X94.439 Y71.273 E0.7851
G1 X95.299 Y71.608 E0.8317
G1 X95.471 Y71.684 E0.8412
G1 X96.299 Y72.089 E0.8878
G1 X96.464 Y72.178 E0.8972
G1 X97.257 Y72.650 E0.9438
G1 X97.414 Y72.753 E0.9533
G1 X98.165 Y73.289 E0.9999
G1 X98.313 Y73.405 E1.0094
G1 X99.017 Y74.001 E1.0560
G1 X99.155 Y74.128 E1.0655
G1 X99.807 Y74.780 E1.1121
G1 X99.934 Y74.918 E1.1216
G1 X100.531 Y75.622 E1.1682
G1 X100.646 Y75.770 E1.1776
G1 X101.182 Y76.521 E1.2242
G1 X101.284 Y76.678 E1.2337
G1 X101.757 Y77.470 E1.2803
G1 X101.846 Y77.636 E1.2898
G1 X102.251 Y78.464 E1.3364
G1 X102.327 Y78.636 E1.3459
G1 X102.662 Y79.495 E1.3925
G1 X102.723 Y79.673 E1.4019
G1 X102.986 Y80.557 E1.4485
G1 X103.032 Y80.739 E1.4580
G1 X103.221 Y81.642 E1.5046
G1 X103.252 Y81.827 E1.5141
G1 X103.366 Y82.742 E1.5607
G1 X103.382 Y82.929 E1.5702
G1 X103.418 Y83.804 E1.6144
G1 X103.420 Y83.898 E1.6191
G1 X103.420 Y112.705 E3.0743
G1 X201.580 Y112.705 E8.0327
G1 X201.580 Y108.898 E8.2250
G1 X201.582 Y108.804 E8.2298
G1 X201.618 Y107.929 E8.2740
G1 X201.634 Y107.742 E8.2835
G1 X201.748 Y106.827 E8.3301
G1 X201.779 Y106.642 E8.3396
G1 X201.968 Y105.739 E8.3862
G1 X202.014 Y105.557 E8.3956
G1 X202.277 Y104.673 E8.4422
G1 X202.338 Y104.496 E8.4517
G1 X202.673 Y103.636 E8.4983
G1 X202.749 Y103.464 E8.5078
G1 X203.154 Y102.635 E8.5544
G1 X203.243 Y102.470 E8.5639
G1 X203.715 Y101.678 E8.6105
G1 X203.818 Y101.521 E8.6199
G1 X204.354 Y100.770 E8.6665
G1 X204.469 Y100.622 E8.6760
G1 X205.066 Y99.918 E8.7226
G1 X205.193 Y99.780 E8.7321
G1 X205.845 Y99.128 E8.7787
G1 X205.983 Y99.001 E8.7882
G1 X206.687 Y98.404 E8.8348
G1 X206.835 Y98.289 E8.8443
G1 X207.586 Y97.753 E8.8909
G1 X207.743 Y97.651 E8.9003
G1 X208.535 Y97.178 E8.9469
G1 X208.701 Y97.089 E8.9564
G1 X209.529 Y96.684 E9.0030
G1 X209.701 Y96.608 E9.0125
G1 X210.560 Y96.273 E9.0591
G1 X210.738 Y96.212 E9.0686
G1 X211.622 Y95.949 E9.1152
G1 X211.804 Y95.903 E9.1246
G1 X212.707 Y95.714 E9.1712
G1 X212.892 Y95.683 E9.1807
G1 X213.807 Y95.569 E9.2273
G1 X213.995 Y95.553 E9.2368
G1 X214.916 Y95.515 E9.2834
G1 X215.104 Y95.515 E9.2929
G1 X216.025 Y95.553 E9.3395
G1 X216.213 Y95.569 E9.3490
G1 X217.128 Y95.683 E9.3956
G1 X217.313 Y95.714 E9.4050
G1 X218.216 Y95.903 E9.4516
G1 X218.398 Y95.949 E9.4611
G1 X219.282 Y96.212 E9.5077
G1 X219.459 Y96.273 E9.5172
G1 X220.319 Y96.608 E9.5638
G1 X220.491 Y96.684 E9.5733
G1 X221.319 Y97.089 E9.6199
G1 X221.485 Y97.178 E9.6293
G1 X222.277 Y97.651 E9.6759
G1 X222.434 Y97.753 E9.6854
G1 X223.185 Y98.289 E9.7320
G1 X223.333 Y98.404 E9.7415
G1 X224.037 Y99.001 E9.7881
G1 X224.175 Y99.128 E9.7976
G1 X224.827 Y99.780 E9.8442
G1 X224.954 Y99.918 E9.8537
G1 X225.551 Y100.622 E9.9003
G1 X225.666 Y100.770 E9.9097
G1 X226.202 Y101.521 E9.9563
G1 X226.304 Y101.678 E9.9658
G1 X226.777 Y102.471 E10.0124
G1 X226.866 Y102.636 E10.0219
G1 X227.271 Y103.464 E10.0685
G1 X227.347 Y103.636 E10.0780
G1 X227.682 Y104.496 E10.1246
G1 X227.743 Y104.673 E10.1340
G1 X228.006 Y105.557 E10.1806
G1 X228.052 Y105.739 E10.1901
G1 X228.241 Y106.642 E10.2367
G1 X228.272 Y106.827 E10.2462
G1 X228.386 Y107.742 E10.2928
G1 X228.402 Y107.929 E10.3023
G1 X228.438 Y108.804 E10.3465
G1 X228.440 Y108.898 E10.3512
G1 X228.440 Y131.826 E11.5094
G1 X225.781 Y134.485 E11.6994
G1 X79.219 Y134.485 E19.1027
G1 X76.560 Y131.826 E19.2927
G1 X76.560 Y83.898 E21.7137
G1 X76.562 Y83.804 E21.7185
G1 X76.598 Y82.929 E21.7627
G1 X76.614 Y82.742 E21.7722
G1 X76.728 Y81.827 E21.8188
G1 X76.759 Y81.642 E21.8283
G1 X76.948 Y80.739 E21.8749
G1 X76.994 Y80.557 E21.8843
G1 X77.257 Y79.673 E21.9309
G1 X77.318 Y79.495 E21.9404
G1 X77.653 Y78.636 E21.9870
G1 X77.729 Y78.464 E21.9965
G1 X78.134 Y77.636 E22.0431
G1 X78.223 Y77.471 E22.0526
G1 X78.696 Y76.678 E22.0992
G1 X78.798 Y76.521 E22.1086
G1 X79.334 Y75.770 E22.1552
G1 X79.449 Y75.622 E22.1647
G1 X80.046 Y74.918 E22.2113
G1 X80.173 Y74.780 E22.2208
G1 X80.433 Y75.029 F2400
G92 E0.0000
G1 X81.074 Y74.388 E0.0458 F1200
G1 X81.202 Y74.271 E0.0546
G1 X81.894 Y73.684 E0.1004
G1 X82.030 Y73.578 E0.1091
G1 X82.769 Y73.050 E0.1550
G1 X82.914 Y72.956 E0.1637
G1 X83.693 Y72.491 E0.2096
G1 X83.845 Y72.409 E0.2183
G1 X84.661 Y72.011 E0.2641
G1 X84.819 Y71.941 E0.2729
G1 X85.664 Y71.611 E0.3187
G1 X85.828 Y71.555 E0.3274
G1 X86.698 Y71.296 E0.3733
G1 X86.865 Y71.254 E0.3820
G1 X87.754 Y71.067 E0.4279
G1 X87.924 Y71.039 E0.4366
G1 X88.825 Y70.927 E0.4824
G1 X88.997 Y70.912 E0.4912
G1 X89.904 Y70.875 E0.5370
G1 X90.076 Y70.875 E0.5457
G1 X90.983 Y70.912 E0.5916
G1 X91.155 Y70.927 E0.6003
G1 X92.056 Y71.039 E0.6462
G1 X92.226 Y71.067 E0.6549
G1 X93.115 Y71.254 E0.7007
G1 X93.282 Y71.296 E0.7095
G1 X94.152 Y71.555 E0.7553
G1 X94.316 Y71.611 E0.7640
G1 X95.161 Y71.941 E0.8099
G1 X95.319 Y72.011 E0.8186
G1 X96.135 Y72.409 E0.8645
G1 X96.287 Y72.491 E0.8732
G1 X97.066 Y72.956 E0.9190
G1 X97.211 Y73.051 E0.9278
G1 X97.950 Y73.578 E0.9736
G1 X98.086 Y73.684 E0.9823
G1 X98.778 Y74.271 E1.0282
G1 X98.906 Y74.388 E1.0369
G1 X99.547 Y75.029 E1.0828
G1 X99.664 Y75.156 E1.0915
G1 X100.251 Y75.849 E1.1373
G1 X100.357 Y75.985 E1.1461
G1 X100.885 Y76.724 E1.1919
G1 X100.979 Y76.869 E1.2006
G1 X101.444 Y77.648 E1.2465
G1 X101.526 Y77.800 E1.2552
G1 X101.924 Y78.616 E1.3010
G1 X101.994 Y78.774 E1.3098
G1 X102.324 Y79.619 E1.3556
G1 X102.380 Y79.783 E1.3644
G1 X102.639 Y80.653 E1.4102
G1 X102.681 Y80.820 E1.4189
G1 X102.868 Y81.709 E1.4648
G1 X102.896 Y81.879 E1.4735
G1 X103.008 Y82.780 E1.5193
G1 X103.022 Y82.952 E1.5281
G1 X103.058 Y83.815 E1.5717
G1 X103.060 Y83.902 E1.5761
G1 X103.060 Y113.065 E3.0492
G1 X201.940 Y113.065 E8.0441
G1 X201.940 Y108.902 E8.2544
G1 X201.942 Y108.815 E8.2587
G1 X201.977 Y107.952 E8.3024
G1 X201.992 Y107.780 E8.3111
G1 X202.104 Y106.879 E8.3570
G1 X202.132 Y106.709 E8.3657
G1 X202.319 Y105.820 E8.4115
G1 X202.361 Y105.653 E8.4203
G1 X202.620 Y104.783 E8.4661
G1 X202.676 Y104.619 E8.4748
G1 X203.006 Y103.774 E8.5207
G1 X203.076 Y103.616 E8.5294
G1 X203.474 Y102.800 E8.5753
G1 X203.556 Y102.648 E8.5840
G1 X204.021 Y101.869 E8.6298
G1 X204.115 Y101.724 E8.6386
G1 X204.643 Y100.985 E8.6844
G1 X204.749 Y100.849 E8.6931
G1 X205.336 Y100.156 E8.7390
G1 X205.453 Y100.029 E8.7477
G1 X206.094 Y99.388 E8.7936
G1 X206.222 Y99.271 E8.8023
G1 X206.914 Y98.684 E8.8481
G1 X207.050 Y98.578 E8.8569
G1 X207.789 Y98.050 E8.9027
G1 X207.934 Y97.956 E8.9114
G1 X208.713 Y97.491 E8.9573
G1 X208.865 Y97.409 E8.9660
G1 X209.681 Y97.011 E9.0118
G1 X209.839 Y96.941 E9.0206
G1 X210.684 Y96.611 E9.0664
G1 X210.848 Y96.555 E9.0752
G1 X211.718 Y96.296 E9.1210
G1 X211.885 Y96.254 E9.1297
G1 X212.774 Y96.067 E9.1756
G1 X212.944 Y96.039 E9.1843
G1 X213.845 Y95.927 E9.2301
G1 X214.017 Y95.912 E9.2389
G1 X214.924 Y95.875 E9.2847
G1 X215.096 Y95.875 E9.2934
G1 X216.003 Y95.912 E9.3393
G1 X216.175 Y95.927 E9.3480
G1 X217.076 Y96.039 E9.3939
G1 X217.247 Y96.067 E9.4026
G1 X218.135 Y96.254 E9.4484
G1 X218.302 Y96.296 E9.4572
G1 X219.172 Y96.555 E9.5030
G1 X219.336 Y96.611 E9.5117
G1 X220.181 Y96.941 E9.5576
G1 X220.339 Y97.011 E9.5663
G1 X221.155 Y97.409 E9.6122
G1 X221.307 Y97.491 E9.6209
G1 X222.086 Y97.956 E9.6667
G1 X222.231 Y98.050 E9.6755
G1 X222.970 Y98.578 E9.7213
G1 X223.106 Y98.684 E9.7300
G1 X223.798 Y99.271 E9.7759
G1 X223.926 Y99.388 E9.7846
G1 X224.567 Y100.029 E9.8305
G1 X224.684 Y100.157 E9.8392
G1 X225.271 Y100.849 E9.8850
G1 X225.377 Y100.985 E9.8938
G1 X225.905 Y101.724 E9.9396
G1 X225.999 Y101.869 E9.9483
G1 X226.464 Y102.648 E9.9942
G1 X226.546 Y102.800 E10.0029
G1 X226.944 Y103.616 E10.0488
G1 X227.014 Y103.774 E10.0575
G1 X227.344 Y104.619 E10.1033
G1 X227.400 Y104.783 E10.1121
G1 X227.659 Y105.653 E10.1579
G1 X227.701 Y105.820 E10.1666
G1 X227.888 Y106.709 E10.2125
G1 X227.916 Y106.879 E10.2212
G1 X228.028 Y107.780 E10.2671
G1 X228.042 Y107.952 E10.2758
G1 X228.078 Y108.815 E10.3194
G1 X228.080 Y108.902 E10.3238
G1 X228.080 Y131.676 E11.4742
G1 X225.631 Y134.125 E11.6492
G1 X79.369 Y134.125 E19.0375
G1 X76.920 Y131.676 E19.2124
G1 X76.920 Y83.902 E21.6257
G1 X76.922 Y83.815 E21.6300
G1 X76.958 Y82.952 E21.6737
G1 X76.972 Y82.780 E21.6824
G1 X77.084 Y81.879 E21.7283
G1 X77.112 Y81.709 E21.7370
G1 X77.299 Y80.820 E21.7828
G1 X77.341 Y80.653 E21.7916
G1 X77.600 Y79.783 E21.8374
G1 X77.656 Y79.619 E21.8461
G1 X77.986 Y78.774 E21.8920
G1 X78.056 Y78.616 E21.9007
G1 X78.454 Y77.800 E21.9466
G1 X78.536 Y77.648 E21.9553
G1 X79.001 Y76.869 E22.0011
G1 X79.095 Y76.724 E22.0099
G1 X79.623 Y75.985 E22.0557
G1 X79.729 Y75.849 E22.0644
G1 X80.316 Y75.156 E22.1103
G1 X80.433 Y75.029 E22.1190
G92 E0.0000
G1 E-5.0000 F3000
; feature inner perimeter
G1 X83.582 Y78.046 F2400
G1 X83.591 Y78.037
G1 X84.112 Y78.534
G1 E0.0000 F3000
G92 E0.0000
G1 X84.579 Y78.067 E0.0334 F900
G1 X85.083 Y77.640 E0.0667
G1 X85.620 Y77.257 E0.1001
G1 X86.188 Y76.919 E0.1334
G1 X86.781 Y76.629 E0.1668
G1 X87.396 Y76.389 E0.2001
G1 X88.029 Y76.200 E0.2335
G1 X88.675 Y76.065 E0.2668
G1 X89.330 Y75.983 E0.3002
G1 X89.990 Y75.956 E0.3336
G1 X90.650 Y75.983 E0.3669
G1 X91.305 Y76.065 E0.4003
G1 X91.951 Y76.200 E0.4336
G1 X92.584 Y76.389 E0.4670
G1 X93.199 Y76.629 E0.5003
G1 X93.792 Y76.919 E0.5337
G1 X94.360 Y77.257 E0.5670
G1 X94.897 Y77.640 E0.6004
G1 X95.401 Y78.067 E0.6338
G1 X95.868 Y78.534 E0.6671
G1 X96.295 Y79.038 E0.7005
G1 X96.678 Y79.575 E0.7338
G1 X97.016 Y80.143 E0.7672
G1 X97.306 Y80.736 E0.8005
G1 X97.546 Y81.351 E0.8339
G1 X97.735 Y81.984 E0.8672
G1 X97.870 Y82.630 E0.9006
G1 X97.952 Y83.285 E0.9339
G1 X97.980 Y83.964 E0.9682
G1 X97.980 Y114.277 E2.4995
G1 X98.017 Y114.800 E2.5260
G1 X98.136 Y115.344 E2.5541
G1 X98.330 Y115.866 E2.5822
