; G-Code generated by Simplify3D(R) Version 4.1.2
; Jun 28, 2021 at 9:17:42 PM
; Settings Summary
;   processName,Process1
;   applyToModels,JRCNC0014 v24
;   profileName,JR NORMAL
;   profileVersion,2021-06-28 21:15:49
;   baseProfile,Wanhao Duplicator 5S Mini
;   printMaterial,PLA
;   printQuality,0.25
;   printExtruders,
;   extruderName,Primary Extruder
;   extruderToolheadNumber,0
;   extruderDiameter,0.3
;   extruderAutoWidth,1
;   extruderWidth,0.36
;   extrusionMultiplier,0.9
;   extruderUseRetract,1
;   extruderRetractionDistance,5
;   extruderExtraRestartDistance,0
;   extruderRetractionZLift,0
;   extruderRetractionSpeed,3000
;   extruderUseCoasting,0
;   extruderCoastingDistance,1.5
;   extruderUseWipe,0
;   extruderWipeDistance,5
;   primaryExtruder,0
;   layerHeight,0.25
;   topSolidLayers,3
;   bottomSolidLayers,3
;   perimeterOutlines,3
;   printPerimetersInsideOut,1
;   startPointOption,3
;   startPointOriginX,0
;   startPointOriginY,0
;   sequentialIslands,0
;   spiralVaseMode,0
;   firstLayerHeightPercentage,150
;   firstLayerWidthPercentage,100
;   firstLayerUnderspeed,0.5
;   useRaft,0
;   raftExtruder,0
;   raftTopLayers,3
;   raftBaseLayers,2
;   raftOffset,3
;   raftSeparationDistance,0.14
;   raftTopInfill,100
;   aboveRaftSpeedMultiplier,0.3
;   useSkirt,1
;   skirtExtruder,0
;   skirtLayers,2
;   skirtOutlines,2
;   skirtOffset,4
;   usePrimePillar,0
;   primePillarExtruder,999
;   primePillarWidth,12
;   primePillarLocation,7
;   primePillarSpeedMultiplier,1
;   useOozeShield,0
;   oozeShieldExtruder,999
;   oozeShieldOffset,2
;   oozeShieldOutlines,1
;   oozeShieldSidewallShape,1
;   oozeShieldSidewallAngle,30
;   oozeShieldSpeedMultiplier,1
;   infillExtruder,0
;   internalInfillPattern,Triangular
;   externalInfillPattern,Rectilinear
;   infillPercentage,30
;   outlineOverlapPercentage,15
;   infillExtrusionWidthPercentage,150
;   minInfillLength,5
;   infillLayerInterval,1
;   internalInfillAngles,0,60,-60
;   overlapInternalInfillAngles,1
;   externalInfillAngles,45,-45
;   generateSupport,1
;   supportExtruder,0
;   supportInfillPercentage,40
;   supportExtraInflation,1
;   supportBaseLayers,0
;   denseSupportExtruder,0
;   denseSupportLayers,0
;   denseSupportInfillPercentage,70
;   supportLayerInterval,1
;   supportHorizontalPartOffset,1
;   supportUpperSeparationLayers,1
;   supportLowerSeparationLayers,1
;   supportType,0
;   supportGridSpacing,4
;   maxOverhangAngle,45
;   supportAngles,0
;   temperatureName,Primary Extruder
;   temperatureNumber,0
;   temperatureSetpointCount,2
;   temperatureSetpointLayers,1,5
;   temperatureSetpointTemperatures,220,210
;   temperatureStabilizeAtStartup,1
;   temperatureHeatedBed,0
;   fanLayers,1,2
;   fanSpeeds,100,100
;   blipFanToFullPower,0
;   adjustSpeedForCooling,1
;   minSpeedLayerTime,7
;   minCoolingSpeedSlowdown,20
;   increaseFanForCooling,0
;   minFanLayerTime,45
;   maxCoolingFanSpeed,100
;   increaseFanForBridging,0
;   bridgingFanSpeed,100
;   use5D,1
;   relativeEdistances,0
;   allowEaxisZeroing,1
;   independentExtruderAxes,0
;   includeM10123,0
;   stickySupport,1
;   applyToolheadOffsets,0
;   gcodeXoffset,0
;   gcodeYoffset,0
;   gcodeZoffset,0
;   overrideMachineDefinition,0
;   machineTypeOverride,0
;   strokeXoverride,305
;   strokeYoverride,205
;   strokeZoverride,205
;   originOffsetXoverride,0
;   originOffsetYoverride,0
;   originOffsetZoverride,0
;   homeXdirOverride,-1
;   homeYdirOverride,-1
;   homeZdirOverride,-1
;   flipXoverride,1
;   flipYoverride,-1
;   flipZoverride,1
;   toolheadOffsets,0,0|0,0|0,0|0,0|0,0|0,0
;   overrideFirmwareConfiguration,1
;   firmwareTypeOverride,RepRap (Marlin/Repetier/Sprinter)
;   GPXconfigOverride,r2
;   baudRateOverride,115200
;   overridePrinterModels,1
;   printerModelsOverride
;   startingGcode,G28 ; home all axes,G1 Z 2 ; set height for prime line,G92 E0 ; zero extruder,G1 X150 E30 F400 ; prime line
;   layerChangeGcode,
;   retractionGcode,
;   toolChangeGcode,
;   endingGcode,G28 X0 ; home X axis,M104 S0 ; turn off extruder,M84 ; disable motors
;   exportFileFormat,gcode
;   celebration,0
;   celebrationSong,Random Song
;   postProcessing,
;   defaultSpeed,2400
;   outlineUnderspeed,0.5
;   solidInfillUnderspeed,0.8
;   supportUnderspeed,0.8
;   rapidXYspeed,2400
;   rapidZspeed,900
;   minBridgingArea,50
;   bridgingExtraInflation,0
;   bridgingExtrusionMultiplier,1
;   bridgingSpeedMultiplier,1
;   useFixedBridgingAngle,0
;   fixedBridgingAngle,0
;   applyBridgingToPerimeters,0
;   filamentDiameters,1.75|3|3|3|3|3
;   filamentPricesPerKg,46|46|46|46|46|46
;   filamentDensities,1.25|1.25|1.25|1.25|1.25|1.25
;   useMinPrintHeight,0
;   minPrintHeight,0
;   useMaxPrintHeight,0
;   maxPrintHeight,0
;   useDiaphragm,0
;   diaphragmLayerInterval,20
;   robustSlicing,1
;   mergeAllIntoSolid,0
;   onlyRetractWhenCrossingOutline,1
;   retractBetweenLayers,0
;   useRetractionMinTravel,1
;   retractionMinTravel,3
;   retractWhileWiping,0
;   onlyWipeOutlines,1
;   avoidCrossingOutline,1
;   maxMovementDetourFactor,3
;   toolChangeRetractionDistance,12
;   toolChangeExtraRestartDistance,-0.5
;   toolChangeRetractionSpeed,600
;   externalThinWallType,0
;   internalThinWallType,2
;   thinWallAllowedOverlapPercentage,10
;   singleExtrusionMinLength,1
;   singleExtrusionMinPrintingWidthPercentage,50
;   singleExtrusionMaxPrintingWidthPercentage,200
;   singleExtrusionEndpointExtension,0
;   horizontalSizeCompensation,0
G90
M82
M106 S255
M104 S220 T0
M109 S220 T0
G28 ; home all axes
G1 Z 2 ; set height for prime line
G92 E0 ; zero extruder
G1 X150 E30 F400 ; prime line
; process Process1
; layer 1, Z = 0.375
T0
G92 E0.0000
G1 E-5.0000 F3000
; feature skirt
; tool H0.375 W0.360
G1 Z0.375 F900
G1 X81.837 Y65.003 F2400
G1 E0.0000 F3000
G92 E0.0000
G1 X81.939 Y64.882 E0.0080 F1200
G1 X82.544 Y64.219 E0.0533
G1 X82.655 Y64.106 E0.0613
G1 X83.304 Y63.486 E0.1067
G1 X83.422 Y63.381 E0.1147
G1 X84.113 Y62.808 E0.1600
G1 X84.238 Y62.711 E0.1680
G1 X84.968 Y62.187 E0.2134
G1 X85.099 Y62.100 E0.2213
G1 X85.863 Y61.628 E0.2667
G1 X86.001 Y61.550 E0.2747
G1 X86.796 Y61.132 E0.3200
G1 X86.938 Y61.064 E0.3280
G1 X87.760 Y60.703 E0.3734
G1 X87.907 Y60.644 E0.3814
G1 X88.752 Y60.341 E0.4267
G1 X88.903 Y60.293 E0.4347
G1 X89.767 Y60.050 E0.4800
G1 X89.920 Y60.012 E0.4880
G1 X90.799 Y59.829 E0.5334
G1 X90.955 Y59.803 E0.5414
G1 X91.845 Y59.681 E0.5867
G1 X92.002 Y59.666 E0.5947
G1 X92.898 Y59.607 E0.6401
G1 X93.056 Y59.602 E0.6480
G1 X93.954 Y59.605 E0.6934
G1 X94.112 Y59.611 E0.7014
G1 X95.007 Y59.677 E0.7467
G1 X95.164 Y59.695 E0.7547
G1 X96.053 Y59.823 E0.8001
G1 X96.209 Y59.851 E0.8081
G1 X97.086 Y60.040 E0.8534
G1 X97.240 Y60.079 E0.8614
G1 X98.102 Y60.329 E0.9068
G1 X98.252 Y60.379 E0.9147
G1 X99.095 Y60.688 E0.9601
G1 X99.241 Y60.748 E0.9681
G1 X100.060 Y61.116 E1.0134
G1 X100.202 Y61.185 E1.0214
G1 X100.994 Y61.609 E1.0668
G1 X101.130 Y61.689 E1.0748
G1 X101.891 Y62.166 E1.1201
G1 X102.021 Y62.255 E1.1281
G1 X102.747 Y62.784 E1.1734
G1 X102.871 Y62.882 E1.1814
G1 X103.557 Y63.461 E1.2268
G1 X103.675 Y63.567 E1.2348
G1 X104.319 Y64.192 E1.2801
G1 X104.429 Y64.306 E1.2881
G1 X105.028 Y64.974 E1.3335
G1 X105.130 Y65.095 E1.3415
G1 X105.681 Y65.804 E1.3868
G1 X105.774 Y65.932 E1.3948
G1 X106.275 Y66.677 E1.4401
G1 X106.359 Y66.811 E1.4481
G1 X106.806 Y67.589 E1.4935
G1 X106.881 Y67.729 E1.5015
G1 X107.273 Y68.536 E1.5468
G1 X107.337 Y68.681 E1.5548
G1 X107.673 Y69.514 E1.6002
G1 X107.727 Y69.662 E1.6081
G1 X108.004 Y70.516 E1.6535
G1 X108.047 Y70.668 E1.6615
G1 X108.264 Y71.539 E1.7068
G1 X108.297 Y71.694 E1.7148
G1 X108.452 Y72.578 E1.7602
G1 X108.474 Y72.735 E1.7682
G1 X108.568 Y73.628 E1.8135
G1 X108.579 Y73.786 E1.8215
G1 X108.608 Y74.643 E1.8649
G1 X108.610 Y74.722 E1.8688
G1 X108.610 Y106.705 E3.4844
G1 X105.950 Y109.364 E3.6744
G1 X91.690 Y109.364 E4.3948
G1 X89.030 Y106.705 E4.5847
G1 X89.027 Y90.909 E5.3827
G1 X89.010 Y90.861 E5.3852
G1 X88.863 Y90.539 E5.4031
G1 X88.693 Y90.228 E5.4210
G1 X88.502 Y89.930 E5.4389
G1 X88.290 Y89.646 E5.4568
G1 X88.059 Y89.379 E5.4747
G1 X87.808 Y89.128 E5.4925
G1 X87.541 Y88.896 E5.5104
G1 X87.258 Y88.684 E5.5283
G1 X86.961 Y88.493 E5.5461
G1 X85.790 Y87.854 E5.6135
G1 X85.655 Y87.774 E5.6214
G1 X84.899 Y87.290 E5.6668
G1 X84.769 Y87.200 E5.6748
G1 X84.048 Y86.665 E5.7201
G1 X83.925 Y86.567 E5.7281
G1 X83.243 Y85.983 E5.7734
G1 X83.126 Y85.876 E5.7814
G1 X82.487 Y85.246 E5.8268
G1 X82.378 Y85.131 E5.8348
G1 X81.784 Y84.458 E5.8801
G1 X81.683 Y84.336 E5.8881
G1 X81.138 Y83.623 E5.9335
G1 X81.046 Y83.494 E5.9414
G1 X80.551 Y82.745 E5.9868
G1 X80.468 Y82.610 E5.9948
G1 X80.027 Y81.829 E6.0401
G1 X79.954 Y81.688 E6.0481
G1 X79.567 Y80.878 E6.0935
G1 X79.504 Y80.733 E6.1015
G1 X79.176 Y79.897 E6.1468
G1 X79.123 Y79.748 E6.1548
G1 X78.853 Y78.892 E6.2002
G1 X78.811 Y78.740 E6.2081
G1 X78.601 Y77.867 E6.2535
G1 X78.569 Y77.712 E6.2615
G1 X78.421 Y76.826 E6.3068
G1 X78.400 Y76.670 E6.3148
G1 X78.314 Y75.776 E6.3602
G1 X78.304 Y75.618 E6.3682
G1 X78.280 Y74.721 E6.4135
G1 X78.281 Y74.562 E6.4215
G1 X78.319 Y73.665 E6.4668
G1 X78.332 Y73.508 E6.4748
G1 X78.432 Y72.616 E6.5202
G1 X78.455 Y72.459 E6.5282
G1 X78.618 Y71.576 E6.5735
G1 X78.652 Y71.422 E6.5815
G1 X78.876 Y70.552 E6.6269
G1 X78.920 Y70.401 E6.6348
G1 X79.204 Y69.549 E6.6802
G1 X79.259 Y69.401 E6.6882
G1 X79.601 Y68.571 E6.7335
G1 X79.666 Y68.427 E6.7415
G1 X80.065 Y67.622 E6.7869
G1 X80.141 Y67.483 E6.7949
G1 X80.595 Y66.709 E6.8402
G1 X80.679 Y66.575 E6.8482
G1 X81.186 Y65.834 E6.8936
G1 X81.280 Y65.707 E6.9015
G1 X81.837 Y65.003 E6.9469
G1 X82.115 Y65.231 F2400
G92 E0.0000
G1 X82.210 Y65.120 E0.0074 F1200
G1 X82.806 Y64.466 E0.0521
G1 X82.908 Y64.362 E0.0594
G1 X83.548 Y63.751 E0.1041
G1 X83.657 Y63.654 E0.1115
G1 X84.338 Y63.089 E0.1562
G1 X84.454 Y63.000 E0.1636
G1 X85.173 Y62.483 E0.2083
G1 X85.294 Y62.403 E0.2156
G1 X86.047 Y61.937 E0.2604
G1 X86.174 Y61.865 E0.2677
G1 X86.957 Y61.454 E0.3124
G1 X87.089 Y61.391 E0.3198
G1 X87.899 Y61.035 E0.3645
G1 X88.034 Y60.981 E0.3719
G1 X88.868 Y60.682 E0.4166
G1 X89.006 Y60.638 E0.4239
G1 X89.858 Y60.398 E0.4686
G1 X90.000 Y60.363 E0.4760
G1 X90.867 Y60.183 E0.5207
G1 X91.010 Y60.158 E0.5281
G1 X91.887 Y60.039 E0.5728
G1 X92.032 Y60.024 E0.5801
G1 X92.915 Y59.966 E0.6249
G1 X93.061 Y59.962 E0.6322
G1 X93.946 Y59.965 E0.6769
G1 X94.092 Y59.971 E0.6843
G1 X94.975 Y60.036 E0.7290
G1 X95.119 Y60.052 E0.7364
G1 X95.996 Y60.178 E0.7811
G1 X96.139 Y60.204 E0.7884
G1 X97.004 Y60.391 E0.8332
G1 X97.145 Y60.427 E0.8405
G1 X97.995 Y60.673 E0.8852
G1 X98.134 Y60.719 E0.8926
G1 X98.965 Y61.024 E0.9373
G1 X99.099 Y61.079 E0.9447
G1 X99.907 Y61.442 E0.9894
G1 X100.038 Y61.506 E0.9967
G1 X100.818 Y61.924 E1.0414
G1 X100.944 Y61.997 E1.0488
G1 X101.694 Y62.468 E1.0935
G1 X101.814 Y62.549 E1.1009
G1 X102.529 Y63.071 E1.1456
G1 X102.644 Y63.161 E1.1529
G1 X103.321 Y63.732 E1.1977
G1 X103.429 Y63.830 E1.2050
G1 X104.064 Y64.446 E1.2497
G1 X104.165 Y64.551 E1.2571
G1 X104.756 Y65.210 E1.3018
G1 X104.850 Y65.321 E1.3092
G1 X105.393 Y66.020 E1.3539
G1 X105.479 Y66.138 E1.3612
G1 X105.973 Y66.872 E1.4059
G1 X106.050 Y66.996 E1.4133
G1 X106.491 Y67.763 E1.4580
G1 X106.560 Y67.892 E1.4654
G1 X106.947 Y68.688 E1.5101
G1 X107.006 Y68.821 E1.5174
G1 X107.337 Y69.642 E1.5622
G1 X107.386 Y69.779 E1.5695
G1 X107.659 Y70.621 E1.6142
G1 X107.699 Y70.761 E1.6216
G1 X107.913 Y71.620 E1.6663
G1 X107.943 Y71.763 E1.6737
G1 X108.096 Y72.635 E1.7184
G1 X108.117 Y72.779 E1.7257
G1 X108.209 Y73.659 E1.7705
G1 X108.219 Y73.804 E1.7778
G1 X108.249 Y74.653 E1.8207
G1 X108.250 Y74.726 E1.8244
G1 X108.250 Y106.556 E3.4322
G1 X105.801 Y109.004 E3.6071
G1 X91.839 Y109.004 E4.3124
G1 X89.390 Y106.556 E4.4873
G1 X89.387 Y90.844 E5.2810
G1 X89.343 Y90.723 E5.2875
G1 X89.185 Y90.378 E5.3067
G1 X89.003 Y90.044 E5.3259
G1 X88.798 Y89.725 E5.3451
G1 X88.571 Y89.421 E5.3643
G1 X88.322 Y89.133 E5.3834
G1 X88.054 Y88.865 E5.4026
G1 X87.767 Y88.616 E5.4218
G1 X87.463 Y88.388 E5.4410
G1 X87.145 Y88.183 E5.4601
G1 X85.968 Y87.541 E5.5278
G1 X85.844 Y87.467 E5.5351
G1 X85.098 Y86.990 E5.5798
G1 X84.979 Y86.908 E5.5872
G1 X84.268 Y86.380 E5.6319
G1 X84.154 Y86.289 E5.6393
G1 X83.482 Y85.713 E5.6840
G1 X83.375 Y85.615 E5.6913
G1 X82.744 Y84.993 E5.7361
G1 X82.644 Y84.888 E5.7434
G1 X82.058 Y84.224 E5.7881
G1 X81.965 Y84.112 E5.7955
G1 X81.427 Y83.409 E5.8402
G1 X81.343 Y83.290 E5.8476
G1 X80.855 Y82.552 E5.8923
G1 X80.779 Y82.428 E5.8996
G1 X80.343 Y81.657 E5.9443
G1 X80.276 Y81.528 E5.9517
G1 X79.895 Y80.728 E5.9964
G1 X79.837 Y80.595 E6.0038
G1 X79.513 Y79.771 E6.0485
G1 X79.464 Y79.634 E6.0558
G1 X79.198 Y78.790 E6.1006
G1 X79.159 Y78.649 E6.1079
G1 X78.952 Y77.789 E6.1526
G1 X78.923 Y77.646 E6.1600
G1 X78.777 Y76.773 E6.2047
G1 X78.758 Y76.629 E6.2121
G1 X78.672 Y75.747 E6.2568
G1 X78.664 Y75.602 E6.2641
G1 X78.640 Y74.717 E6.3088
G1 X78.641 Y74.572 E6.3162
G1 X78.679 Y73.687 E6.3609
G1 X78.690 Y73.542 E6.3683
G1 X78.789 Y72.662 E6.4130
G1 X78.811 Y72.518 E6.4203
G1 X78.971 Y71.648 E6.4651
G1 X79.002 Y71.506 E6.4724
G1 X79.223 Y70.648 E6.5171
G1 X79.264 Y70.508 E6.5245
G1 X79.543 Y69.668 E6.5692
G1 X79.594 Y69.532 E6.5766
G1 X79.932 Y68.714 E6.6213
G1 X79.992 Y68.581 E6.6286
G1 X80.385 Y67.788 E6.6734
G1 X80.454 Y67.660 E6.6807
G1 X80.902 Y66.896 E6.7254
G1 X80.980 Y66.773 E6.7328
G1 X81.480 Y66.042 E6.7775
G1 X81.566 Y65.925 E6.7849
G1 X82.115 Y65.231 E6.8296
G92 E0.0000
G1 E-5.0000 F3000
G1 X85.485 Y67.999 F2400
G1 X85.034 Y68.569
G1 X84.623 Y69.169
G1 X84.256 Y69.797
G1 X83.932 Y70.448
G1 X83.655 Y71.120
G1 X83.426 Y71.810
G1 X83.245 Y72.515
G1 X83.151 Y73.021
G1 X83.964 Y79.132
G1 X84.178 Y79.581
G1 X84.536 Y80.214
G1 X84.937 Y80.820
G1 X85.379 Y81.398
G1 X85.860 Y81.943
G1 X86.378 Y82.453
G1 X86.930 Y82.926
G1 X87.514 Y83.360
G1 X88.127 Y83.752
G1 X89.372 Y84.432
G1 X89.953 Y84.806
G1 X90.507 Y85.220
G1 X91.029 Y85.673
G1 X91.517 Y86.163
G1 X91.970 Y86.685
G1 X92.384 Y87.239
G1 X92.757 Y87.821
G1 X93.088 Y88.428
G1 X93.375 Y89.057
G1 X93.570 Y89.582
G1 X93.749 Y89.582
G1 X93.750 Y104.605
G1 X88.899 Y116.240
G1 E0.0000 F3000
G92 E0.0000
G1 X119.101 Y116.240 E1.5256 F1200
G1 X121.760 Y118.899 E1.7156
G1 X121.760 Y137.101 E2.6350
G1 X119.101 Y139.760 E2.8249
G1 X88.899 Y139.760 E4.3505
G1 X86.240 Y137.101 E4.5405
G1 X86.240 Y118.899 E5.4599
G1 X88.899 Y116.240 E5.6499
G1 X89.049 Y116.600 F2400
G92 E0.0000
G1 X118.951 Y116.600 E1.5105 F1200
G1 X121.400 Y119.049 E1.6854
G1 X121.400 Y136.951 E2.5898
G1 X118.951 Y139.400 E2.7647
G1 X89.049 Y139.400 E4.2752
G1 X86.600 Y136.951 E4.4501
G1 X86.600 Y119.049 E5.3545
G1 X89.049 Y116.600 E5.5294
G92 E0.0000
G1 E-5.0000 F3000
; feature inner perimeter
G1 X93.750 Y104.605 F2400
G1 X93.749 Y89.582
G1 X93.570 Y89.582
G1 X93.375 Y89.057
G1 X93.088 Y88.428
G1 X92.757 Y87.821
G1 X92.384 Y87.239
G1 X91.970 Y86.685
G1 X91.517 Y86.163
G1 X91.029 Y85.673
G1 X90.507 Y85.220
G1 X89.953 Y84.806
G1 X89.372 Y84.432
G1 X88.127 Y83.752
G1 X87.514 Y83.360
G1 X86.940 Y82.934
G1 X86.671 Y78.628
G1 X86.580 Y78.477
G1 X86.297 Y77.897
G1 X86.063 Y77.296
G1 X85.879 Y76.678
G1 X85.746 Y76.047
G1 X85.668 Y75.416
G1 X85.640 Y74.762
G1 X85.666 Y74.117
G1 X85.746 Y73.477
G1 X85.879 Y72.846
G1 X86.063 Y72.228
G1 X86.241 Y71.770
G1 X86.034 Y68.465
G1 E0.0000 F3000
G92 E0.0000
G1 X86.490 Y67.965 E0.0342 F900
G1 X86.980 Y67.498 E0.0684
G1 X87.501 Y67.065 E0.1026
G1 X88.051 Y66.670 E0.1368
G1 X88.627 Y66.315 E0.1710
G1 X89.227 Y66.000 E0.2052
G1 X89.847 Y65.728 E0.2394
G1 X90.484 Y65.499 E0.2736
G1 X91.136 Y65.316 E0.3078
G1 X91.799 Y65.178 E0.3420
G1 X92.469 Y65.087 E0.3762
G1 X93.145 Y65.042 E0.4104
G1 X93.822 Y65.045 E0.4446
G1 X94.497 Y65.095 E0.4788
G1 X95.167 Y65.191 E0.5130
G1 X95.829 Y65.334 E0.5472
G1 X96.479 Y65.523 E0.5814
G1 X97.115 Y65.757 E0.6156
G1 X97.732 Y66.034 E0.6498
G1 X98.329 Y66.353 E0.6840
G1 X98.903 Y66.714 E0.7182
G1 X99.449 Y67.113 E0.7524
G1 X99.967 Y67.549 E0.7866
G1 X100.453 Y68.020 E0.8208
G1 X100.905 Y68.524 E0.8550
G1 X101.321 Y69.058 E0.8892
G1 X101.699 Y69.620 E0.9234
G1 X102.037 Y70.207 E0.9576
G1 X102.333 Y70.816 E0.9918
G1 X102.586 Y71.444 E1.0260
