; G-Code generated by Simplify3D(R) Version 
; Jun 26, 2021 at 10:24:38 PM
; Settings Summary
;   processName,Process1
;   applyToModels,JRCNC0015 v6
;   profileName,NORMAL
;   profileVersion,2021-04-03 23:45:23
;   baseProfile,Wanhao Duplicator 5S Mini
;   printMaterial,PLA
;   printQuality,0.25
;   printExtruders,
;   extruderName,Primary Extruder
;   extruderToolheadNumber,0
;   extruderDiameter,0.3
;   extruderAutoWidth,1
;   extruderWidth,0.36
;   extrusionMultiplier,0.9
;   extruderUseRetract,1
;   extruderRetractionDistance,5
;   extruderExtraRestartDistance,0
;   extruderRetractionZLift,0
;   extruderRetractionSpeed,3000
;   extruderUseCoasting,0
;   extruderCoastingDistance,1.5
;   extruderUseWipe,0
;   extruderWipeDistance,5
;   primaryExtruder,0
;   layerHeight,0.25
;   topSolidLayers,3
;   bottomSolidLayers,3
;   perimeterOutlines,3
;   printPerimetersInsideOut,1
;   startPointOption,3
;   startPointOriginX,0
;   startPointOriginY,0
;   sequentialIslands,0
;   spiralVaseMode,0
;   firstLayerHeightPercentage,150
;   firstLayerWidthPercentage,100
;   firstLayerUnderspeed,0.5
;   useRaft,0
;   raftExtruder,0
;   raftTopLayers,3
;   raftBaseLayers,2
;   raftOffset,3
;   raftSeparationDistance,0.14
;   raftTopInfill,100
;   aboveRaftSpeedMultiplier,0.3
;   useSkirt,1
;   skirtExtruder,0
;   skirtLayers,2
;   skirtOutlines,2
;   skirtOffset,4
;   usePrimePillar,0
;   primePillarExtruder,999
;   primePillarWidth,12
;   primePillarLocation,7
;   primePillarSpeedMultiplier,1
;   useOozeShield,0
;   oozeShieldExtruder,999
;   oozeShieldOffset,2
;   oozeShieldOutlines,1
;   oozeShieldSidewallShape,1
;   oozeShieldSidewallAngle,30
;   oozeShieldSpeedMultiplier,1
;   infillExtruder,0
;   internalInfillPattern,Triangular
;   externalInfillPattern,Rectilinear
;   infillPercentage,30
;   outlineOverlapPercentage,15
;   infillExtrusionWidthPercentage,150
;   minInfillLength,5
;   infillLayerInterval,1
;   internalInfillAngles,0,60,-60
;   overlapInternalInfillAngles,1
;   externalInfillAngles,45,-45
;   generateSupport,1
;   supportExtruder,0
;   supportInfillPercentage,40
;   supportExtraInflation,1
;   supportBaseLayers,0
;   denseSupportExtruder,0
;   denseSupportLayers,0
;   denseSupportInfillPercentage,70
;   supportLayerInterval,1
;   supportHorizontalPartOffset,1
;   supportUpperSeparationLayers,1
;   supportLowerSeparationLayers,1
;   supportType,0
;   supportGridSpacing,4
;   maxOverhangAngle,45
;   supportAngles,0
;   temperatureName,Primary Extruder
;   temperatureNumber,0
;   temperatureSetpointCount,2
;   temperatureSetpointLayers,1,5
;   temperatureSetpointTemperatures,210,210
;   temperatureStabilizeAtStartup,1
;   temperatureHeatedBed,0
;   fanLayers,1,2
;   fanSpeeds,100,100
;   blipFanToFullPower,0
;   adjustSpeedForCooling,1
;   minSpeedLayerTime,7
;   minCoolingSpeedSlowdown,20
;   increaseFanForCooling,0
;   minFanLayerTime,45
;   maxCoolingFanSpeed,100
;   increaseFanForBridging,0
;   bridgingFanSpeed,100
;   use5D,1
;   relativeEdistances,0
;   allowEaxisZeroing,1
;   independentExtruderAxes,0
;   includeM10123,0
;   stickySupport,1
;   applyToolheadOffsets,0
;   gcodeXoffset,0
;   gcodeYoffset,0
;   gcodeZoffset,0
;   overrideMachineDefinition,0
;   machineTypeOverride,0
;   strokeXoverride,305
;   strokeYoverride,205
;   strokeZoverride,205
;   originOffsetXoverride,0
;   originOffsetYoverride,0
;   originOffsetZoverride,0
;   homeXdirOverride,-1
;   homeYdirOverride,-1
;   homeZdirOverride,-1
;   flipXoverride,1
;   flipYoverride,-1
;   flipZoverride,1
;   toolheadOffsets,0,0|0,0|0,0|0,0|0,0|0,0
;   overrideFirmwareConfiguration,1
;   firmwareTypeOverride,RepRap (Marlin/Repetier/Sprinter)
;   GPXconfigOverride,r2
;   baudRateOverride,115200
;   overridePrinterModels,1
;   printerModelsOverride
;   startingGcode,G28 ; home all axes,G1 Z 2 ; set height for prime line,G92 E0 ; zero extruder,G1 X150 E30 F400 ; prime line
;   layerChangeGcode,
;   retractionGcode,
;   toolChangeGcode,
;   endingGcode,G28 X0 ; home X axis,M104 S0 ; turn off extruder,M84 ; disable motors
;   exportFileFormat,gcode
;   celebration,0
;   celebrationSong,Random Song
;   postProcessing,
;   defaultSpeed,2400
;   outlineUnderspeed,0.5
;   solidInfillUnderspeed,0.8
;   supportUnderspeed,0.8
;   rapidXYspeed,2400
;   rapidZspeed,900
;   minBridgingArea,50
;   bridgingExtraInflation,0
;   bridgingExtrusionMultiplier,1
;   bridgingSpeedMultiplier,1
;   useFixedBridgingAngle,0
;   fixedBridgingAngle,0
;   applyBridgingToPerimeters,0
;   filamentDiameters,1.75|3|3|3|3|3
;   filamentPricesPerKg,46|46|46|46|46|46
;   filamentDensities,1.25|1.25|1.25|1.25|1.25|1.25
;   useMinPrintHeight,0
;   minPrintHeight,0
;   useMaxPrintHeight,0
;   maxPrintHeight,0
;   useDiaphragm,0
;   diaphragmLayerInterval,20
;   robustSlicing,1
;   mergeAllIntoSolid,0
;   onlyRetractWhenCrossingOutline,1
;   retractBetweenLayers,0
;   useRetractionMinTravel,1
;   retractionMinTravel,3
;   retractWhileWiping,0
;   onlyWipeOutlines,1
;   avoidCrossingOutline,1
;   maxMovementDetourFactor,3
;   toolChangeRetractionDistance,12
;   toolChangeExtraRestartDistance,-0.5
;   toolChangeRetractionSpeed,600
;   externalThinWallType,0
;   internalThinWallType,2
;   thinWallAllowedOverlapPercentage,10
;   singleExtrusionMinLength,1
;   singleExtrusionMinPrintingWidthPercentage,50
;   singleExtrusionMaxPrintingWidthPercentage,200
;   singleExtrusionEndpointExtension,0
;   horizontalSizeCompensation,0
G90
M82
M106 S255
M104 S210 T0
M109 S210 T0
G28 ; home all axes
G1 Z 2 ; set height for prime line
G92 E0 ; zero extruder
G1 X150 E30 F400 ; prime line
; process Process1
; layer 1, Z = 0.375
T0
G92 E0.0000
G1 E-5.0000 F3000
; feature skirt
; tool H0.375 W0.360
G1 Z0.375 F900
G1 X116.132 Y55.430 F2400
G1 E0.0000 F3000
G92 E0.0000
G1 X117.429 Y52.953 E0.1412 F1200
G1 X117.509 Y52.811 E0.1495
G1 X118.946 Y50.489 E0.2874
G1 X119.037 Y50.351 E0.2958
G1 X120.658 Y48.112 E0.4354
G1 X120.760 Y47.982 E0.4437
G1 X122.538 Y45.867 E0.5833
G1 X122.649 Y45.744 E0.5917
G1 X124.577 Y43.763 E0.7313
G1 X124.696 Y43.649 E0.7396
G1 X126.762 Y41.813 E0.8793
G1 X126.889 Y41.708 E0.8876
G1 X129.084 Y40.027 E1.0272
G1 X129.218 Y39.932 E1.0355
G1 X131.529 Y38.415 E1.1752
G1 X131.670 Y38.329 E1.1835
G1 X134.084 Y36.983 E1.3231
G1 X134.231 Y36.908 E1.3315
G1 X136.737 Y35.741 E1.4711
G1 X136.888 Y35.677 E1.4794
G1 X139.472 Y34.695 E1.6190
G1 X139.628 Y34.642 E1.6274
G1 X142.277 Y33.850 E1.7670
G1 X142.436 Y33.809 E1.7753
G1 X145.135 Y33.211 E1.9150
G1 X145.297 Y33.181 E1.9233
G1 X148.032 Y32.781 E2.0629
G1 X148.196 Y32.763 E2.0712
G1 X150.953 Y32.563 E2.2109
G1 X151.118 Y32.557 E2.2192
G1 X153.882 Y32.557 E2.3588
G1 X154.047 Y32.563 E2.3672
G1 X156.804 Y32.763 E2.5068
G1 X156.968 Y32.781 E2.5151
G1 X159.703 Y33.181 E2.6547
G1 X159.865 Y33.211 E2.6631
G1 X162.564 Y33.809 E2.8027
G1 X162.723 Y33.850 E2.8110
G1 X165.371 Y34.642 E2.9507
G1 X165.528 Y34.695 E2.9590
G1 X168.111 Y35.677 E3.0986
G1 X168.263 Y35.741 E3.1069
G1 X170.769 Y36.908 E3.2466
G1 X170.916 Y36.983 E3.2549
G1 X173.330 Y38.329 E3.3945
G1 X173.471 Y38.414 E3.4029
G1 X175.782 Y39.932 E3.5425
G1 X175.916 Y40.027 E3.5508
G1 X178.110 Y41.708 E3.6904
G1 X178.238 Y41.813 E3.6988
G1 X180.304 Y43.649 E3.8384
G1 X180.423 Y43.763 E3.8467
G1 X182.351 Y45.744 E3.9864
G1 X182.462 Y45.867 E3.9947
G1 X184.240 Y47.982 E4.1343
G1 X184.342 Y48.112 E4.1426
G1 X185.962 Y50.351 E4.2823
G1 X186.054 Y50.488 E4.2906
G1 X187.508 Y52.839 E4.4302
G1 X187.590 Y52.983 E4.4386
G1 X188.869 Y55.433 E4.5782
G1 X188.940 Y55.582 E4.5865
G1 X190.038 Y58.118 E4.7261
G1 X190.098 Y58.272 E4.7345
G1 X191.009 Y60.882 E4.8741
G1 X191.058 Y61.039 E4.8824
G1 X191.777 Y63.708 E5.0221
G1 X191.814 Y63.869 E5.0304
G1 X192.338 Y66.583 E5.1700
G1 X192.363 Y66.746 E5.1783
G1 X192.689 Y69.491 E5.3180
G1 X192.702 Y69.655 E5.3263
G1 X192.828 Y72.416 E5.4659
G1 X192.829 Y72.581 E5.4743
G1 X192.754 Y75.344 E5.6139
G1 X192.743 Y75.509 E5.6222
G1 X192.467 Y78.259 E5.7618
G1 X192.445 Y78.423 E5.7702
G1 X191.970 Y81.146 E5.9098
G1 X191.936 Y81.307 E5.9181
G1 X191.265 Y83.989 E6.0578
G1 X191.219 Y84.147 E6.0661
G1 X190.356 Y86.773 E6.2057
G1 X190.298 Y86.927 E6.2140
G1 X189.246 Y89.483 E6.3537
G1 X189.178 Y89.633 E6.3620
G1 X187.943 Y92.106 E6.5016
G1 X187.864 Y92.251 E6.5100
G1 X186.453 Y94.628 E6.6496
G1 X186.364 Y94.767 E6.6579
G1 X184.784 Y97.035 E6.7975
G1 X184.685 Y97.167 E6.8059
G1 X182.944 Y99.314 E6.9455
G1 X182.836 Y99.438 E6.9538
G1 X180.944 Y101.454 E7.0935
G1 X180.827 Y101.570 E7.1018
G1 X178.797 Y103.440 E7.2412
G1 X178.678 Y103.543 E7.2491
G1 X175.198 Y106.330 E7.4744
G1 X174.061 Y107.428 E7.5542
G1 X173.020 Y108.631 E7.6346
G1 X172.089 Y109.921 E7.7149
G1 X171.276 Y111.288 E7.7953
G1 X170.587 Y112.721 E7.8756
G1 X170.028 Y114.210 E7.9560
G1 X169.603 Y115.743 E8.0363
G1 X169.315 Y117.307 E8.1167
G1 X169.166 Y118.891 E8.1970
G1 X169.159 Y120.482 E8.2773
G1 X169.292 Y122.067 E8.3577
G1 X169.565 Y123.634 E8.4380
G1 X169.975 Y125.170 E8.5184
G1 X170.520 Y126.665 E8.5987
G1 X171.195 Y128.105 E8.6791
G1 X171.996 Y129.482 E8.7595
G1 X174.232 Y132.652 E8.9555
G1 X174.347 Y132.832 E8.9663
G1 X175.436 Y134.732 E9.0769
G1 X175.532 Y134.920 E9.0876
G1 X176.439 Y136.912 E9.1981
G1 X176.518 Y137.108 E9.2088
G1 X177.236 Y139.175 E9.3194
G1 X177.296 Y139.378 E9.3300
G1 X177.820 Y141.503 E9.4406
G1 X177.861 Y141.710 E9.4513
G1 X178.185 Y143.875 E9.5618
G1 X178.206 Y144.085 E9.5725
G1 X178.328 Y146.271 E9.6831
G1 X178.330 Y146.482 E9.6937
G1 X178.248 Y148.669 E9.8043
G1 X178.231 Y148.879 E9.8150
G1 X177.946 Y151.050 E9.9255
G1 X177.909 Y151.258 E9.9362
G1 X177.425 Y153.392 E10.0468
G1 X177.369 Y153.596 E10.0574
G1 X176.688 Y155.676 E10.1680
G1 X176.613 Y155.873 E10.1787
G1 X175.743 Y157.882 E10.2892
G1 X175.650 Y158.071 E10.2999
G1 X174.596 Y159.990 E10.4105
G1 X174.486 Y160.170 E10.4211
G1 X173.260 Y161.983 E10.5317
G1 X173.133 Y162.152 E10.5424
G1 X171.744 Y163.843 E10.6529
G1 X171.602 Y164.000 E10.6636
G1 X170.062 Y165.555 E10.7742
G1 X169.906 Y165.698 E10.7848
G1 X168.228 Y167.103 E10.8954
G1 X168.060 Y167.231 E10.9061
G1 X166.258 Y168.474 E11.0166
G1 X166.079 Y168.586 E11.0273
G1 X164.170 Y169.657 E11.1379
G1 X163.982 Y169.751 E11.1485
G1 X161.981 Y170.640 E11.2591
G1 X161.785 Y170.717 E11.2698
G1 X159.710 Y171.417 E11.3803
G1 X159.508 Y171.475 E11.3910
G1 X157.377 Y171.979 E11.5016
G1 X157.170 Y172.018 E11.5122
G1 X155.002 Y172.322 E11.6228
G1 X154.792 Y172.342 E11.6335
G1 X152.605 Y172.443 E11.7440
G1 X152.395 Y172.443 E11.7547
G1 X150.208 Y172.342 E11.8653
G1 X149.998 Y172.322 E11.8759
G1 X147.830 Y172.018 E11.9865
G1 X147.623 Y171.979 E11.9972
G1 X145.492 Y171.475 E12.1077
G1 X145.290 Y171.417 E12.1184
G1 X143.215 Y170.717 E12.2290
G1 X143.019 Y170.640 E12.2396
G1 X141.018 Y169.751 E12.3502
G1 X140.830 Y169.657 E12.3609
G1 X138.921 Y168.586 E12.4714
G1 X138.742 Y168.474 E12.4821
G1 X136.940 Y167.231 E12.5927
G1 X136.772 Y167.103 E12.6033
G1 X135.094 Y165.698 E12.7139
G1 X134.938 Y165.555 E12.7246
G1 X133.398 Y164.000 E12.8351
G1 X133.256 Y163.843 E12.8458
G1 X131.867 Y162.152 E12.9564
G1 X131.740 Y161.983 E12.9670
G1 X130.514 Y160.170 E13.0776
G1 X130.403 Y159.990 E13.0883
G1 X129.350 Y158.071 E13.1988
G1 X129.257 Y157.882 E13.2095
G1 X128.387 Y155.873 E13.3201
G1 X128.312 Y155.676 E13.3307
G1 X127.631 Y153.596 E13.4413
G1 X127.575 Y153.392 E13.4520
G1 X127.091 Y151.258 E13.5625
G1 X127.054 Y151.050 E13.5732
G1 X126.769 Y148.879 E13.6838
G1 X126.752 Y148.669 E13.6944
G1 X126.670 Y146.482 E13.8050
G1 X126.672 Y146.271 E13.8157
G1 X126.794 Y144.085 E13.9262
G1 X126.815 Y143.875 E13.9369
G1 X127.139 Y141.710 E14.0475
G1 X127.180 Y141.503 E14.0581
G1 X127.704 Y139.378 E14.1687
G1 X127.764 Y139.175 E14.1794
G1 X128.482 Y137.108 E14.2899
G1 X128.561 Y136.912 E14.3006
G1 X129.468 Y134.920 E14.4112
G1 X129.564 Y134.732 E14.4218
G1 X130.653 Y132.832 E14.5325
G1 X130.768 Y132.652 E14.5432
G1 X133.004 Y129.482 E14.7392
G1 X133.805 Y128.105 E14.8197
G1 X134.480 Y126.665 E14.9000
G1 X135.025 Y125.170 E14.9803
G1 X135.435 Y123.634 E15.0607
G1 X135.708 Y122.067 E15.1410
G1 X135.841 Y120.482 E15.2214
G1 X135.834 Y118.891 E15.3017
G1 X135.685 Y117.307 E15.3821
G1 X135.397 Y115.743 E15.4624
G1 X134.972 Y114.210 E15.5428
G1 X134.413 Y112.722 E15.6231
G1 X133.724 Y111.288 E15.7035
G1 X132.911 Y109.921 E15.7838
G1 X131.980 Y108.631 E15.8642
G1 X130.939 Y107.429 E15.9445
G1 X129.802 Y106.330 E16.0243
G1 X126.322 Y103.543 E16.2496
G1 X126.203 Y103.440 E16.2575
G1 X124.173 Y101.570 E16.3970
G1 X124.056 Y101.454 E16.4053
G1 X122.164 Y99.438 E16.5449
G1 X122.056 Y99.314 E16.5532
G1 X120.315 Y97.167 E16.6929
G1 X120.216 Y97.035 E16.7012
G1 X118.636 Y94.767 E16.8408
G1 X118.547 Y94.628 E16.8492
G1 X117.136 Y92.251 E16.9888
G1 X117.057 Y92.106 E16.9971
G1 X115.822 Y89.634 E17.1367
G1 X115.754 Y89.483 E17.1451
G1 X114.702 Y86.927 E17.2847
G1 X114.644 Y86.773 E17.2930
G1 X113.781 Y84.147 E17.4327
G1 X113.735 Y83.989 E17.4410
G1 X113.064 Y81.307 E17.5806
G1 X113.030 Y81.146 E17.5889
G1 X112.555 Y78.423 E17.7286
G1 X112.533 Y78.259 E17.7369
G1 X112.257 Y75.509 E17.8765
G1 X112.246 Y75.344 E17.8849
G1 X112.171 Y72.581 E18.0245
G1 X112.172 Y72.416 E18.0328
G1 X112.298 Y69.655 E18.1724
G1 X112.311 Y69.491 E18.1808
G1 X112.637 Y66.746 E18.3204
G1 X112.662 Y66.583 E18.3287
G1 X113.186 Y63.869 E18.4684
G1 X113.223 Y63.708 E18.4767
G1 X113.942 Y61.039 E18.6163
G1 X113.991 Y60.882 E18.6246
G1 X114.902 Y58.272 E18.7643
G1 X114.962 Y58.118 E18.7726
G1 X116.060 Y55.581 E18.9123
G1 X116.132 Y55.430 E18.9207
G1 X116.454 Y55.591 F2400
G92 E0.0000
G1 X117.745 Y53.126 E0.1406 F1200
G1 X117.819 Y52.995 E0.1482
G1 X119.248 Y50.683 E0.2855
G1 X119.333 Y50.557 E0.2931
G1 X120.946 Y48.329 E0.4321
G1 X121.039 Y48.209 E0.4398
G1 X122.810 Y46.103 E0.5787
G1 X122.912 Y45.991 E0.5864
G1 X124.830 Y44.019 E0.7254
G1 X124.940 Y43.914 E0.7330
G1 X126.997 Y42.087 E0.8720
G1 X127.114 Y41.990 E0.8797
G1 X129.297 Y40.317 E1.0186
G1 X129.421 Y40.229 E1.0263
G1 X131.721 Y38.719 E1.1653
G1 X131.851 Y38.640 E1.1729
G1 X134.254 Y37.301 E1.3119
G1 X134.389 Y37.232 E1.3196
G1 X136.883 Y36.070 E1.4585
G1 X137.022 Y36.011 E1.4662
G1 X139.594 Y35.034 E1.6052
G1 X139.738 Y34.985 E1.6129
G1 X142.374 Y34.197 E1.7518
G1 X142.521 Y34.159 E1.7595
G1 X145.207 Y33.564 E1.8985
G1 X145.356 Y33.537 E1.9061
G1 X148.078 Y33.138 E2.0451
G1 X148.229 Y33.122 E2.0528
G1 X150.973 Y32.922 E2.1917
G1 X151.124 Y32.917 E2.1994
G1 X153.875 Y32.917 E2.3384
G1 X154.027 Y32.922 E2.3460
G1 X156.771 Y33.122 E2.4850
G1 X156.922 Y33.138 E2.4927
G1 X159.644 Y33.537 E2.6316
G1 X159.793 Y33.564 E2.6393
G1 X162.479 Y34.159 E2.7783
G1 X162.626 Y34.197 E2.7859
G1 X165.262 Y34.985 E2.9249
G1 X165.406 Y35.034 E2.9326
G1 X167.977 Y36.011 E3.0715
G1 X168.117 Y36.070 E3.0792
G1 X170.611 Y37.232 E3.2182
G1 X170.746 Y37.301 E3.2258
G1 X173.149 Y38.640 E3.3648
G1 X173.279 Y38.719 E3.3725
G1 X175.579 Y40.229 E3.5114
G1 X175.703 Y40.317 E3.5191
G1 X177.886 Y41.990 E3.6581
G1 X178.003 Y42.087 E3.6658
G1 X180.060 Y43.914 E3.8047
G1 X180.170 Y44.019 E3.8124
G1 X182.088 Y45.991 E3.9514
G1 X182.190 Y46.103 E3.9590
G1 X183.961 Y48.209 E4.0980
G1 X184.054 Y48.329 E4.1057
G1 X185.667 Y50.557 E4.2446
G1 X185.751 Y50.683 E4.2523
G1 X187.198 Y53.023 E4.3913
G1 X187.274 Y53.155 E4.3989
G1 X188.547 Y55.594 E4.5379
G1 X188.612 Y55.731 E4.5456
G1 X189.705 Y58.255 E4.6845
G1 X189.760 Y58.397 E4.6922
G1 X190.667 Y60.994 E4.8312
G1 X190.712 Y61.139 E4.8388
G1 X191.428 Y63.795 E4.9778
G1 X191.462 Y63.943 E4.9855
G1 X191.983 Y66.645 E5.1244
G1 X192.007 Y66.795 E5.1321
G1 X192.331 Y69.527 E5.2711
G1 X192.343 Y69.678 E5.2787
G1 X192.468 Y72.426 E5.4177
G1 X192.469 Y72.578 E5.4254
G1 X192.394 Y75.328 E5.5644
G1 X192.384 Y75.480 E5.5720
G1 X192.110 Y78.217 E5.7110
G1 X192.089 Y78.367 E5.7187
G1 X191.617 Y81.077 E5.8576
G1 X191.585 Y81.226 E5.8653
G1 X190.918 Y83.895 E6.0043
G1 X190.875 Y84.041 E6.0119
G1 X190.016 Y86.654 E6.1509
G1 X189.963 Y86.796 E6.1586
G1 X188.916 Y89.340 E6.2975
G1 X188.853 Y89.478 E6.3052
G1 X187.624 Y91.940 E6.4442
G1 X187.551 Y92.073 E6.4518
G1 X186.147 Y94.439 E6.5908
