; G-Code generated by Simplify3D(R) Version 
; Jun 27, 2021 at 1:13:14 PM
; Settings Summary
;   processName,Process1
;   applyToModels,JRCNC0011 v21
;   profileName,NORMAL (modified)
;   profileVersion,2021-04-03 23:45:23
;   baseProfile,Wanhao Duplicator 5S Mini
;   printMaterial,PLA
;   printQuality,0.25
;   printExtruders,
;   extruderName,Primary Extruder
;   extruderToolheadNumber,0
;   extruderDiameter,0.3
;   extruderAutoWidth,1
;   extruderWidth,0.36
;   extrusionMultiplier,0.9
;   extruderUseRetract,1
;   extruderRetractionDistance,5
;   extruderExtraRestartDistance,0
;   extruderRetractionZLift,0
;   extruderRetractionSpeed,3000
;   extruderUseCoasting,0
;   extruderCoastingDistance,1.5
;   extruderUseWipe,0
;   extruderWipeDistance,5
;   primaryExtruder,0
;   layerHeight,0.25
;   topSolidLayers,3
;   bottomSolidLayers,3
;   perimeterOutlines,3
;   printPerimetersInsideOut,1
;   startPointOption,3
;   startPointOriginX,0
;   startPointOriginY,0
;   sequentialIslands,0
;   spiralVaseMode,0
;   firstLayerHeightPercentage,150
;   firstLayerWidthPercentage,100
;   firstLayerUnderspeed,0.5
;   useRaft,0
;   raftExtruder,0
;   raftTopLayers,3
;   raftBaseLayers,2
;   raftOffset,3
;   raftSeparationDistance,0.14
;   raftTopInfill,100
;   aboveRaftSpeedMultiplier,0.3
;   useSkirt,1
;   skirtExtruder,0
;   skirtLayers,2
;   skirtOutlines,2
;   skirtOffset,4
;   usePrimePillar,0
;   primePillarExtruder,999
;   primePillarWidth,12
;   primePillarLocation,7
;   primePillarSpeedMultiplier,1
;   useOozeShield,0
;   oozeShieldExtruder,999
;   oozeShieldOffset,2
;   oozeShieldOutlines,1
;   oozeShieldSidewallShape,1
;   oozeShieldSidewallAngle,30
;   oozeShieldSpeedMultiplier,1
;   infillExtruder,0
;   internalInfillPattern,Triangular
;   externalInfillPattern,Rectilinear
;   infillPercentage,30
;   outlineOverlapPercentage,15
;   infillExtrusionWidthPercentage,150
;   minInfillLength,5
;   infillLayerInterval,1
;   internalInfillAngles,0,60,-60
;   overlapInternalInfillAngles,1
;   externalInfillAngles,45,-45
;   generateSupport,0
;   supportExtruder,0
;   supportInfillPercentage,40
;   supportExtraInflation,1
;   supportBaseLayers,0
;   denseSupportExtruder,0
;   denseSupportLayers,0
;   denseSupportInfillPercentage,70
;   supportLayerInterval,1
;   supportHorizontalPartOffset,1
;   supportUpperSeparationLayers,1
;   supportLowerSeparationLayers,1
;   supportType,0
;   supportGridSpacing,4
;   maxOverhangAngle,45
;   supportAngles,0
;   temperatureName,Primary Extruder
;   temperatureNumber,0
;   temperatureSetpointCount,2
;   temperatureSetpointLayers,1,5
;   temperatureSetpointTemperatures,210,210
;   temperatureStabilizeAtStartup,1
;   temperatureHeatedBed,0
;   fanLayers,1,2
;   fanSpeeds,100,100
;   blipFanToFullPower,0
;   adjustSpeedForCooling,1
;   minSpeedLayerTime,7
;   minCoolingSpeedSlowdown,20
;   increaseFanForCooling,0
;   minFanLayerTime,45
;   maxCoolingFanSpeed,100
;   increaseFanForBridging,0
;   bridgingFanSpeed,100
;   use5D,1
;   relativeEdistances,0
;   allowEaxisZeroing,1
;   independentExtruderAxes,0
;   includeM10123,0
;   stickySupport,1
;   applyToolheadOffsets,0
;   gcodeXoffset,0
;   gcodeYoffset,0
;   gcodeZoffset,0
;   overrideMachineDefinition,0
;   machineTypeOverride,0
;   strokeXoverride,305
;   strokeYoverride,205
;   strokeZoverride,205
;   originOffsetXoverride,0
;   originOffsetYoverride,0
;   originOffsetZoverride,0
;   homeXdirOverride,-1
;   homeYdirOverride,-1
;   homeZdirOverride,-1
;   flipXoverride,1
;   flipYoverride,-1
;   flipZoverride,1
;   toolheadOffsets,0,0|0,0|0,0|0,0|0,0|0,0
;   overrideFirmwareConfiguration,1
;   firmwareTypeOverride,RepRap (Marlin/Repetier/Sprinter)
;   GPXconfigOverride,r2
;   baudRateOverride,115200
;   overridePrinterModels,1
;   printerModelsOverride
;   startingGcode,G28 ; home all axes,G1 Z 2 ; set height for prime line,G92 E0 ; zero extruder,G1 X150 E30 F400 ; prime line
;   layerChangeGcode,
;   retractionGcode,
;   toolChangeGcode,
;   endingGcode,G28 X0 ; home X axis,M104 S0 ; turn off extruder,M84 ; disable motors
;   exportFileFormat,gcode
;   celebration,0
;   celebrationSong,Random Song
;   postProcessing,
;   defaultSpeed,2400
;   outlineUnderspeed,0.5
;   solidInfillUnderspeed,0.8
;   supportUnderspeed,0.8
;   rapidXYspeed,2400
;   rapidZspeed,900
;   minBridgingArea,50
;   bridgingExtraInflation,0
;   bridgingExtrusionMultiplier,1
;   bridgingSpeedMultiplier,1
;   useFixedBridgingAngle,0
;   fixedBridgingAngle,0
;   applyBridgingToPerimeters,0
;   filamentDiameters,1.75|3|3|3|3|3
;   filamentPricesPerKg,46|46|46|46|46|46
;   filamentDensities,1.25|1.25|1.25|1.25|1.25|1.25
;   useMinPrintHeight,0
;   minPrintHeight,0
;   useMaxPrintHeight,1
;   maxPrintHeight,3
;   useDiaphragm,0
;   diaphragmLayerInterval,20
;   robustSlicing,1
;   mergeAllIntoSolid,0
;   onlyRetractWhenCrossingOutline,1
;   retractBetweenLayers,0
;   useRetractionMinTravel,1
;   retractionMinTravel,3
;   retractWhileWiping,0
;   onlyWipeOutlines,1
;   avoidCrossingOutline,1
;   maxMovementDetourFactor,3
;   toolChangeRetractionDistance,12
;   toolChangeExtraRestartDistance,-0.5
;   toolChangeRetractionSpeed,600
;   externalThinWallType,0
;   internalThinWallType,2
;   thinWallAllowedOverlapPercentage,10
;   singleExtrusionMinLength,1
;   singleExtrusionMinPrintingWidthPercentage,50
;   singleExtrusionMaxPrintingWidthPercentage,200
;   singleExtrusionEndpointExtension,0
;   horizontalSizeCompensation,0
G90
M82
M106 S255
M104 S210 T0
M109 S210 T0
G28 ; home all axes
G1 Z 2 ; set height for prime line
G92 E0 ; zero extruder
G1 X150 E30 F400 ; prime line
; process Process1
; layer 1, Z = 0.375
T0
G92 E0.0000
G1 E-5.0000 F3000
; feature skirt
; tool H0.375 W0.360
G1 Z0.375 F900
G1 X129.038 Y48.410 F2400
G1 E0.0000 F3000
G92 E0.0000
G1 X129.075 Y48.318 E0.0050 F1200
G1 X129.079 Y48.309 E0.0055
G1 X129.530 Y47.329 E0.0600
G1 X130.026 Y46.251 E0.1199
G1 X130.033 Y46.238 E0.1207
G1 X130.085 Y46.139 E0.1263
G1 X130.131 Y46.052 E0.1313
G1 X130.136 Y46.041 E0.1319
G1 X131.075 Y44.442 E0.2256
G1 X131.286 Y44.082 E0.2467
G1 X131.295 Y44.069 E0.2474
G1 X131.302 Y44.057 E0.2482
G1 X131.353 Y43.979 E0.2529
G1 X131.401 Y43.906 E0.2573
G1 X131.409 Y43.894 E0.2580
G1 X131.419 Y43.880 E0.2589
G1 X131.925 Y43.186 E0.3022
G1 X132.753 Y42.050 E0.3732
G1 X132.760 Y42.041 E0.3738
G1 X132.838 Y41.944 E0.3801
G1 X132.893 Y41.876 E0.3845
G1 X132.899 Y41.869 E0.3850
G1 X133.772 Y40.891 E0.4512
G1 X134.413 Y40.173 E0.4999
G1 X134.467 Y40.118 E0.5037
G1 X134.573 Y40.011 E0.5113
G1 X135.546 Y39.118 E0.5780
G1 X136.248 Y38.473 E0.6262
G1 X136.254 Y38.468 E0.6266
G1 X136.361 Y38.379 E0.6336
G1 X136.420 Y38.330 E0.6375
G1 X136.426 Y38.325 E0.6379
G1 X137.517 Y37.507 E0.7068
G1 X138.243 Y36.962 E0.7526
G1 X138.251 Y36.956 E0.7532
G1 X138.355 Y36.886 E0.7595
G1 X138.428 Y36.836 E0.7639
G1 X138.435 Y36.831 E0.7644
G1 X139.614 Y36.117 E0.8340
G1 X140.376 Y35.656 E0.8790
G1 X140.384 Y35.651 E0.8795
G1 X140.391 Y35.647 E0.8799
G1 X140.487 Y35.595 E0.8854
G1 X140.566 Y35.553 E0.8899
G1 X140.572 Y35.550 E0.8903
G1 X140.584 Y35.543 E0.8909
G1 X141.841 Y34.943 E0.9613
G1 X142.632 Y34.565 E1.0056
G1 X142.642 Y34.560 E1.0062
G1 X142.750 Y34.515 E1.0121
G1 X142.838 Y34.478 E1.0169
G1 X142.846 Y34.475 E1.0173
G1 X144.023 Y34.050 E1.0805
G1 X144.959 Y33.711 E1.1308
G1 X144.982 Y33.703 E1.1321
G1 X144.987 Y33.701 E1.1323
G1 X145.082 Y33.672 E1.1374
G1 X145.200 Y33.636 E1.1436
G1 X145.210 Y33.634 E1.1441
G1 X145.249 Y33.624 E1.1461
G1 X146.356 Y33.344 E1.2038
G1 X147.404 Y33.079 E1.2584
G1 X147.413 Y33.077 E1.2589
G1 X147.421 Y33.075 E1.2593
G1 X147.526 Y33.054 E1.2647
G1 X147.616 Y33.036 E1.2693
G1 X147.623 Y33.035 E1.2697
G1 X147.635 Y33.032 E1.2703
G1 X149.004 Y32.827 E1.3402
G1 X149.887 Y32.695 E1.3854
G1 X150.031 Y32.681 E1.3927
G1 X150.110 Y32.673 E1.3967
G1 X151.410 Y32.608 E1.4624
G1 X152.379 Y32.560 E1.5114
G1 X152.386 Y32.560 E1.5118
G1 X152.392 Y32.560 E1.5121
G1 X152.501 Y32.560 E1.5176
G1 X152.597 Y32.560 E1.5225
G1 X152.603 Y32.560 E1.5228
G1 X152.613 Y32.560 E1.5232
G1 X153.839 Y32.621 E1.5853
G1 X154.881 Y32.672 E1.6380
G1 X154.893 Y32.673 E1.6386
G1 X154.994 Y32.683 E1.6437
G1 X155.106 Y32.695 E1.6494
G1 X155.112 Y32.695 E1.6497
G1 X156.372 Y32.883 E1.7140
G1 X157.328 Y33.026 E1.7629
G1 X157.337 Y33.026 E1.7633
G1 X157.584 Y33.076 E1.7760
G1 X158.659 Y33.348 E1.8321
G1 X159.793 Y33.634 E1.8911
G1 X159.847 Y33.651 E1.8940
G1 X160.002 Y33.698 E1.9022
G1 X160.009 Y33.700 E1.9025
G1 X161.165 Y34.118 E1.9646
G1 X162.148 Y34.472 E2.0174
G1 X162.155 Y34.475 E2.0178
G1 X162.159 Y34.477 E2.0180
G1 X162.257 Y34.518 E2.0234
G1 X162.355 Y34.559 E2.0288
G1 X162.362 Y34.562 E2.0291
G1 X163.753 Y35.226 E2.1070
G1 X164.412 Y35.541 E2.1439
G1 X164.419 Y35.545 E2.1443
G1 X164.521 Y35.599 E2.1501
G1 X164.610 Y35.648 E2.1553
G1 X164.615 Y35.650 E2.1555
G1 X165.791 Y36.362 E2.2250
G1 X166.543 Y36.818 E2.2694
G1 X166.550 Y36.821 E2.2698
G1 X166.562 Y36.830 E2.2706
G1 X166.571 Y36.835 E2.2710
G1 X166.749 Y36.956 E2.2819
G1 X167.710 Y37.677 E2.3426
G1 X168.568 Y38.321 E2.3968
G1 X168.575 Y38.326 E2.3972
G1 X168.579 Y38.329 E2.3975
G1 X168.658 Y38.395 E2.4027
G1 X168.738 Y38.461 E2.4079
G1 X168.742 Y38.465 E2.4082
G1 X168.747 Y38.469 E2.4085
G1 X169.660 Y39.307 E2.4711
G1 X170.416 Y40.001 E2.5230
G1 X170.427 Y40.011 E2.5237
G1 X170.438 Y40.022 E2.5245
G1 X170.501 Y40.087 E2.5291
G1 X170.563 Y40.149 E2.5335
G1 X170.573 Y40.160 E2.5342
G1 X170.586 Y40.173 E2.5352
G1 X171.456 Y41.146 E2.6011
G1 X172.053 Y41.815 E2.6464
G1 X172.100 Y41.867 E2.6500
G1 X172.168 Y41.952 E2.6555
G1 X172.243 Y42.045 E2.6615
G1 X172.280 Y42.096 E2.6647
G1 X173.585 Y43.885 E2.7765
G1 X173.651 Y43.986 E2.7826
G1 X173.709 Y44.074 E2.7880
G1 X174.052 Y44.659 E2.8222
G1 X174.864 Y46.041 E2.9032
G1 X174.871 Y46.055 E2.9040
G1 X174.914 Y46.137 E2.9086
G1 X174.968 Y46.241 E2.9146
G1 X174.974 Y46.251 E2.9152
G1 X175.470 Y47.329 E2.9751
G1 X175.922 Y48.311 E3.0297
G1 X175.991 Y48.482 E3.0390
G1 X176.009 Y48.526 E3.0414
G1 X176.407 Y49.679 E3.1031
G1 X176.750 Y50.672 E3.1561
G1 X176.783 Y50.786 E3.1621
G1 X176.815 Y50.893 E3.1677
G1 X177.109 Y52.130 E3.2320
G1 X177.341 Y53.104 E3.2825
G1 X177.362 Y53.218 E3.2884
G1 X177.383 Y53.328 E3.2940
G1 X177.567 Y54.689 E3.3634
G1 X177.688 Y55.580 E3.4089
G1 X177.699 Y55.702 E3.4150
G1 X177.708 Y55.816 E3.4208
G1 X177.763 Y57.342 E3.4979
G1 X177.789 Y58.073 E3.5349
G1 X177.789 Y58.090 E3.5358
G1 X177.789 Y58.106 E3.5366
G1 X177.788 Y58.195 E3.5410
G1 X177.787 Y58.282 E3.5455
G1 X177.786 Y58.298 E3.5463
G1 X177.786 Y58.315 E3.5471
G1 X177.687 Y59.869 E3.6258
G1 X189.023 Y116.029 E6.5199
G1 X189.941 Y118.208 E6.6393
G1 X190.000 Y118.367 E6.6479
G1 X190.042 Y118.492 E6.6545
G1 X190.046 Y118.502 E6.6551
G1 X190.091 Y118.638 E6.6623
G1 X190.135 Y118.768 E6.6692
G1 X190.137 Y118.773 E6.6695
G1 X190.923 Y121.135 E6.7952
G1 X190.943 Y121.204 E6.7989
G1 X190.974 Y121.311 E6.8045
G1 X191.271 Y122.503 E6.8666
G1 X191.675 Y124.122 E6.9509
G1 X191.679 Y124.140 E6.9518
G1 X191.701 Y124.247 E6.9573
G1 X191.711 Y124.293 E6.9597
G1 X191.714 Y124.310 E6.9606
G1 X191.936 Y125.626 E7.0280
G1 X192.196 Y127.162 E7.1066
G1 X192.199 Y127.181 E7.1076
G1 X192.221 Y127.356 E7.1165
G1 X192.349 Y128.771 E7.1883
G1 X192.481 Y130.232 E7.2624
G1 X192.483 Y130.256 E7.2636
G1 X192.492 Y130.432 E7.2725
G1 X192.510 Y131.886 E7.3460
G1 X192.529 Y133.314 E7.4181
G1 X192.529 Y133.341 E7.4195
G1 X192.529 Y133.348 E7.4199
G1 X192.524 Y133.530 E7.4290
G1 X192.497 Y133.934 E7.4495
G1 X192.340 Y136.391 E7.5738
G1 X192.323 Y136.565 E7.5827
G1 X192.311 Y136.649 E7.5870
G1 X192.302 Y136.731 E7.5912
G1 X192.033 Y138.609 E7.6870
G1 X191.915 Y139.444 E7.7296
G1 X191.909 Y139.480 E7.7314
G1 X191.908 Y139.488 E7.7318
G1 X191.876 Y139.659 E7.7406
G1 X191.536 Y141.191 E7.8199
G1 X191.256 Y142.456 E7.8853
G1 X191.247 Y142.493 E7.8872
G1 X191.245 Y142.502 E7.8877
G1 X191.200 Y142.671 E7.8966
G1 X190.733 Y144.205 E7.9775
G1 X190.368 Y145.408 E8.0410
G1 X190.354 Y145.447 E8.0432
G1 X190.351 Y145.458 E8.0437
G1 X190.293 Y145.623 E8.0526
G1 X189.698 Y147.145 E8.1351
G1 X189.255 Y148.282 E8.1968
G1 X189.237 Y148.324 E8.1991
G1 X189.232 Y148.337 E8.1997
G1 X189.162 Y148.497 E8.2086
G1 X188.443 Y149.985 E8.2921
G1 X187.924 Y151.063 E8.3525
G1 X187.901 Y151.106 E8.3550
G1 X187.894 Y151.120 E8.3557
G1 X187.812 Y151.274 E8.3646
G1 X186.966 Y152.727 E8.4495
G1 X186.383 Y153.733 E8.5082
G1 X186.355 Y153.777 E8.5108
G1 X186.346 Y153.792 E8.5117
G1 X186.252 Y153.940 E8.5206
G1 X185.282 Y155.345 E8.6069
G1 X184.641 Y156.277 E8.6640
G1 X184.608 Y156.320 E8.6667
G1 X184.597 Y156.337 E8.6677
G1 X184.492 Y156.477 E8.6766
G1 X183.398 Y157.826 E8.7643
G1 X182.706 Y158.682 E8.8199
G1 X182.670 Y158.722 E8.8226
G1 X182.656 Y158.740 E8.8238
G1 X182.538 Y158.874 E8.8328
G1 X180.471 Y161.049 E8.9844
G1 X180.345 Y161.171 E8.9932
G1 X180.313 Y161.200 E8.9954
G1 X180.296 Y161.217 E8.9966
G1 X178.259 Y163.054 E9.1352
G1 X178.239 Y163.070 E9.1364
G1 X178.228 Y163.080 E9.1372
G1 X178.094 Y163.191 E9.1460
G1 X176.599 Y164.345 E9.2414
G1 X175.824 Y164.944 E9.2909
G1 X175.800 Y164.961 E9.2924
G1 X175.787 Y164.972 E9.2932
G1 X175.644 Y165.073 E9.3021
G1 X174.060 Y166.111 E9.3978
G1 X173.246 Y166.645 E9.4469
G1 X173.220 Y166.661 E9.4485
G1 X173.205 Y166.671 E9.4494
G1 X173.055 Y166.761 E9.4582
G1 X171.370 Y167.687 E9.5554
G1 X170.544 Y168.142 E9.6030
G1 X170.517 Y168.156 E9.6045
G1 X170.500 Y168.165 E9.6055
G1 X170.344 Y168.244 E9.6143
G1 X168.579 Y169.043 E9.7122
G1 X167.736 Y169.427 E9.7590
G1 X167.707 Y169.439 E9.7606
G1 X167.689 Y169.447 E9.7616
G1 X167.526 Y169.513 E9.7704
G1 X165.687 Y170.181 E9.8693
G1 X164.836 Y170.491 E9.9150
G1 X164.806 Y170.501 E9.9166
G1 X164.785 Y170.508 E9.9177
G1 X164.616 Y170.562 E9.9267
G1 X163.484 Y170.876 E9.9861
G1 X161.863 Y171.329 E10.0710
G1 X161.760 Y171.353 E10.0764
G1 X161.745 Y171.357 E10.0772
G1 X161.574 Y171.398 E10.0860
G1 X159.380 Y171.827 E10.1990
G1 X158.832 Y171.935 E10.2272
G1 X158.800 Y171.940 E10.2289
G1 X158.776 Y171.945 E10.2301
G1 X158.605 Y171.971 E10.2388
G1 X155.711 Y172.311 E10.3860
G1 X155.536 Y172.324 E10.3949
G1 X155.505 Y172.325 E10.3965
G1 X155.407 Y172.333 E10.4014
G1 X154.305 Y172.373 E10.4571
G1 X152.622 Y172.439 E10.5422
G1 X152.445 Y172.439 E10.5511
G1 X152.419 Y172.438 E10.5525
G1 X152.317 Y172.438 E10.5576
G1 X150.751 Y172.374 E10.6368
G1 X149.467 Y172.324 E10.7017
G1 X149.290 Y172.311 E10.7106
G1 X149.264 Y172.308 E10.7120
G1 X149.232 Y172.305 E10.7136
G1 X148.389 Y172.205 E10.7565
G1 X146.394 Y171.971 E10.8580
G1 X146.220 Y171.944 E10.8668
G1 X146.197 Y171.939 E10.8680
G1 X146.166 Y171.935 E10.8696
G1 X145.309 Y171.765 E10.9137
G1 X143.360 Y171.382 E11.0141
G1 X143.189 Y171.342 E11.0229
G1 X143.169 Y171.336 E11.0240
G1 X143.144 Y171.330 E11.0253
G1 X140.502 Y170.598 E11.1638
G1 X140.421 Y170.573 E11.1680
G1 X140.381 Y170.561 E11.1702
G1 X140.214 Y170.508 E11.1790
G1 X137.474 Y169.513 E11.3263
G1 X137.311 Y169.447 E11.3351
G1 X137.295 Y169.439 E11.3361
G1 X137.267 Y169.428 E11.3376
G1 X136.421 Y169.043 E11.3845
G1 X134.656 Y168.244 E11.4824
G1 X134.500 Y168.165 E11.4912
G1 X134.483 Y168.156 E11.4922
G1 X134.456 Y168.142 E11.4937
G1 X133.630 Y167.687 E11.5414
G1 X131.945 Y166.761 E11.6385
G1 X131.795 Y166.671 E11.6473
G1 X131.780 Y166.661 E11.6482
G1 X131.754 Y166.645 E11.6498
G1 X130.940 Y166.111 E11.6989
G1 X129.357 Y165.074 E11.7946
G1 X129.215 Y164.973 E11.8033
G1 X129.202 Y164.963 E11.8042
G1 X129.181 Y164.948 E11.8055
G1 X127.009 Y163.275 E11.9440
G1 X126.990 Y163.258 E11.9453
G1 X126.957 Y163.233 E11.9473
G1 X126.823 Y163.122 E11.9562
G1 X124.609 Y161.128 E12.1067
G1 X124.481 Y161.003 E12.1157
G1 X124.472 Y160.993 E12.1164
G1 X124.451 Y160.973 E12.1178
G1 X123.977 Y160.471 E12.1527
G1 X122.459 Y158.871 E12.2641
G1 X122.343 Y158.739 E12.2730
G1 X122.329 Y158.721 E12.2741
G1 X122.292 Y158.680 E12.2769
G1 X121.603 Y157.827 E12.3323
G1 X120.508 Y156.477 E12.4201
G1 X120.403 Y156.336 E12.4290
G1 X120.392 Y156.320 E12.4300
G1 X120.359 Y156.277 E12.4327
G1 X119.724 Y155.353 E12.4894
G1 X118.748 Y153.940 E12.5761
