; G-Code generated by Simplify3D(R) Version 4.1.2
; Apr 25, 2021 at 3:26:17 PM
; Settings Summary
;   processName,Process1
;   applyToModels,JRCNC0006 v3
;   profileName,NORMAL (modified)
;   profileVersion,2021-04-03 23:45:23
;   baseProfile,Wanhao Duplicator 5S Mini
;   printMaterial,PLA
;   printQuality,0.25
;   printExtruders,
;   extruderName,Primary Extruder
;   extruderToolheadNumber,0
;   extruderDiameter,0.3
;   extruderAutoWidth,1
;   extruderWidth,0.36
;   extrusionMultiplier,0.9
;   extruderUseRetract,1
;   extruderRetractionDistance,5
;   extruderExtraRestartDistance,0
;   extruderRetractionZLift,0
;   extruderRetractionSpeed,3000
;   extruderUseCoasting,0
;   extruderCoastingDistance,1.5
;   extruderUseWipe,0
;   extruderWipeDistance,5
;   primaryExtruder,0
;   layerHeight,0.25
;   topSolidLayers,3
;   bottomSolidLayers,3
;   perimeterOutlines,3
;   printPerimetersInsideOut,1
;   startPointOption,3
;   startPointOriginX,0
;   startPointOriginY,0
;   sequentialIslands,0
;   spiralVaseMode,0
;   firstLayerHeightPercentage,150
;   firstLayerWidthPercentage,100
;   firstLayerUnderspeed,0.5
;   useRaft,0
;   raftExtruder,0
;   raftTopLayers,3
;   raftBaseLayers,2
;   raftOffset,3
;   raftSeparationDistance,0.14
;   raftTopInfill,100
;   aboveRaftSpeedMultiplier,0.3
;   useSkirt,1
;   skirtExtruder,0
;   skirtLayers,2
;   skirtOutlines,2
;   skirtOffset,4
;   usePrimePillar,0
;   primePillarExtruder,999
;   primePillarWidth,12
;   primePillarLocation,7
;   primePillarSpeedMultiplier,1
;   useOozeShield,0
;   oozeShieldExtruder,999
;   oozeShieldOffset,2
;   oozeShieldOutlines,1
;   oozeShieldSidewallShape,1
;   oozeShieldSidewallAngle,30
;   oozeShieldSpeedMultiplier,1
;   infillExtruder,0
;   internalInfillPattern,Triangular
;   externalInfillPattern,Rectilinear
;   infillPercentage,30
;   outlineOverlapPercentage,15
;   infillExtrusionWidthPercentage,150
;   minInfillLength,5
;   infillLayerInterval,1
;   internalInfillAngles,0,60,-60
;   overlapInternalInfillAngles,1
;   externalInfillAngles,45,-45
;   generateSupport,1
;   supportExtruder,0
;   supportInfillPercentage,40
;   supportExtraInflation,1
;   supportBaseLayers,0
;   denseSupportExtruder,0
;   denseSupportLayers,0
;   denseSupportInfillPercentage,70
;   supportLayerInterval,1
;   supportHorizontalPartOffset,1
;   supportUpperSeparationLayers,1
;   supportLowerSeparationLayers,1
;   supportType,0
;   supportGridSpacing,4
;   maxOverhangAngle,45
;   supportAngles,0
;   temperatureName,Primary Extruder
;   temperatureNumber,0
;   temperatureSetpointCount,2
;   temperatureSetpointLayers,1,5
;   temperatureSetpointTemperatures,220,210
;   temperatureStabilizeAtStartup,1
;   temperatureHeatedBed,0
;   fanLayers,1,2
;   fanSpeeds,100,100
;   blipFanToFullPower,0
;   adjustSpeedForCooling,1
;   minSpeedLayerTime,7
;   minCoolingSpeedSlowdown,20
;   increaseFanForCooling,0
;   minFanLayerTime,45
;   maxCoolingFanSpeed,100
;   increaseFanForBridging,0
;   bridgingFanSpeed,100
;   use5D,1
;   relativeEdistances,0
;   allowEaxisZeroing,1
;   independentExtruderAxes,0
;   includeM10123,0
;   stickySupport,1
;   applyToolheadOffsets,0
;   gcodeXoffset,0
;   gcodeYoffset,0
;   gcodeZoffset,0
;   overrideMachineDefinition,0
;   machineTypeOverride,0
;   strokeXoverride,305
;   strokeYoverride,205
;   strokeZoverride,205
;   originOffsetXoverride,0
;   originOffsetYoverride,0
;   originOffsetZoverride,0
;   homeXdirOverride,-1
;   homeYdirOverride,-1
;   homeZdirOverride,-1
;   flipXoverride,1
;   flipYoverride,-1
;   flipZoverride,1
;   toolheadOffsets,0,0|0,0|0,0|0,0|0,0|0,0
;   overrideFirmwareConfiguration,1
;   firmwareTypeOverride,RepRap (Marlin/Repetier/Sprinter)
;   GPXconfigOverride,r2
;   baudRateOverride,115200
;   overridePrinterModels,1
;   printerModelsOverride
;   startingGcode,G28 ; home all axes,G1 Z 2 ; set height for prime line,G92 E0 ; zero extruder,G1 X150 E30 F400 ; prime line
;   layerChangeGcode,
;   retractionGcode,
;   toolChangeGcode,
;   endingGcode,G28 X0 ; home X axis,M104 S0 ; turn off extruder,M84 ; disable motors
;   exportFileFormat,gcode
;   celebration,0
;   celebrationSong,Random Song
;   postProcessing,
;   defaultSpeed,2400
;   outlineUnderspeed,0.5
;   solidInfillUnderspeed,0.8
;   supportUnderspeed,0.8
;   rapidXYspeed,2400
;   rapidZspeed,900
;   minBridgingArea,50
;   bridgingExtraInflation,0
;   bridgingExtrusionMultiplier,1
;   bridgingSpeedMultiplier,1
;   useFixedBridgingAngle,0
;   fixedBridgingAngle,0
;   applyBridgingToPerimeters,0
;   filamentDiameters,1.75|3|3|3|3|3
;   filamentPricesPerKg,46|46|46|46|46|46
;   filamentDensities,1.25|1.25|1.25|1.25|1.25|1.25
;   useMinPrintHeight,0
;   minPrintHeight,88.4
;   useMaxPrintHeight,0
;   maxPrintHeight,0
;   useDiaphragm,0
;   diaphragmLayerInterval,20
;   robustSlicing,1
;   mergeAllIntoSolid,0
;   onlyRetractWhenCrossingOutline,1
;   retractBetweenLayers,0
;   useRetractionMinTravel,1
;   retractionMinTravel,3
;   retractWhileWiping,0
;   onlyWipeOutlines,1
;   avoidCrossingOutline,1
;   maxMovementDetourFactor,3
;   toolChangeRetractionDistance,12
;   toolChangeExtraRestartDistance,-0.5
;   toolChangeRetractionSpeed,600
;   externalThinWallType,0
;   internalThinWallType,2
;   thinWallAllowedOverlapPercentage,10
;   singleExtrusionMinLength,1
;   singleExtrusionMinPrintingWidthPercentage,50
;   singleExtrusionMaxPrintingWidthPercentage,200
;   singleExtrusionEndpointExtension,0
;   horizontalSizeCompensation,0
G90
M82
M106 S255
M104 S220 T0
M109 S220 T0
G28 ; home all axes
G1 Z 2 ; set height for prime line
G92 E0 ; zero extruder
G1 X150 E30 F400 ; prime line
; process Process1
; layer 1, Z = 0.375
T0
G92 E0.0000
G1 E-5.0000 F3000
; feature skirt
; tool H0.375 W0.360
G1 Z0.375 F900
G1 X30.597 Y119.760 F2400
G1 E0.0000 F3000
G92 E0.0000
G1 X183.974 Y119.760 E7.7477 F1200
G1 X184.732 Y119.728 E7.7860
G1 X185.391 Y119.645 E7.8195
G1 X186.040 Y119.508 E7.8530
G1 X186.675 Y119.317 E7.8865
G1 X187.293 Y119.074 E7.9201
G1 X187.888 Y118.780 E7.9536
G1 X188.456 Y118.437 E7.9871
G1 X188.994 Y118.049 E8.0206
G1 X189.497 Y117.616 E8.0542
G1 X189.963 Y117.144 E8.0877
G1 X190.388 Y116.634 E8.1212
G1 X190.740 Y116.132 E8.1522
G1 X190.740 Y107.399 E8.5933
G1 X193.399 Y104.740 E8.7833
G1 X194.011 Y104.740 E8.8141
G1 X194.034 Y104.690 E8.8169
G1 X194.685 Y103.444 E8.8879
G1 X194.740 Y103.347 E8.8936
G1 X194.740 Y99.399 E9.0930
G1 X197.399 Y96.740 E9.2830
G1 X200.701 Y96.740 E9.4498
G1 X201.007 Y96.513 E9.4690
G1 X201.147 Y96.416 E9.4776
G1 X202.335 Y95.663 E9.5486
G1 X202.482 Y95.578 E9.5572
G1 X203.723 Y94.915 E9.6283
G1 X203.878 Y94.840 E9.6370
G1 X205.151 Y94.280 E9.7072
G1 X205.189 Y94.264 E9.7093
G1 X205.272 Y94.231 E9.7138
G1 X205.347 Y94.201 E9.7179
G1 X205.353 Y94.199 E9.7182
G1 X205.390 Y94.186 E9.7202
G1 X206.600 Y93.757 E9.7851
G1 X206.610 Y93.754 E9.7856
G1 X206.687 Y93.730 E9.7897
G1 X206.756 Y93.708 E9.7933
G1 X206.764 Y93.705 E9.7938
G1 X207.357 Y93.542 E9.8248
G1 X208.084 Y93.343 E9.8629
G1 X208.091 Y93.341 E9.8633
G1 X208.253 Y93.303 E9.8717
G1 X208.957 Y93.164 E9.9079
G1 X209.599 Y93.037 E9.9410
G1 X209.612 Y93.035 E9.9416
G1 X209.748 Y93.014 E9.9486
G1 X209.771 Y93.010 E9.9498
G1 X209.783 Y93.008 E9.9504
G1 X211.309 Y92.828 E10.0280
G1 X211.418 Y92.820 E10.0335
G1 X211.486 Y92.814 E10.0370
G1 X212.856 Y92.760 E10.1062
G1 X213.024 Y92.760 E10.1147
G1 X214.428 Y92.808 E10.1857
G1 X214.598 Y92.821 E10.1943
G1 X215.996 Y92.974 E10.2653
G1 X216.164 Y92.999 E10.2739
G1 X217.547 Y93.257 E10.3450
G1 X217.713 Y93.294 E10.3536
G1 X219.072 Y93.655 E10.4246
G1 X219.235 Y93.705 E10.4332
G1 X220.563 Y94.166 E10.5042
G1 X220.722 Y94.228 E10.5128
G1 X222.012 Y94.788 E10.5839
G1 X222.166 Y94.861 E10.5925
G1 X223.410 Y95.516 E10.6635
G1 X223.558 Y95.600 E10.6721
G1 X224.750 Y96.346 E10.7431
G1 X224.891 Y96.442 E10.7517
G1 X225.296 Y96.740 E10.7771
G1 X227.601 Y96.740 E10.8936
G1 X230.260 Y99.399 E11.0835
G1 X230.260 Y101.773 E11.2034
G1 X230.323 Y101.858 E11.2088
G1 X230.419 Y101.998 E11.2174
G1 X231.168 Y103.188 E11.2884
G1 X231.253 Y103.336 E11.2970
G1 X231.912 Y104.578 E11.3680
G1 X231.986 Y104.732 E11.3766
G1 X232.549 Y106.020 E11.4477
G1 X232.611 Y106.179 E11.4563
G1 X233.077 Y107.506 E11.5273
G1 X233.127 Y107.668 E11.5359
G1 X233.492 Y109.027 E11.6069
G1 X233.529 Y109.192 E11.6155
G1 X233.791 Y110.574 E11.6866
G1 X233.817 Y110.742 E11.6952
G1 X233.975 Y112.140 E11.7662
G1 X233.987 Y112.309 E11.7748
G1 X234.038 Y113.672 E11.8437
G1 X234.040 Y113.757 E11.8480
G1 X234.040 Y131.180 E12.7281
G1 X231.381 Y133.840 E12.9181
G1 X230.021 Y133.840 E12.9868
G1 X227.601 Y136.260 E13.1597
G1 X218.260 Y136.260 E13.6315
G1 X218.260 Y137.601 E13.6992
G1 X215.601 Y140.260 E13.8892
G1 X205.399 Y140.260 E14.4045
G1 X202.740 Y137.601 E14.5945
G1 X202.740 Y133.840 E14.7844
G1 X42.260 Y133.840 E22.8909
G1 X42.260 Y137.601 E23.0809
G1 X39.601 Y140.260 E23.2708
G1 X29.399 Y140.260 E23.7861
G1 X26.740 Y137.601 E23.9761
G1 X26.740 Y133.840 E24.1661
G1 X25.619 Y133.840 E24.2227
G1 X22.960 Y131.180 E24.4127
G1 X22.960 Y127.397 E24.6038
G1 X23.651 Y125.728 E24.6950
G1 X28.928 Y120.451 E25.0720
G1 X30.597 Y119.760 E25.1632
G1 X30.669 Y120.120 F2400
G92 E0.0000
G1 X183.982 Y120.120 E7.7444 F1200
G1 X184.762 Y120.087 E7.7839
G1 X185.450 Y120.001 E7.8189
G1 X186.129 Y119.857 E7.8540
G1 X186.793 Y119.657 E7.8890
G1 X187.438 Y119.403 E7.9240
G1 X188.061 Y119.096 E7.9591
G1 X188.655 Y118.738 E7.9941
G1 X189.217 Y118.332 E8.0292
G1 X189.743 Y117.880 E8.0642
G1 X190.230 Y117.386 E8.0992
G1 X190.674 Y116.853 E8.1343
G1 X191.072 Y116.285 E8.1693
G1 X191.100 Y116.237 E8.1721
G1 X191.100 Y107.549 E8.6110
G1 X193.549 Y105.100 E8.7859
G1 X194.243 Y105.100 E8.8210
G1 X194.289 Y104.993 E8.8269
G1 X194.356 Y104.851 E8.8348
G1 X195.001 Y103.616 E8.9052
G1 X195.079 Y103.480 E8.9131
G1 X195.100 Y103.446 E8.9151
G1 X195.100 Y99.549 E9.1120
G1 X197.549 Y97.100 E9.2869
G1 X200.821 Y97.100 E9.4522
G1 X201.216 Y96.805 E9.4771
G1 X201.345 Y96.717 E9.4850
G1 X202.522 Y95.971 E9.5554
G1 X202.657 Y95.892 E9.5633
G1 X203.887 Y95.236 E9.6337
G1 X204.030 Y95.167 E9.6417
G1 X205.296 Y94.610 E9.7116
G1 X205.326 Y94.597 E9.7133
G1 X205.332 Y94.594 E9.7136
G1 X205.405 Y94.565 E9.7176
G1 X205.474 Y94.538 E9.7213
G1 X205.479 Y94.536 E9.7216
G1 X205.510 Y94.525 E9.7232
G1 X206.714 Y94.098 E9.7878
G1 X206.724 Y94.095 E9.7883
G1 X206.795 Y94.073 E9.7921
G1 X206.857 Y94.053 E9.7954
G1 X206.865 Y94.051 E9.7958
G1 X207.453 Y93.890 E9.8266
G1 X208.173 Y93.692 E9.8643
G1 X208.179 Y93.690 E9.8646
G1 X208.329 Y93.655 E9.8724
G1 X209.027 Y93.517 E9.9083
G1 X209.662 Y93.392 E9.9410
G1 X209.670 Y93.391 E9.9414
G1 X209.804 Y93.369 E9.9483
G1 X209.819 Y93.367 E9.9490
G1 X209.832 Y93.365 E9.9497
G1 X211.344 Y93.187 E10.0266
G1 X211.446 Y93.179 E10.0318
G1 X211.508 Y93.174 E10.0349
G1 X212.864 Y93.120 E10.1035
G1 X213.018 Y93.120 E10.1113
G1 X214.409 Y93.168 E10.1816
G1 X214.565 Y93.179 E10.1895
G1 X215.950 Y93.331 E10.2598
G1 X216.105 Y93.354 E10.2677
G1 X217.474 Y93.610 E10.3381
G1 X217.627 Y93.644 E10.3460
G1 X218.973 Y94.001 E10.4164
G1 X219.123 Y94.047 E10.4243
G1 X220.439 Y94.504 E10.4947
G1 X220.585 Y94.561 E10.5026
G1 X221.863 Y95.115 E10.5729
G1 X222.004 Y95.183 E10.5808
G1 X223.237 Y95.831 E10.6512
G1 X223.373 Y95.909 E10.6591
G1 X224.553 Y96.648 E10.7295
G1 X224.683 Y96.736 E10.7374
G1 X225.178 Y97.100 E10.7684
G1 X227.451 Y97.100 E10.8833
G1 X229.900 Y99.549 E11.0582
G1 X229.900 Y101.892 E11.1766
G1 X230.029 Y102.067 E11.1875
G1 X230.118 Y102.196 E11.1954
G1 X230.860 Y103.374 E11.2658
G1 X230.938 Y103.510 E11.2737
G1 X231.590 Y104.741 E11.3441
G1 X231.658 Y104.882 E11.3520
G1 X232.216 Y106.158 E11.4223
G1 X232.274 Y106.304 E11.4303
G1 X232.735 Y107.618 E11.5006
G1 X232.781 Y107.768 E11.5085
G1 X233.142 Y109.113 E11.5789
G1 X233.177 Y109.266 E11.5868
G1 X233.436 Y110.635 E11.6572
G1 X233.460 Y110.789 E11.6651
G1 X233.616 Y112.174 E11.7354
G1 X233.628 Y112.330 E11.7433
G1 X233.679 Y113.682 E11.8117
G1 X233.680 Y113.761 E11.8157
G1 X233.680 Y131.031 E12.6881
G1 X231.231 Y133.480 E12.8630
G1 X229.871 Y133.480 E12.9317
G1 X227.451 Y135.900 E13.1046
G1 X217.900 Y135.900 E13.5871
G1 X217.900 Y137.451 E13.6654
G1 X215.451 Y139.900 E13.8404
G1 X205.549 Y139.900 E14.3406
G1 X203.100 Y137.451 E14.5155
G1 X203.100 Y133.480 E14.7161
G1 X41.900 Y133.480 E22.8589
G1 X41.900 Y137.451 E23.0596
G1 X39.451 Y139.900 E23.2345
G1 X29.549 Y139.900 E23.7347
G1 X27.100 Y137.451 E23.9096
G1 X27.100 Y133.480 E24.1102
G1 X25.769 Y133.480 E24.1775
G1 X23.320 Y131.031 E24.3524
G1 X23.320 Y127.469 E24.5324
G1 X23.956 Y125.932 E24.6164
G1 X29.132 Y120.756 E24.9861
G1 X30.669 Y120.120 E25.0701
G92 E0.0000
G1 E-5.0000 F3000
; feature inner perimeter
G1 X31.575 Y124.480 F2400
G1 X31.702 Y124.480
G1 X31.873 Y125.200
G1 E0.0000 F3000
G92 E0.0000
G1 X184.088 Y125.200 E7.6890 F900
G1 X185.186 Y125.154 E7.7445
G1 X186.295 Y125.015 E7.8009
G1 X187.388 Y124.783 E7.8574
G1 X188.459 Y124.461 E7.9139
G1 X189.499 Y124.052 E7.9703
G1 X190.501 Y123.556 E8.0268
G1 X191.458 Y122.980 E8.0832
G1 X192.364 Y122.325 E8.1397
G1 X193.212 Y121.597 E8.1962
G1 X193.997 Y120.801 E8.2526
G1 X194.712 Y119.942 E8.3091
G1 X195.354 Y119.027 E8.3655
G1 X195.917 Y118.061 E8.4220
G1 X196.398 Y117.052 E8.4785
G1 X196.792 Y116.007 E8.5349
G1 X196.899 Y115.633 E8.5545
G1 X197.163 Y115.654 E8.5679
G1 X197.299 Y116.770 E8.6247
G1 X197.547 Y117.986 E8.6874
G1 X197.892 Y119.177 E8.7500
G1 X198.332 Y120.336 E8.8127
G1 X198.863 Y121.457 E8.8753
G1 X199.484 Y122.531 E8.9380
G1 X200.190 Y123.554 E9.0008
G1 X200.972 Y124.512 E9.0633
G1 X201.832 Y125.407 E9.1259
G1 X202.760 Y126.229 E9.1886
G1 X203.751 Y126.975 E9.2512
G1 X204.801 Y127.639 E9.3140
G1 X205.793 Y128.153 E9.3704
G1 X205.732 Y128.400 E9.3833
G1 X28.673 Y128.400 E18.3272
G1 X31.873 Y125.200 E18.5558
G1 X37.046 Y124.480 F2400
G1 X184.073 Y124.480
G1 X185.126 Y124.436
G1 X186.175 Y124.304
G1 X187.210 Y124.085
G1 X188.223 Y123.781
G1 X189.207 Y123.393
G1 X190.155 Y122.924
G1 X191.061 Y122.378
G1 X191.918 Y121.759
G1 X192.721 Y121.070
G1 X193.463 Y120.317
G1 X194.140 Y119.505
G1 X194.747 Y118.638
G1 X195.280 Y117.725
G1 X195.735 Y116.770
G1 X196.108 Y115.780
G1 X196.398 Y114.763
G1 X196.602 Y113.725
G1 X196.849 Y111.459
G1 X197.070 Y110.256
G1 X197.380 Y109.073
G1 X197.777 Y107.917
G1 X198.261 Y106.794
G1 X198.826 Y105.710
G1 X199.472 Y104.671
G1 X200.193 Y103.684
G1 X200.987 Y102.754
G1 X201.847 Y101.885
G1 X202.314 Y101.480
G1 X203.704 Y101.287
G92 E0.0000
G1 X204.160 Y100.947 E0.0287 F900
G1 X205.147 Y100.321 E0.0878
G1 X206.178 Y99.771 E0.1468
G1 X207.274 Y99.290 E0.2072
G1 X208.314 Y98.921 E0.2630
G1 X209.419 Y98.618 E0.3209
G1 X210.541 Y98.397 E0.3786
G1 X211.823 Y98.245 E0.4438
G1 X212.953 Y98.201 E0.5010
G1 X214.122 Y98.241 E0.5601
G1 X215.284 Y98.369 E0.6191
G1 X216.433 Y98.583 E0.6781
G1 X217.562 Y98.883 E0.7372
G1 X218.666 Y99.266 E0.7962
G1 X219.739 Y99.731 E0.8553
G1 X220.773 Y100.275 E0.9143
G1 X221.764 Y100.895 E0.9733
G1 X222.705 Y101.587 E1.0324
G1 X223.593 Y102.348 E1.0914
G1 X224.420 Y103.174 E1.1504
G1 X225.184 Y104.059 E1.2095
G1 X225.879 Y104.998 E1.2685
G1 X226.502 Y105.987 E1.3275
G1 X227.049 Y107.020 E1.3866
G1 X227.517 Y108.091 E1.4456
G1 X227.904 Y109.193 E1.5047
G1 X228.207 Y110.322 E1.5637
G1 X228.424 Y111.471 E1.6227
G1 X228.556 Y112.632 E1.6818
G1 X228.600 Y113.817 E1.7417
G1 X228.600 Y128.400 E2.4783
G1 X225.400 Y128.400 E2.6400
G1 X225.400 Y122.708 E2.9275
G1 X225.522 Y122.522 E2.9387
G1 X226.137 Y121.457 E3.0008
G1 X226.668 Y120.336 E3.0635
G1 X227.108 Y119.177 E3.1261
G1 X227.453 Y117.986 E3.1888
G1 X227.701 Y116.770 E3.2514
G1 X227.851 Y115.539 E3.3141
G1 X227.901 Y114.300 E3.3767
G1 X227.851 Y113.061 E3.4394
G1 X227.701 Y111.830 E3.5020
G1 X227.453 Y110.614 E3.5647
G1 X227.108 Y109.423 E3.6273
G1 X226.668 Y108.263 E3.6900
G1 X226.137 Y107.143 E3.7526
G1 X225.516 Y106.069 E3.8153
G1 X224.812 Y105.048 E3.8779
G1 X224.028 Y104.087 E3.9406
G1 X223.169 Y103.193 E4.0032
G1 X222.240 Y102.370 E4.0659
G1 X221.249 Y101.625 E4.1285
G1 X220.200 Y100.963 E4.1912
G1 X219.102 Y100.386 E4.2538
G1 X217.961 Y99.900 E4.3165
