; G-Code generated by Simplify3D(R) Version 4.1.2
; Jun 29, 2021 at 10:47:28 PM
; Settings Summary
;   processName,Process1
;   applyToModels,JRCNC0016 v6,JRCNC0013 v10
;   profileName,JR NORMAL (modified)
;   profileVersion,2021-06-28 21:15:49
;   baseProfile,Wanhao Duplicator 5S Mini
;   printMaterial,PLA
;   printQuality,0.25
;   printExtruders,
;   extruderName,Primary Extruder
;   extruderToolheadNumber,0
;   extruderDiameter,0.3
;   extruderAutoWidth,1
;   extruderWidth,0.36
;   extrusionMultiplier,0.9
;   extruderUseRetract,1
;   extruderRetractionDistance,5
;   extruderExtraRestartDistance,0
;   extruderRetractionZLift,0
;   extruderRetractionSpeed,3000
;   extruderUseCoasting,0
;   extruderCoastingDistance,1.5
;   extruderUseWipe,0
;   extruderWipeDistance,5
;   primaryExtruder,0
;   layerHeight,0.25
;   topSolidLayers,3
;   bottomSolidLayers,3
;   perimeterOutlines,3
;   printPerimetersInsideOut,1
;   startPointOption,3
;   startPointOriginX,0
;   startPointOriginY,0
;   sequentialIslands,0
;   spiralVaseMode,0
;   firstLayerHeightPercentage,150
;   firstLayerWidthPercentage,100
;   firstLayerUnderspeed,0.5
;   useRaft,0
;   raftExtruder,0
;   raftTopLayers,3
;   raftBaseLayers,2
;   raftOffset,3
;   raftSeparationDistance,0.14
;   raftTopInfill,100
;   aboveRaftSpeedMultiplier,0.3
;   useSkirt,1
;   skirtExtruder,0
;   skirtLayers,2
;   skirtOutlines,2
;   skirtOffset,4
;   usePrimePillar,0
;   primePillarExtruder,999
;   primePillarWidth,12
;   primePillarLocation,7
;   primePillarSpeedMultiplier,1
;   useOozeShield,0
;   oozeShieldExtruder,999
;   oozeShieldOffset,2
;   oozeShieldOutlines,1
;   oozeShieldSidewallShape,1
;   oozeShieldSidewallAngle,30
;   oozeShieldSpeedMultiplier,1
;   infillExtruder,0
;   internalInfillPattern,Triangular
;   externalInfillPattern,Rectilinear
;   infillPercentage,30
;   outlineOverlapPercentage,15
;   infillExtrusionWidthPercentage,150
;   minInfillLength,5
;   infillLayerInterval,1
;   internalInfillAngles,0,60,-60
;   overlapInternalInfillAngles,1
;   externalInfillAngles,45,-45
;   generateSupport,0
;   supportExtruder,0
;   supportInfillPercentage,40
;   supportExtraInflation,1
;   supportBaseLayers,0
;   denseSupportExtruder,0
;   denseSupportLayers,0
;   denseSupportInfillPercentage,70
;   supportLayerInterval,1
;   supportHorizontalPartOffset,1
;   supportUpperSeparationLayers,1
;   supportLowerSeparationLayers,1
;   supportType,0
;   supportGridSpacing,4
;   maxOverhangAngle,45
;   supportAngles,0
;   temperatureName,Primary Extruder
;   temperatureNumber,0
;   temperatureSetpointCount,2
;   temperatureSetpointLayers,1,5
;   temperatureSetpointTemperatures,220,210
;   temperatureStabilizeAtStartup,1
;   temperatureHeatedBed,0
;   fanLayers,1,2
;   fanSpeeds,100,100
;   blipFanToFullPower,0
;   adjustSpeedForCooling,1
;   minSpeedLayerTime,7
;   minCoolingSpeedSlowdown,20
;   increaseFanForCooling,0
;   minFanLayerTime,45
;   maxCoolingFanSpeed,100
;   increaseFanForBridging,0
;   bridgingFanSpeed,100
;   use5D,1
;   relativeEdistances,0
;   allowEaxisZeroing,1
;   independentExtruderAxes,0
;   includeM10123,0
;   stickySupport,1
;   applyToolheadOffsets,0
;   gcodeXoffset,0
;   gcodeYoffset,0
;   gcodeZoffset,0
;   overrideMachineDefinition,1
;   machineTypeOverride,0
;   strokeXoverride,305
;   strokeYoverride,205
;   strokeZoverride,205
;   originOffsetXoverride,0
;   originOffsetYoverride,0
;   originOffsetZoverride,0
;   homeXdirOverride,-1
;   homeYdirOverride,-1
;   homeZdirOverride,-1
;   flipXoverride,1
;   flipYoverride,-1
;   flipZoverride,1
;   toolheadOffsets,0,0|0,0|0,0|0,0|0,0|0,0
;   overrideFirmwareConfiguration,1
;   firmwareTypeOverride,RepRap (Marlin/Repetier/Sprinter)
;   GPXconfigOverride,r2
;   baudRateOverride,115200
;   overridePrinterModels,1
;   printerModelsOverride
;   startingGcode,G28 ; home all axes,G1 Z 2 ; set height for prime line,G92 E0 ; zero extruder,G1 X150 E30 F400 ; prime line
;   layerChangeGcode,
;   retractionGcode,
;   toolChangeGcode,
;   endingGcode,G28 X0 ; home X axis,M104 S0 ; turn off extruder,M84 ; disable motors
;   exportFileFormat,gcode
;   celebration,0
;   celebrationSong,Random Song
;   postProcessing,
;   defaultSpeed,2400
;   outlineUnderspeed,0.5
;   solidInfillUnderspeed,0.8
;   supportUnderspeed,0.8
;   rapidXYspeed,2400
;   rapidZspeed,900
;   minBridgingArea,50
;   bridgingExtraInflation,0
;   bridgingExtrusionMultiplier,1
;   bridgingSpeedMultiplier,1
;   useFixedBridgingAngle,0
;   fixedBridgingAngle,0
;   applyBridgingToPerimeters,0
;   filamentDiameters,1.75|3|3|3|3|3
;   filamentPricesPerKg,46|46|46|46|46|46
;   filamentDensities,1.25|1.25|1.25|1.25|1.25|1.25
;   useMinPrintHeight,0
;   minPrintHeight,0
;   useMaxPrintHeight,0
;   maxPrintHeight,0
;   useDiaphragm,0
;   diaphragmLayerInterval,20
;   robustSlicing,1
;   mergeAllIntoSolid,0
;   onlyRetractWhenCrossingOutline,1
;   retractBetweenLayers,0
;   useRetractionMinTravel,1
;   retractionMinTravel,3
;   retractWhileWiping,0
;   onlyWipeOutlines,1
;   avoidCrossingOutline,1
;   maxMovementDetourFactor,3
;   toolChangeRetractionDistance,12
;   toolChangeExtraRestartDistance,-0.5
;   toolChangeRetractionSpeed,600
;   externalThinWallType,0
;   internalThinWallType,2
;   thinWallAllowedOverlapPercentage,10
;   singleExtrusionMinLength,1
;   singleExtrusionMinPrintingWidthPercentage,50
;   singleExtrusionMaxPrintingWidthPercentage,200
;   singleExtrusionEndpointExtension,0
;   horizontalSizeCompensation,0
G90
M82
M106 S255
M104 S220 T0
M109 S220 T0
G28 ; home all axes
G1 Z 2 ; set height for prime line
G92 E0 ; zero extruder
G1 X150 E30 F400 ; prime line
; process Process1
; layer 1, Z = 0.375
T0
G92 E0.0000
G1 E-5.0000 F3000
; feature skirt
; tool H0.375 W0.360
G1 Z0.375 F900
G1 X68.666 Y57.795 F2400
G1 E0.0000 F3000
G92 E0.0000
G1 X69.324 Y57.078 E0.0492 F1200
G1 X69.464 Y56.938 E0.0592
G1 X70.181 Y56.280 E0.1084
G1 X70.333 Y56.152 E0.1184
G1 X71.106 Y55.560 E0.1676
G1 X71.268 Y55.446 E0.1776
G1 X72.089 Y54.923 E0.2268
G1 X72.261 Y54.824 E0.2368
G1 X73.124 Y54.374 E0.2860
G1 X73.304 Y54.290 E0.2960
G1 X74.204 Y53.918 E0.3451
G1 X74.390 Y53.850 E0.3552
G1 X75.318 Y53.557 E0.4043
G1 X75.510 Y53.506 E0.4143
G1 X76.460 Y53.295 E0.4635
G1 X76.655 Y53.261 E0.4735
G1 X77.621 Y53.134 E0.5227
G1 X77.818 Y53.116 E0.5327
G1 X78.791 Y53.074 E0.5819
G1 X78.989 Y53.074 E0.5919
G1 X79.962 Y53.116 E0.6411
G1 X80.159 Y53.134 E0.6511
G1 X81.125 Y53.261 E0.7003
G1 X81.320 Y53.295 E0.7103
G1 X82.270 Y53.506 E0.7595
G1 X82.462 Y53.557 E0.7695
G1 X83.390 Y53.850 E0.8187
G1 X83.576 Y53.918 E0.8287
G1 X84.476 Y54.290 E0.8779
G1 X84.656 Y54.374 E0.8879
G1 X85.519 Y54.824 E0.9371
G1 X85.691 Y54.923 E0.9471
G1 X86.512 Y55.446 E0.9963
G1 X86.674 Y55.560 E1.0063
G1 X87.447 Y56.152 E1.0555
G1 X87.599 Y56.280 E1.0655
G1 X88.316 Y56.937 E1.1146
G1 X88.457 Y57.078 E1.1247
G1 X89.114 Y57.795 E1.1738
G1 X89.242 Y57.947 E1.1838
G1 X89.834 Y58.720 E1.2330
G1 X89.948 Y58.882 E1.2430
G1 X90.471 Y59.703 E1.2922
G1 X90.570 Y59.875 E1.3022
G1 X91.020 Y60.738 E1.3514
G1 X91.104 Y60.918 E1.3614
G1 X91.476 Y61.817 E1.4106
G1 X91.544 Y62.004 E1.4206
G1 X91.837 Y62.932 E1.4698
G1 X91.888 Y63.124 E1.4798
G1 X92.099 Y64.074 E1.5290
G1 X92.133 Y64.269 E1.5390
G1 X92.260 Y65.235 E1.5882
G1 X92.278 Y65.432 E1.5982
G1 X92.318 Y66.355 E1.6449
G1 X92.320 Y66.454 E1.6499
G1 X92.320 Y95.264 E3.1052
G1 X212.680 Y95.264 E9.1850
G1 X212.680 Y91.454 E9.3774
G1 X212.682 Y91.355 E9.3824
G1 X212.722 Y90.432 E9.4291
G1 X212.740 Y90.235 E9.4391
G1 X212.867 Y89.269 E9.4883
G1 X212.901 Y89.074 E9.4983
G1 X213.112 Y88.124 E9.5475
G1 X213.163 Y87.932 E9.5575
G1 X213.456 Y87.004 E9.6067
G1 X213.524 Y86.818 E9.6167
G1 X213.896 Y85.918 E9.6659
G1 X213.980 Y85.738 E9.6759
G1 X214.430 Y84.875 E9.7251
G1 X214.529 Y84.703 E9.7351
G1 X215.052 Y83.882 E9.7843
G1 X215.166 Y83.720 E9.7943
G1 X215.758 Y82.947 E9.8435
G1 X215.886 Y82.795 E9.8535
G1 X216.543 Y82.078 E9.9027
G1 X216.684 Y81.937 E9.9127
G1 X217.401 Y81.280 E9.9619
G1 X217.553 Y81.152 E9.9719
G1 X218.326 Y80.559 E10.0211
G1 X218.488 Y80.446 E10.0311
G1 X219.309 Y79.923 E10.0802
G1 X219.481 Y79.824 E10.0902
G1 X220.344 Y79.374 E10.1394
G1 X220.524 Y79.290 E10.1494
G1 X221.424 Y78.918 E10.1986
G1 X221.610 Y78.850 E10.2086
G1 X222.538 Y78.557 E10.2578
G1 X222.730 Y78.506 E10.2678
G1 X223.680 Y78.295 E10.3170
G1 X223.875 Y78.261 E10.3270
G1 X224.841 Y78.134 E10.3762
G1 X225.038 Y78.116 E10.3862
G1 X226.011 Y78.074 E10.4354
G1 X226.209 Y78.074 E10.4454
G1 X227.182 Y78.116 E10.4946
G1 X227.379 Y78.134 E10.5046
G1 X228.345 Y78.261 E10.5538
G1 X228.540 Y78.295 E10.5638
G1 X229.490 Y78.506 E10.6130
G1 X229.682 Y78.557 E10.6230
G1 X230.610 Y78.850 E10.6722
G1 X230.796 Y78.918 E10.6822
G1 X231.696 Y79.290 E10.7314
G1 X231.875 Y79.374 E10.7414
G1 X232.739 Y79.824 E10.7905
G1 X232.911 Y79.923 E10.8006
G1 X233.732 Y80.446 E10.8497
G1 X233.894 Y80.560 E10.8598
G1 X234.667 Y81.152 E10.9089
G1 X234.818 Y81.280 E10.9189
G1 X235.536 Y81.937 E10.9681
G1 X235.677 Y82.078 E10.9781
G1 X236.334 Y82.795 E11.0273
G1 X236.462 Y82.947 E11.0373
G1 X237.054 Y83.720 E11.0865
G1 X237.168 Y83.882 E11.0965
G1 X237.691 Y84.703 E11.1457
G1 X237.790 Y84.875 E11.1557
G1 X238.240 Y85.738 E11.2049
G1 X238.324 Y85.918 E11.2149
G1 X238.696 Y86.818 E11.2641
G1 X238.764 Y87.004 E11.2741
G1 X239.057 Y87.932 E11.3233
G1 X239.108 Y88.124 E11.3333
G1 X239.319 Y89.074 E11.3825
G1 X239.353 Y89.269 E11.3925
G1 X239.480 Y90.235 E11.4417
G1 X239.498 Y90.432 E11.4517
G1 X239.538 Y91.355 E11.4984
G1 X239.540 Y91.454 E11.5034
G1 X239.540 Y114.385 E12.6616
G1 X236.881 Y117.044 E12.8516
G1 X235.759 Y117.044 E12.9083
G1 X235.873 Y117.163 E12.9166
G1 X236.498 Y117.874 E12.9645
G1 X236.620 Y118.024 E12.9742
G1 X237.183 Y118.786 E13.0221
G1 X237.291 Y118.945 E13.0318
G1 X237.788 Y119.752 E13.0797
G1 X237.882 Y119.920 E13.0894
G1 X238.308 Y120.766 E13.1373
G1 X238.387 Y120.942 E13.1470
G1 X238.741 Y121.821 E13.1948
G1 X238.805 Y122.003 E13.2046
G1 X239.082 Y122.909 E13.2524
G1 X239.131 Y123.095 E13.2622
G1 X239.331 Y124.021 E13.3100
G1 X239.363 Y124.211 E13.3198
G1 X239.483 Y125.151 E13.3676
G1 X239.500 Y125.343 E13.3774
G1 X239.538 Y126.242 E13.4228
G1 X239.540 Y126.338 E13.4277
G1 X239.540 Y149.267 E14.5859
G1 X236.880 Y151.926 E14.7759
G1 X68.119 Y151.926 E23.3006
G1 X65.460 Y149.267 E23.4906
G1 X65.460 Y126.338 E24.6488
G1 X65.462 Y126.241 E24.6537
G1 X65.500 Y125.343 E24.6991
G1 X65.517 Y125.151 E24.7088
G1 X65.637 Y124.211 E24.7567
G1 X65.669 Y124.021 E24.7664
G1 X65.869 Y123.095 E24.8143
G1 X65.918 Y122.909 E24.8240
G1 X66.195 Y122.003 E24.8719
G1 X66.259 Y121.821 E24.8816
G1 X66.612 Y120.942 E24.9295
G1 X66.692 Y120.766 E24.9392
G1 X67.118 Y119.920 E24.9871
G1 X67.212 Y119.752 E24.9968
G1 X67.709 Y118.945 E25.0447
G1 X67.817 Y118.786 E25.0544
G1 X68.380 Y118.024 E25.1023
G1 X68.502 Y117.874 E25.1120
G1 X69.127 Y117.163 E25.1599
G1 X69.241 Y117.044 E25.1682
G1 X68.119 Y117.044 E25.2248
G1 X65.460 Y114.385 E25.4148
G1 X65.460 Y66.454 E27.8360
G1 X65.462 Y66.355 E27.8410
G1 X65.502 Y65.432 E27.8876
G1 X65.520 Y65.235 E27.8977
G1 X65.647 Y64.269 E27.9468
G1 X65.681 Y64.074 E27.9568
G1 X65.892 Y63.124 E28.0060
G1 X65.943 Y62.932 E28.0160
G1 X66.236 Y62.004 E28.0652
G1 X66.304 Y61.817 E28.0752
G1 X66.676 Y60.918 E28.1244
G1 X66.760 Y60.738 E28.1344
G1 X67.210 Y59.875 E28.1836
G1 X67.309 Y59.703 E28.1936
G1 X67.832 Y58.882 E28.2428
G1 X67.946 Y58.720 E28.2528
G1 X68.538 Y57.947 E28.3020
G1 X68.666 Y57.795 E28.3120
G1 X68.819 Y58.173 F2400
G92 E0.0000
G1 X68.936 Y58.033 E0.0092 F1200
G1 X69.584 Y57.327 E0.0576
G1 X69.713 Y57.198 E0.0668
G1 X70.419 Y56.550 E0.1152
G1 X70.559 Y56.433 E0.1244
G1 X71.319 Y55.850 E0.1728
G1 X71.468 Y55.745 E0.1820
G1 X72.276 Y55.231 E0.2304
G1 X72.434 Y55.139 E0.2396
G1 X73.284 Y54.697 E0.2880
G1 X73.449 Y54.620 E0.2972
G1 X74.334 Y54.253 E0.3456
G1 X74.505 Y54.191 E0.3548
G1 X75.419 Y53.903 E0.4032
G1 X75.595 Y53.856 E0.4124
G1 X76.531 Y53.648 E0.4608
G1 X76.710 Y53.617 E0.4701
G1 X77.660 Y53.492 E0.5184
G1 X77.842 Y53.476 E0.5277
G1 X78.799 Y53.434 E0.5760
G1 X78.981 Y53.434 E0.5853
G1 X79.938 Y53.476 E0.6337
G1 X80.120 Y53.492 E0.6429
G1 X81.070 Y53.617 E0.6913
G1 X81.249 Y53.648 E0.7005
G1 X82.185 Y53.856 E0.7489
G1 X82.361 Y53.903 E0.7581
G1 X83.275 Y54.191 E0.8065
G1 X83.446 Y54.253 E0.8157
G1 X84.331 Y54.620 E0.8641
G1 X84.496 Y54.697 E0.8733
G1 X85.346 Y55.139 E0.9217
G1 X85.504 Y55.231 E0.9309
G1 X86.312 Y55.745 E0.9793
G1 X86.461 Y55.850 E0.9885
G1 X87.221 Y56.433 E1.0369
G1 X87.361 Y56.550 E1.0461
G1 X88.067 Y57.198 E1.0945
G1 X88.196 Y57.327 E1.1037
G1 X88.844 Y58.033 E1.1521
G1 X88.961 Y58.173 E1.1613
G1 X89.544 Y58.933 E1.2097
G1 X89.649 Y59.082 E1.2189
G1 X90.163 Y59.890 E1.2673
G1 X90.255 Y60.048 E1.2765
G1 X90.697 Y60.898 E1.3249
G1 X90.774 Y61.063 E1.3341
G1 X91.141 Y61.948 E1.3825
G1 X91.203 Y62.119 E1.3917
G1 X91.491 Y63.033 E1.4401
G1 X91.538 Y63.209 E1.4493
G1 X91.746 Y64.145 E1.4977
G1 X91.777 Y64.324 E1.5069
G1 X91.902 Y65.274 E1.5553
G1 X91.918 Y65.456 E1.5646
G1 X91.958 Y66.367 E1.6106
G1 X91.960 Y66.458 E1.6152
G1 X91.960 Y95.624 E3.0885
G1 X213.040 Y95.624 E9.2047
G1 X213.040 Y91.458 E9.4151
G1 X213.042 Y91.367 E9.4198
G1 X213.082 Y90.456 E9.4658
G1 X213.098 Y90.274 E9.4751
G1 X213.223 Y89.324 E9.5234
G1 X213.254 Y89.145 E9.5327
G1 X213.462 Y88.209 E9.5811
G1 X213.509 Y88.033 E9.5903
G1 X213.797 Y87.119 E9.6387
G1 X213.859 Y86.948 E9.6479
G1 X214.226 Y86.063 E9.6963
G1 X214.303 Y85.898 E9.7055
G1 X214.745 Y85.048 E9.7539
G1 X214.837 Y84.890 E9.7631
G1 X215.351 Y84.082 E9.8115
G1 X215.456 Y83.933 E9.8207
G1 X216.039 Y83.173 E9.8691
G1 X216.156 Y83.033 E9.8783
G1 X216.804 Y82.327 E9.9267
G1 X216.933 Y82.198 E9.9359
G1 X217.639 Y81.550 E9.9843
G1 X217.779 Y81.433 E9.9935
G1 X218.539 Y80.850 E10.0419
G1 X218.688 Y80.745 E10.0511
G1 X219.496 Y80.231 E10.0995
G1 X219.654 Y80.139 E10.1087
G1 X220.504 Y79.697 E10.1571
G1 X220.669 Y79.620 E10.1663
G1 X221.554 Y79.253 E10.2147
G1 X221.726 Y79.191 E10.2239
G1 X222.639 Y78.903 E10.2723
G1 X222.815 Y78.856 E10.2815
G1 X223.751 Y78.648 E10.3299
G1 X223.930 Y78.617 E10.3391
G1 X224.880 Y78.492 E10.3875
G1 X225.062 Y78.476 E10.3967
G1 X226.019 Y78.434 E10.4451
G1 X226.201 Y78.434 E10.4543
G1 X227.158 Y78.476 E10.5027
G1 X227.340 Y78.492 E10.5120
G1 X228.290 Y78.617 E10.5603
G1 X228.469 Y78.648 E10.5696
G1 X229.405 Y78.856 E10.6179
G1 X229.581 Y78.903 E10.6272
G1 X230.495 Y79.191 E10.6756
G1 X230.666 Y79.253 E10.6848
G1 X231.551 Y79.620 E10.7332
G1 X231.716 Y79.697 E10.7424
G1 X232.566 Y80.139 E10.7908
G1 X232.724 Y80.231 E10.8000
G1 X233.532 Y80.745 E10.8484
G1 X233.681 Y80.850 E10.8576
G1 X234.441 Y81.433 E10.9060
G1 X234.581 Y81.550 E10.9152
G1 X235.287 Y82.198 E10.9636
G1 X235.416 Y82.327 E10.9728
G1 X236.064 Y83.033 E11.0212
G1 X236.181 Y83.173 E11.0304
G1 X236.764 Y83.933 E11.0788
G1 X236.869 Y84.082 E11.0880
G1 X237.383 Y84.890 E11.1364
G1 X237.475 Y85.048 E11.1456
G1 X237.917 Y85.898 E11.1940
G1 X237.994 Y86.063 E11.2032
G1 X238.361 Y86.948 E11.2516
G1 X238.423 Y87.119 E11.2608
G1 X238.711 Y88.033 E11.3092
G1 X238.758 Y88.209 E11.3184
G1 X238.966 Y89.145 E11.3668
G1 X238.997 Y89.324 E11.3760
G1 X239.122 Y90.274 E11.4244
G1 X239.138 Y90.456 E11.4336
G1 X239.178 Y91.367 E11.4797
G1 X239.180 Y91.458 E11.4843
G1 X239.180 Y114.235 E12.6349
G1 X236.731 Y116.684 E12.8098
G1 X234.864 Y116.684 E12.9041
G1 X235.485 Y117.278 E12.9475
G1 X235.607 Y117.406 E12.9565
G1 X236.223 Y118.106 E13.0035
G1 X236.335 Y118.244 E13.0125
G1 X236.889 Y118.994 E13.0596
G1 X236.988 Y119.141 E13.0686
G1 X237.477 Y119.934 E13.1156
G1 X237.564 Y120.089 E13.1246
G1 X237.983 Y120.922 E13.1717
G1 X238.056 Y121.083 E13.1807
G1 X238.404 Y121.948 E13.2277
G1 X238.463 Y122.116 E13.2367
G1 X238.736 Y123.007 E13.2838
G1 X238.781 Y123.178 E13.2927
G1 X238.977 Y124.090 E13.3398
G1 X239.007 Y124.265 E13.3488
G1 X239.125 Y125.189 E13.3959
G1 X239.140 Y125.366 E13.4049
G1 X239.178 Y126.253 E13.4497
G1 X239.180 Y126.342 E13.4542
G1 X239.180 Y149.117 E14.6047
G1 X236.731 Y151.566 E14.7796
G1 X68.269 Y151.566 E23.2893
G1 X65.820 Y149.117 E23.4642
