; G-Code generated by Simplify3D(R) Version 4.1.2
; Jul 11, 2021 at 5:12:54 PM
; Settings Summary
;   processName,Process1
;   applyToModels,JRCNC0014 MIRROR v4
;   profileName,JR NORMAL
;   profileVersion,2021-06-28 21:15:49
;   baseProfile,Wanhao Duplicator 5S Mini
;   printMaterial,PLA
;   printQuality,0.25
;   printExtruders,
;   extruderName,Primary Extruder
;   extruderToolheadNumber,0
;   extruderDiameter,0.3
;   extruderAutoWidth,1
;   extruderWidth,0.36
;   extrusionMultiplier,0.9
;   extruderUseRetract,1
;   extruderRetractionDistance,5
;   extruderExtraRestartDistance,0
;   extruderRetractionZLift,0
;   extruderRetractionSpeed,3000
;   extruderUseCoasting,0
;   extruderCoastingDistance,1.5
;   extruderUseWipe,0
;   extruderWipeDistance,5
;   primaryExtruder,0
;   layerHeight,0.25
;   topSolidLayers,3
;   bottomSolidLayers,3
;   perimeterOutlines,3
;   printPerimetersInsideOut,1
;   startPointOption,3
;   startPointOriginX,0
;   startPointOriginY,0
;   sequentialIslands,0
;   spiralVaseMode,0
;   firstLayerHeightPercentage,150
;   firstLayerWidthPercentage,100
;   firstLayerUnderspeed,0.5
;   useRaft,0
;   raftExtruder,0
;   raftTopLayers,3
;   raftBaseLayers,2
;   raftOffset,3
;   raftSeparationDistance,0.14
;   raftTopInfill,100
;   aboveRaftSpeedMultiplier,0.3
;   useSkirt,1
;   skirtExtruder,0
;   skirtLayers,2
;   skirtOutlines,2
;   skirtOffset,4
;   usePrimePillar,0
;   primePillarExtruder,999
;   primePillarWidth,12
;   primePillarLocation,7
;   primePillarSpeedMultiplier,1
;   useOozeShield,0
;   oozeShieldExtruder,999
;   oozeShieldOffset,2
;   oozeShieldOutlines,1
;   oozeShieldSidewallShape,1
;   oozeShieldSidewallAngle,30
;   oozeShieldSpeedMultiplier,1
;   infillExtruder,0
;   internalInfillPattern,Triangular
;   externalInfillPattern,Rectilinear
;   infillPercentage,30
;   outlineOverlapPercentage,15
;   infillExtrusionWidthPercentage,150
;   minInfillLength,5
;   infillLayerInterval,1
;   internalInfillAngles,0,60,-60
;   overlapInternalInfillAngles,1
;   externalInfillAngles,45,-45
;   generateSupport,1
;   supportExtruder,0
;   supportInfillPercentage,40
;   supportExtraInflation,1
;   supportBaseLayers,0
;   denseSupportExtruder,0
;   denseSupportLayers,0
;   denseSupportInfillPercentage,70
;   supportLayerInterval,1
;   supportHorizontalPartOffset,1
;   supportUpperSeparationLayers,1
;   supportLowerSeparationLayers,1
;   supportType,0
;   supportGridSpacing,4
;   maxOverhangAngle,45
;   supportAngles,0
;   temperatureName,Primary Extruder
;   temperatureNumber,0
;   temperatureSetpointCount,2
;   temperatureSetpointLayers,1,5
;   temperatureSetpointTemperatures,220,210
;   temperatureStabilizeAtStartup,1
;   temperatureHeatedBed,0
;   fanLayers,1,2
;   fanSpeeds,100,100
;   blipFanToFullPower,0
;   adjustSpeedForCooling,1
;   minSpeedLayerTime,7
;   minCoolingSpeedSlowdown,20
;   increaseFanForCooling,0
;   minFanLayerTime,45
;   maxCoolingFanSpeed,100
;   increaseFanForBridging,0
;   bridgingFanSpeed,100
;   use5D,1
;   relativeEdistances,0
;   allowEaxisZeroing,1
;   independentExtruderAxes,0
;   includeM10123,0
;   stickySupport,1
;   applyToolheadOffsets,0
;   gcodeXoffset,0
;   gcodeYoffset,0
;   gcodeZoffset,0
;   overrideMachineDefinition,0
;   machineTypeOverride,0
;   strokeXoverride,305
;   strokeYoverride,205
;   strokeZoverride,205
;   originOffsetXoverride,0
;   originOffsetYoverride,0
;   originOffsetZoverride,0
;   homeXdirOverride,-1
;   homeYdirOverride,-1
;   homeZdirOverride,-1
;   flipXoverride,1
;   flipYoverride,-1
;   flipZoverride,1
;   toolheadOffsets,0,0|0,0|0,0|0,0|0,0|0,0
;   overrideFirmwareConfiguration,1
;   firmwareTypeOverride,RepRap (Marlin/Repetier/Sprinter)
;   GPXconfigOverride,r2
;   baudRateOverride,115200
;   overridePrinterModels,1
;   printerModelsOverride
;   startingGcode,G28 ; home all axes,G1 Z 2 ; set height for prime line,G92 E0 ; zero extruder,G1 X150 E30 F400 ; prime line
;   layerChangeGcode,
;   retractionGcode,
;   toolChangeGcode,
;   endingGcode,G28 X0 ; home X axis,M104 S0 ; turn off extruder,M84 ; disable motors
;   exportFileFormat,gcode
;   celebration,0
;   celebrationSong,Random Song
;   postProcessing,
;   defaultSpeed,2400
;   outlineUnderspeed,0.5
;   solidInfillUnderspeed,0.8
;   supportUnderspeed,0.8
;   rapidXYspeed,2400
;   rapidZspeed,900
;   minBridgingArea,50
;   bridgingExtraInflation,0
;   bridgingExtrusionMultiplier,1
;   bridgingSpeedMultiplier,1
;   useFixedBridgingAngle,0
;   fixedBridgingAngle,0
;   applyBridgingToPerimeters,0
;   filamentDiameters,1.75|3|3|3|3|3
;   filamentPricesPerKg,46|46|46|46|46|46
;   filamentDensities,1.25|1.25|1.25|1.25|1.25|1.25
;   useMinPrintHeight,0
;   minPrintHeight,0
;   useMaxPrintHeight,0
;   maxPrintHeight,0
;   useDiaphragm,0
;   diaphragmLayerInterval,20
;   robustSlicing,1
;   mergeAllIntoSolid,0
;   onlyRetractWhenCrossingOutline,1
;   retractBetweenLayers,0
;   useRetractionMinTravel,1
;   retractionMinTravel,3
;   retractWhileWiping,0
;   onlyWipeOutlines,1
;   avoidCrossingOutline,1
;   maxMovementDetourFactor,3
;   toolChangeRetractionDistance,12
;   toolChangeExtraRestartDistance,-0.5
;   toolChangeRetractionSpeed,600
;   externalThinWallType,0
;   internalThinWallType,2
;   thinWallAllowedOverlapPercentage,10
;   singleExtrusionMinLength,1
;   singleExtrusionMinPrintingWidthPercentage,50
;   singleExtrusionMaxPrintingWidthPercentage,200
;   singleExtrusionEndpointExtension,0
;   horizontalSizeCompensation,0
G90
M82
M106 S255
M104 S220 T0
M109 S220 T0
G28 ; home all axes
G1 Z 2 ; set height for prime line
G92 E0 ; zero extruder
G1 X150 E30 F400 ; prime line
; process Process1
; layer 1, Z = 0.375
T0
G92 E0.0000
G1 E-5.0000 F3000
; feature skirt
; tool H0.375 W0.360
G1 Z0.375 F900
G1 X139.806 Y70.770 F2400
G1 E0.0000 F3000
G92 E0.0000
G1 X139.812 Y70.756 E0.0008 F1200
G1 X139.875 Y70.626 E0.0081
G1 X140.251 Y69.907 E0.0490
G1 X140.263 Y69.884 E0.0503
G1 X140.265 Y69.880 E0.0506
G1 X140.306 Y69.807 E0.0548
G1 X140.338 Y69.751 E0.0581
G1 X140.511 Y69.468 E0.0748
G1 X140.769 Y69.044 E0.0999
G1 X140.774 Y69.035 E0.1004
G1 X140.777 Y69.030 E0.1007
G1 X140.810 Y68.981 E0.1037
G1 X140.846 Y68.925 E0.1070
G1 X140.850 Y68.920 E0.1074
G1 X140.854 Y68.914 E0.1077
G1 X141.041 Y68.647 E0.1242
G1 X141.308 Y68.266 E0.1477
G1 X141.324 Y68.244 E0.1491
G1 X141.327 Y68.239 E0.1494
G1 X141.377 Y68.173 E0.1535
G1 X141.417 Y68.119 E0.1569
G1 X141.437 Y68.095 E0.1585
G1 X141.916 Y67.498 E0.1972
G1 X141.926 Y67.484 E0.1980
G1 X142.020 Y67.375 E0.2053
G1 X142.587 Y66.753 E0.2478
G1 X142.646 Y66.693 E0.2521
G1 X142.692 Y66.646 E0.2554
G1 X142.954 Y66.393 E0.2738
G1 X143.289 Y66.071 E0.2973
G1 X143.400 Y65.971 E0.3048
G1 X143.672 Y65.741 E0.3228
G1 X144.032 Y65.438 E0.3466
G1 X144.053 Y65.421 E0.3480
G1 X144.148 Y65.345 E0.3541
G1 X144.793 Y64.868 E0.3946
G1 X144.803 Y64.861 E0.3952
G1 X144.922 Y64.778 E0.4026
G1 X145.629 Y64.321 E0.4451
G1 X145.731 Y64.260 E0.4511
G1 X145.758 Y64.243 E0.4527
G1 X145.995 Y64.112 E0.4664
G1 X146.480 Y63.841 E0.4944
G1 X146.491 Y63.835 E0.4951
G1 X146.540 Y63.810 E0.4978
G1 X146.611 Y63.773 E0.5019
G1 X146.618 Y63.770 E0.5023
G1 X146.914 Y63.629 E0.5189
G1 X147.361 Y63.417 E0.5438
G1 X147.482 Y63.364 E0.5505
G1 X147.497 Y63.357 E0.5513
G1 X148.244 Y63.059 E0.5920
G1 X148.253 Y63.055 E0.5925
G1 X148.389 Y63.006 E0.5998
G1 X149.190 Y62.744 E0.6423
G1 X149.309 Y62.709 E0.6486
G1 X149.336 Y62.701 E0.6500
G1 X149.630 Y62.626 E0.6654
G1 X150.135 Y62.497 E0.6917
G1 X150.150 Y62.493 E0.6925
G1 X150.179 Y62.487 E0.6940
G1 X150.278 Y62.465 E0.6991
G1 X150.283 Y62.464 E0.6994
G1 X150.289 Y62.463 E0.6996
G1 X150.549 Y62.413 E0.7130
G1 X151.094 Y62.311 E0.7410
G1 X151.237 Y62.288 E0.7484
G1 X151.244 Y62.287 E0.7487
G1 X152.042 Y62.189 E0.7894
G1 X152.048 Y62.188 E0.7897
G1 X152.194 Y62.175 E0.7970
G1 X153.034 Y62.126 E0.8396
G1 X153.183 Y62.122 E0.8471
G1 X153.190 Y62.122 E0.8474
G1 X153.481 Y62.124 E0.8621
G1 X154.013 Y62.127 E0.8890
G1 X154.166 Y62.133 E0.8967
G1 X154.430 Y62.152 E0.9101
G1 X154.987 Y62.192 E0.9383
G1 X155.136 Y62.207 E0.9459
G1 X155.934 Y62.315 E0.9866
G1 X155.943 Y62.317 E0.9870
G1 X156.086 Y62.341 E0.9943
G1 X156.910 Y62.507 E1.0368
G1 X157.057 Y62.542 E1.0445
G1 X157.063 Y62.543 E1.0447
G1 X157.316 Y62.612 E1.0580
G1 X157.855 Y62.757 E1.0862
G1 X157.994 Y62.800 E1.0935
G1 X158.000 Y62.802 E1.0938
G1 X158.007 Y62.804 E1.0942
G1 X158.255 Y62.889 E1.1075
G1 X158.781 Y63.068 E1.1355
G1 X158.916 Y63.119 E1.1428
G1 X158.925 Y63.122 E1.1433
G1 X159.668 Y63.430 E1.1839
G1 X159.673 Y63.432 E1.1842
G1 X159.806 Y63.492 E1.1916
G1 X160.562 Y63.863 E1.2341
G1 X160.696 Y63.934 E1.2418
G1 X161.391 Y64.334 E1.2823
G1 X161.406 Y64.342 E1.2831
G1 X161.410 Y64.345 E1.2834
G1 X161.534 Y64.421 E1.2907
G1 X162.057 Y64.768 E1.3225
G1 X162.206 Y64.867 E1.3315
G1 X162.214 Y64.872 E1.3319
G1 X162.334 Y64.957 E1.3394
G1 X162.782 Y65.297 E1.3678
G1 X162.987 Y65.452 E1.3808
G1 X162.995 Y65.459 E1.3813
G1 X163.110 Y65.552 E1.3888
G1 X163.746 Y66.103 E1.4313
G1 X163.854 Y66.203 E1.4387
G1 X163.859 Y66.208 E1.4391
G1 X164.431 Y66.772 E1.4796
G1 X164.435 Y66.776 E1.4799
G1 X164.535 Y66.882 E1.4873
G1 X164.908 Y67.300 E1.5156
G1 X165.082 Y67.494 E1.5288
G1 X165.086 Y67.499 E1.5291
G1 X165.181 Y67.613 E1.5366
G1 X165.519 Y68.044 E1.5643
G1 X165.688 Y68.260 E1.5781
G1 X165.693 Y68.267 E1.5785
G1 X165.781 Y68.386 E1.5860
G1 X166.255 Y69.080 E1.6285
G1 X166.332 Y69.202 E1.6358
G1 X166.338 Y69.211 E1.6363
G1 X166.341 Y69.216 E1.6366
G1 X166.746 Y69.900 E1.6767
G1 X166.749 Y69.906 E1.6771
G1 X166.752 Y69.911 E1.6774
G1 X166.805 Y70.006 E1.6829
G1 X166.814 Y70.023 E1.6839
G1 X166.821 Y70.036 E1.6846
G1 X167.063 Y70.511 E1.7115
G1 X167.193 Y70.765 E1.7260
G1 X167.198 Y70.776 E1.7265
G1 X167.260 Y70.907 E1.7339
G1 X167.470 Y71.396 E1.7608
G1 X167.584 Y71.661 E1.7753
G1 X167.588 Y71.669 E1.7758
G1 X167.641 Y71.806 E1.7832
G1 X167.815 Y72.293 E1.8093
G1 X167.917 Y72.580 E1.8247
G1 X167.919 Y72.587 E1.8251
G1 X167.964 Y72.726 E1.8325
G1 X168.104 Y73.216 E1.8582
G1 X168.190 Y73.518 E1.8740
G1 X168.192 Y73.527 E1.8745
G1 X168.228 Y73.669 E1.8819
G1 X168.406 Y74.491 E1.9244
G1 X168.432 Y74.635 E1.9318
G1 X168.434 Y74.645 E1.9323
G1 X168.552 Y75.435 E1.9727
G1 X168.553 Y75.442 E1.9730
G1 X168.554 Y75.447 E1.9733
G1 X168.563 Y75.531 E1.9776
G1 X168.569 Y75.576 E1.9799
G1 X168.570 Y75.589 E1.9805
G1 X168.613 Y76.090 E2.0059
G1 X168.640 Y76.406 E2.0219
G1 X168.640 Y76.416 E2.0224
G1 X168.646 Y76.519 E2.0276
G1 X168.647 Y76.552 E2.0293
G1 X168.648 Y76.561 E2.0297
G1 X168.658 Y77.061 E2.0550
G1 X168.665 Y77.388 E2.0715
G1 X168.663 Y77.536 E2.0790
G1 X168.642 Y78.023 E2.1037
G1 X168.627 Y78.364 E2.1209
G1 X168.622 Y78.429 E2.1242
G1 X168.615 Y78.512 E2.1284
G1 X168.615 Y78.520 E2.1288
G1 X168.612 Y78.543 E2.1300
G1 X168.524 Y79.350 E2.1710
G1 X168.503 Y79.494 E2.1783
G1 X168.501 Y79.507 E2.1790
G1 X168.364 Y80.293 E2.2193
G1 X168.362 Y80.300 E2.2196
G1 X168.361 Y80.305 E2.2199
G1 X168.346 Y80.378 E2.2237
G1 X168.335 Y80.433 E2.2265
G1 X168.332 Y80.444 E2.2271
G1 X168.216 Y80.926 E2.2521
G1 X168.139 Y81.245 E2.2687
G1 X168.126 Y81.292 E2.2711
G1 X168.099 Y81.388 E2.2762
G1 X167.953 Y81.860 E2.3011
G1 X167.855 Y82.175 E2.3178
G1 X167.852 Y82.182 E2.3182
G1 X167.850 Y82.188 E2.3185
G1 X167.827 Y82.255 E2.3221
G1 X167.809 Y82.307 E2.3249
G1 X167.807 Y82.312 E2.3252
G1 X167.804 Y82.322 E2.3257
G1 X167.628 Y82.781 E2.3505
G1 X167.508 Y83.094 E2.3674
G1 X167.495 Y83.124 E2.3691
G1 X167.450 Y83.232 E2.3750
G1 X167.098 Y83.996 E2.4175
G1 X167.034 Y84.126 E2.4248
G1 X167.025 Y84.143 E2.4258
G1 X166.646 Y84.844 E2.4661
G1 X166.617 Y84.894 E2.4689
G1 X166.572 Y84.972 E2.4735
G1 X166.342 Y85.339 E2.4954
G1 X166.163 Y85.625 E2.5124
G1 X166.138 Y85.665 E2.5148
G1 X166.135 Y85.670 E2.5151
G1 X166.132 Y85.676 E2.5155
G1 X166.092 Y85.735 E2.5191
G1 X166.053 Y85.794 E2.5226
G1 X166.046 Y85.803 E2.5232
G1 X166.019 Y85.840 E2.5255
G1 X165.794 Y86.153 E2.5450
G1 X165.568 Y86.467 E2.5645
G1 X165.563 Y86.474 E2.5650
G1 X165.558 Y86.481 E2.5654
G1 X165.519 Y86.531 E2.5686
G1 X165.482 Y86.579 E2.5717
G1 X165.478 Y86.585 E2.5720
G1 X165.472 Y86.592 E2.5725
G1 X164.940 Y87.238 E2.6148
G1 X164.845 Y87.347 E2.6221
G1 X164.833 Y87.360 E2.6230
G1 X164.293 Y87.937 E2.6629
G1 X164.283 Y87.947 E2.6636
G1 X164.272 Y87.958 E2.6644
G1 X164.235 Y87.995 E2.6670
G1 X164.202 Y88.029 E2.6694
G1 X164.191 Y88.039 E2.6702
G1 X164.178 Y88.052 E2.6711
G1 X163.818 Y88.390 E2.6960
G1 X163.581 Y88.613 E2.7125
G1 X163.573 Y88.620 E2.7130
G1 X163.520 Y88.666 E2.7166
G1 X163.471 Y88.710 E2.7199
G1 X163.467 Y88.714 E2.7202
G1 X163.092 Y89.023 E2.7447
G1 X162.902 Y89.180 E2.7572
G1 X162.857 Y89.217 E2.7601
G1 X162.838 Y89.232 E2.7613
G1 X162.819 Y89.248 E2.7626
G1 X162.772 Y89.284 E2.7656
G1 X162.722 Y89.323 E2.7688
G1 X162.702 Y89.337 E2.7700
G1 X162.684 Y89.352 E2.7712
G1 X162.636 Y89.385 E2.7742
G1 X162.372 Y89.576 E2.7906
G1 X162.052 Y89.807 E2.8105
G1 X161.956 Y89.872 E2.8164
G1 X161.921 Y89.896 E2.8185
G1 X161.882 Y89.920 E2.8208
G1 X161.567 Y90.119 E2.8397
G1 X161.288 Y90.294 E2.8563
G1 X161.232 Y90.329 E2.8596
G1 X161.222 Y90.336 E2.8603
G1 X161.213 Y90.341 E2.8608
G1 X161.157 Y90.374 E2.8641
G1 X161.096 Y90.410 E2.8676
G1 X161.087 Y90.414 E2.8681
G1 X161.081 Y90.418 E2.8685
G1 X161.023 Y90.449 E2.8718
G1 X160.009 Y90.999 E2.9301
G1 X159.736 Y91.172 E2.9464
G1 X159.473 Y91.362 E2.9628
G1 X159.223 Y91.570 E2.9792
G1 X158.988 Y91.793 E2.9956
G1 X158.768 Y92.032 E3.0120
G1 X158.563 Y92.284 E3.0284
G1 X158.376 Y92.549 E3.0448
G1 X158.207 Y92.826 E3.0612
G1 X158.088 Y93.051 E3.0740
G1 X157.915 Y93.475 E3.0972
G1 X157.915 Y93.893 E3.1183
G1 X157.938 Y93.905 E3.1196
G1 X158.121 Y94.007 E3.1302
G1 X158.691 Y94.361 E3.1641
G1 X158.863 Y94.480 E3.1747
G1 X159.398 Y94.885 E3.2085
G1 X159.559 Y95.019 E3.2191
G1 X160.054 Y95.471 E3.2530
G1 X160.202 Y95.619 E3.2636
G1 X160.653 Y96.115 E3.2975
G1 X160.787 Y96.277 E3.3080
G1 X161.191 Y96.812 E3.3419
G1 X161.309 Y96.985 E3.3525
G1 X161.662 Y97.556 E3.3864
G1 X161.764 Y97.739 E3.3970
G1 X162.062 Y98.340 E3.4308
G1 X162.147 Y98.531 E3.4414
G1 X162.389 Y99.157 E3.4753
G1 X162.455 Y99.355 E3.4859
G1 X162.638 Y100.000 E3.5198
G1 X162.686 Y100.205 E3.5304
G1 X162.809 Y100.864 E3.5642
G1 X162.838 Y101.071 E3.5748
G1 X162.900 Y101.739 E3.6087
G1 X162.910 Y101.948 E3.6193
G1 X162.910 Y102.619 E3.6532
G1 X162.900 Y102.828 E3.6637
G1 X162.838 Y103.496 E3.6976
G1 X162.809 Y103.703 E3.7082
G1 X162.686 Y104.363 E3.7421
G1 X162.638 Y104.567 E3.7527
G1 X162.455 Y105.212 E3.7865
G1 X162.389 Y105.411 E3.7971
G1 X162.147 Y106.036 E3.8310
G1 X162.062 Y106.228 E3.8416
G1 X161.764 Y106.828 E3.8754
G1 X161.662 Y107.011 E3.8860
G1 X161.309 Y107.582 E3.9199
G1 X161.191 Y107.755 E3.9305
G1 X160.787 Y108.290 E3.9644
G1 X160.653 Y108.452 E3.9750
G1 X160.202 Y108.948 E4.0088
G1 X160.054 Y109.096 E4.0194
G1 X159.559 Y109.549 E4.0533
G1 X159.398 Y109.683 E4.0639
G1 X158.863 Y110.087 E4.0978
G1 X158.691 Y110.206 E4.1083
G1 X158.121 Y110.560 E4.1422
G1 X157.938 Y110.662 E4.1528
G1 X157.338 Y110.962 E4.1867
G1 X157.147 Y111.047 E4.1973
G1 X156.523 Y111.290 E4.2311
G1 X156.326 Y111.356 E4.2416
G1 X156.043 Y111.438 E4.2565
G1 X155.584 Y111.665 E4.2823
G1 X154.563 Y111.904 E4.3353
G1 X140.995 Y111.904 E5.0207
G1 X138.335 Y109.244 E5.2107
G1 X138.335 Y77.247 E6.8270
G1 X138.336 Y77.174 E6.8307
G1 X138.357 Y76.526 E6.8634
G1 X138.357 Y76.490 E6.8652
G1 X138.361 Y76.418 E6.8689
G1 X138.363 Y76.358 E6.8719
G1 X138.365 Y76.321 E6.8738
G1 X138.368 Y76.271 E6.8763
G1 X138.373 Y76.212 E6.8793
G1 X138.377 Y76.165 E6.8817
G1 X138.383 Y76.116 E6.8842
G1 X138.392 Y76.019 E6.8891
G1 X138.439 Y75.537 E6.9136
G1 X138.442 Y75.494 E6.9158
G1 X138.448 Y75.438 E6.9186
G1 X138.452 Y75.400 E6.9205
G1 X138.458 Y75.355 E6.9228
G1 X138.465 Y75.292 E6.9260
G1 X138.471 Y75.255 E6.9279
G1 X138.474 Y75.236 E6.9289
G1 X138.484 Y75.174 E6.9320
G1 X138.598 Y74.474 E6.9679
G1 X138.601 Y74.456 E6.9688
G1 X138.629 Y74.315 E6.9761
G1 X138.795 Y73.584 E7.0139
G1 X138.808 Y73.526 E7.0170
G1 X138.813 Y73.506 E7.0180
G1 X138.818 Y73.486 E7.0190
