; G-Code generated by Simplify3D(R) Version 4.1.2
; Jul 12, 2021 at 11:33:40 PM
; Settings Summary
;   processName,Process1
;   applyToModels,JRCNC0016 v12
;   profileName,JR NORMAL (modified)
;   profileVersion,2021-06-28 21:15:49
;   baseProfile,Wanhao Duplicator 5S Mini
;   printMaterial,PLA
;   printQuality,0.25
;   printExtruders,
;   extruderName,Primary Extruder
;   extruderToolheadNumber,0
;   extruderDiameter,0.3
;   extruderAutoWidth,1
;   extruderWidth,0.36
;   extrusionMultiplier,0.9
;   extruderUseRetract,1
;   extruderRetractionDistance,5
;   extruderExtraRestartDistance,0
;   extruderRetractionZLift,0
;   extruderRetractionSpeed,3000
;   extruderUseCoasting,0
;   extruderCoastingDistance,1.5
;   extruderUseWipe,0
;   extruderWipeDistance,5
;   primaryExtruder,0
;   layerHeight,0.25
;   topSolidLayers,3
;   bottomSolidLayers,3
;   perimeterOutlines,3
;   printPerimetersInsideOut,1
;   startPointOption,3
;   startPointOriginX,0
;   startPointOriginY,0
;   sequentialIslands,0
;   spiralVaseMode,0
;   firstLayerHeightPercentage,150
;   firstLayerWidthPercentage,100
;   firstLayerUnderspeed,0.5
;   useRaft,0
;   raftExtruder,0
;   raftTopLayers,3
;   raftBaseLayers,2
;   raftOffset,3
;   raftSeparationDistance,0.14
;   raftTopInfill,100
;   aboveRaftSpeedMultiplier,0.3
;   useSkirt,1
;   skirtExtruder,0
;   skirtLayers,2
;   skirtOutlines,2
;   skirtOffset,4
;   usePrimePillar,0
;   primePillarExtruder,999
;   primePillarWidth,12
;   primePillarLocation,7
;   primePillarSpeedMultiplier,1
;   useOozeShield,0
;   oozeShieldExtruder,999
;   oozeShieldOffset,2
;   oozeShieldOutlines,1
;   oozeShieldSidewallShape,1
;   oozeShieldSidewallAngle,30
;   oozeShieldSpeedMultiplier,1
;   infillExtruder,0
;   internalInfillPattern,Triangular
;   externalInfillPattern,Rectilinear
;   infillPercentage,30
;   outlineOverlapPercentage,15
;   infillExtrusionWidthPercentage,150
;   minInfillLength,5
;   infillLayerInterval,1
;   internalInfillAngles,0,60,-60
;   overlapInternalInfillAngles,1
;   externalInfillAngles,45,-45
;   generateSupport,0
;   supportExtruder,0
;   supportInfillPercentage,40
;   supportExtraInflation,1
;   supportBaseLayers,0
;   denseSupportExtruder,0
;   denseSupportLayers,0
;   denseSupportInfillPercentage,70
;   supportLayerInterval,1
;   supportHorizontalPartOffset,1
;   supportUpperSeparationLayers,1
;   supportLowerSeparationLayers,1
;   supportType,0
;   supportGridSpacing,4
;   maxOverhangAngle,45
;   supportAngles,0
;   temperatureName,Primary Extruder
;   temperatureNumber,0
;   temperatureSetpointCount,2
;   temperatureSetpointLayers,1,5
;   temperatureSetpointTemperatures,220,210
;   temperatureStabilizeAtStartup,1
;   temperatureHeatedBed,0
;   fanLayers,1,2
;   fanSpeeds,100,100
;   blipFanToFullPower,0
;   adjustSpeedForCooling,1
;   minSpeedLayerTime,7
;   minCoolingSpeedSlowdown,20
;   increaseFanForCooling,0
;   minFanLayerTime,45
;   maxCoolingFanSpeed,100
;   increaseFanForBridging,0
;   bridgingFanSpeed,100
;   use5D,1
;   relativeEdistances,0
;   allowEaxisZeroing,1
;   independentExtruderAxes,0
;   includeM10123,0
;   stickySupport,1
;   applyToolheadOffsets,0
;   gcodeXoffset,0
;   gcodeYoffset,0
;   gcodeZoffset,0
;   overrideMachineDefinition,0
;   machineTypeOverride,0
;   strokeXoverride,305
;   strokeYoverride,205
;   strokeZoverride,205
;   originOffsetXoverride,0
;   originOffsetYoverride,0
;   originOffsetZoverride,0
;   homeXdirOverride,-1
;   homeYdirOverride,-1
;   homeZdirOverride,-1
;   flipXoverride,1
;   flipYoverride,-1
;   flipZoverride,1
;   toolheadOffsets,0,0|0,0|0,0|0,0|0,0|0,0
;   overrideFirmwareConfiguration,1
;   firmwareTypeOverride,RepRap (Marlin/Repetier/Sprinter)
;   GPXconfigOverride,r2
;   baudRateOverride,115200
;   overridePrinterModels,1
;   printerModelsOverride
;   startingGcode,G28 ; home all axes,G1 Z 2 ; set height for prime line,G92 E0 ; zero extruder,G1 X150 E30 F400 ; prime line
;   layerChangeGcode,
;   retractionGcode,
;   toolChangeGcode,
;   endingGcode,G28 X0 ; home X axis,M104 S0 ; turn off extruder,M84 ; disable motors
;   exportFileFormat,gcode
;   celebration,0
;   celebrationSong,Random Song
;   postProcessing,
;   defaultSpeed,2400
;   outlineUnderspeed,0.5
;   solidInfillUnderspeed,0.8
;   supportUnderspeed,0.8
;   rapidXYspeed,2400
;   rapidZspeed,900
;   minBridgingArea,50
;   bridgingExtraInflation,0
;   bridgingExtrusionMultiplier,1
;   bridgingSpeedMultiplier,1
;   useFixedBridgingAngle,0
;   fixedBridgingAngle,0
;   applyBridgingToPerimeters,0
;   filamentDiameters,1.75|3|3|3|3|3
;   filamentPricesPerKg,46|46|46|46|46|46
;   filamentDensities,1.25|1.25|1.25|1.25|1.25|1.25
;   useMinPrintHeight,0
;   minPrintHeight,0
;   useMaxPrintHeight,0
;   maxPrintHeight,0
;   useDiaphragm,0
;   diaphragmLayerInterval,20
;   robustSlicing,1
;   mergeAllIntoSolid,0
;   onlyRetractWhenCrossingOutline,1
;   retractBetweenLayers,0
;   useRetractionMinTravel,1
;   retractionMinTravel,3
;   retractWhileWiping,0
;   onlyWipeOutlines,1
;   avoidCrossingOutline,1
;   maxMovementDetourFactor,3
;   toolChangeRetractionDistance,12
;   toolChangeExtraRestartDistance,-0.5
;   toolChangeRetractionSpeed,600
;   externalThinWallType,0
;   internalThinWallType,2
;   thinWallAllowedOverlapPercentage,10
;   singleExtrusionMinLength,1
;   singleExtrusionMinPrintingWidthPercentage,50
;   singleExtrusionMaxPrintingWidthPercentage,200
;   singleExtrusionEndpointExtension,0
;   horizontalSizeCompensation,0
G90
M82
M106 S255
M104 S220 T0
M109 S220 T0
G28 ; home all axes
G1 Z 2 ; set height for prime line
G92 E0 ; zero extruder
G1 X150 E30 F400 ; prime line
; process Process1
; layer 1, Z = 0.375
T0
G92 E0.0000
G1 E-5.0000 F3000
; feature skirt
; tool H0.375 W0.360
G1 Z0.375 F900
G1 X79.946 Y75.028 F2400
G1 E0.0000 F3000
G92 E0.0000
G1 X81.073 Y73.901 E0.0805 F1200
G1 X81.318 Y73.689 E0.0968
G1 X82.593 Y72.735 E0.1773
G1 X82.866 Y72.559 E0.1937
G1 X84.263 Y71.796 E0.2741
G1 X84.558 Y71.661 E0.2905
G1 X86.051 Y71.105 E0.3710
G1 X86.362 Y71.013 E0.3873
G1 X87.918 Y70.675 E0.4678
G1 X88.239 Y70.629 E0.4842
G1 X89.828 Y70.515 E0.5646
G1 X90.152 Y70.515 E0.5810
G1 X91.741 Y70.629 E0.6615
G1 X92.062 Y70.675 E0.6778
G1 X93.618 Y71.013 E0.7583
G1 X93.929 Y71.105 E0.7747
G1 X95.422 Y71.661 E0.8551
G1 X95.717 Y71.796 E0.8715
G1 X97.114 Y72.559 E0.9520
G1 X97.387 Y72.735 E0.9683
G1 X98.662 Y73.689 E1.0488
G1 X98.907 Y73.901 E1.0652
G1 X100.034 Y75.028 E1.1456
G1 X100.246 Y75.273 E1.1620
G1 X101.200 Y76.548 E1.2425
G1 X101.376 Y76.821 E1.2589
G1 X102.139 Y78.218 E1.3393
G1 X102.274 Y78.513 E1.3557
G1 X102.830 Y80.006 E1.4361
G1 X102.922 Y80.317 E1.4525
G1 X103.260 Y81.873 E1.5330
G1 X103.306 Y82.194 E1.5494
G1 X103.414 Y83.702 E1.6257
G1 X103.420 Y83.864 E1.6339
G1 X103.420 Y112.705 E3.0908
G1 X201.580 Y112.705 E8.0492
G1 X201.580 Y108.864 E8.2432
G1 X201.586 Y108.702 E8.2514
G1 X201.694 Y107.194 E8.3278
G1 X201.740 Y106.873 E8.3442
G1 X202.078 Y105.317 E8.4246
G1 X202.170 Y105.006 E8.4410
G1 X202.726 Y103.513 E8.5215
G1 X202.861 Y103.218 E8.5378
G1 X203.624 Y101.821 E8.6183
G1 X203.800 Y101.548 E8.6347
G1 X204.754 Y100.273 E8.7151
G1 X204.966 Y100.028 E8.7315
G1 X206.093 Y98.901 E8.8120
G1 X206.338 Y98.689 E8.8283
G1 X207.613 Y97.735 E8.9088
G1 X207.886 Y97.559 E8.9252
G1 X209.283 Y96.796 E9.0056
G1 X209.578 Y96.661 E9.0220
G1 X211.071 Y96.105 E9.1025
G1 X211.382 Y96.013 E9.1188
G1 X212.938 Y95.675 E9.1993
G1 X213.259 Y95.629 E9.2157
G1 X214.848 Y95.515 E9.2961
G1 X215.172 Y95.515 E9.3125
G1 X216.761 Y95.629 E9.3930
G1 X217.082 Y95.675 E9.4093
G1 X218.638 Y96.013 E9.4898
G1 X218.949 Y96.105 E9.5062
G1 X220.442 Y96.661 E9.5866
G1 X220.736 Y96.796 E9.6030
G1 X222.134 Y97.559 E9.6835
G1 X222.407 Y97.735 E9.6999
G1 X223.682 Y98.689 E9.7803
G1 X223.927 Y98.901 E9.7967
G1 X225.054 Y100.028 E9.8771
G1 X225.266 Y100.273 E9.8935
G1 X226.220 Y101.548 E9.9740
G1 X226.396 Y101.821 E9.9904
G1 X227.159 Y103.218 E10.0708
G1 X227.294 Y103.513 E10.0872
G1 X227.850 Y105.006 E10.1676
G1 X227.942 Y105.317 E10.1840
G1 X228.280 Y106.873 E10.2645
G1 X228.326 Y107.194 E10.2809
G1 X228.434 Y108.702 E10.3572
G1 X228.440 Y108.864 E10.3654
G1 X228.440 Y131.826 E11.5253
G1 X225.781 Y134.485 E11.7153
G1 X79.219 Y134.485 E19.1186
G1 X76.560 Y131.826 E19.3086
G1 X76.560 Y83.864 E21.7313
G1 X76.566 Y83.702 E21.7395
G1 X76.674 Y82.194 E21.8159
G1 X76.720 Y81.873 E21.8323
G1 X77.058 Y80.317 E21.9127
G1 X77.150 Y80.006 E21.9291
G1 X77.706 Y78.513 E22.0096
G1 X77.841 Y78.219 E22.0259
G1 X78.604 Y76.821 E22.1064
G1 X78.780 Y76.548 E22.1228
G1 X79.734 Y75.273 E22.2032
G1 X79.946 Y75.028 E22.2196
G1 X80.210 Y75.273 F2400
G92 E0.0000
G1 X81.318 Y74.165 E0.0792 F1200
G1 X81.544 Y73.970 E0.0942
G1 X82.798 Y73.031 E0.1734
G1 X83.049 Y72.869 E0.1885
G1 X84.425 Y72.118 E0.2676
G1 X84.696 Y71.994 E0.2827
G1 X86.165 Y71.446 E0.3619
G1 X86.451 Y71.362 E0.3769
G1 X87.982 Y71.029 E0.4561
G1 X88.278 Y70.987 E0.4712
G1 X89.841 Y70.875 E0.5503
G1 X90.139 Y70.875 E0.5654
G1 X91.702 Y70.987 E0.6446
G1 X91.998 Y71.029 E0.6597
G1 X93.529 Y71.362 E0.7388
G1 X93.815 Y71.446 E0.7539
G1 X95.284 Y71.994 E0.8330
G1 X95.555 Y72.118 E0.8481
G1 X96.931 Y72.869 E0.9273
G1 X97.182 Y73.031 E0.9424
G1 X98.436 Y73.970 E1.0215
G1 X98.662 Y74.165 E1.0366
G1 X99.770 Y75.273 E1.1158
G1 X99.965 Y75.499 E1.1308
G1 X100.904 Y76.753 E1.2100
G1 X101.066 Y77.004 E1.2251
G1 X101.817 Y78.380 E1.3042
G1 X101.941 Y78.651 E1.3193
G1 X102.489 Y80.119 E1.3985
G1 X102.573 Y80.406 E1.4136
G1 X102.906 Y81.937 E1.4927
G1 X102.948 Y82.233 E1.5078
G1 X103.055 Y83.721 E1.5832
G1 X103.060 Y83.870 E1.5907
G1 X103.060 Y113.065 E3.0654
G1 X201.940 Y113.065 E8.0603
G1 X201.940 Y108.870 E8.2721
G1 X201.945 Y108.721 E8.2797
G1 X202.052 Y107.233 E8.3551
G1 X202.094 Y106.937 E8.3701
G1 X202.427 Y105.406 E8.4493
G1 X202.511 Y105.119 E8.4644
G1 X203.059 Y103.651 E8.5435
G1 X203.183 Y103.380 E8.5586
G1 X203.934 Y102.004 E8.6378
G1 X204.096 Y101.753 E8.6529
G1 X205.035 Y100.499 E8.7320
G1 X205.230 Y100.273 E8.7471
G1 X206.338 Y99.165 E8.8262
G1 X206.564 Y98.970 E8.8413
G1 X207.818 Y98.031 E8.9205
G1 X208.069 Y97.869 E8.9356
G1 X209.445 Y97.118 E9.0147
G1 X209.716 Y96.994 E9.0298
G1 X211.185 Y96.446 E9.1090
G1 X211.471 Y96.362 E9.1240
G1 X213.002 Y96.029 E9.2032
G1 X213.298 Y95.987 E9.2183
G1 X214.861 Y95.875 E9.2974
G1 X215.159 Y95.875 E9.3125
G1 X216.722 Y95.987 E9.3917
G1 X217.018 Y96.029 E9.4067
G1 X218.549 Y96.362 E9.4859
G1 X218.836 Y96.446 E9.5010
G1 X220.304 Y96.994 E9.5801
G1 X220.575 Y97.118 E9.5952
G1 X221.951 Y97.869 E9.6744
G1 X222.202 Y98.031 E9.6895
G1 X223.456 Y98.970 E9.7686
G1 X223.682 Y99.165 E9.7837
G1 X224.790 Y100.273 E9.8629
G1 X224.985 Y100.499 E9.8779
G1 X225.924 Y101.753 E9.9571
G1 X226.086 Y102.004 E9.9722
G1 X226.837 Y103.380 E10.0513
G1 X226.961 Y103.651 E10.0664
G1 X227.508 Y105.119 E10.1456
G1 X227.593 Y105.406 E10.1606
G1 X227.926 Y106.937 E10.2398
G1 X227.968 Y107.233 E10.2549
G1 X228.075 Y108.721 E10.3303
G1 X228.080 Y108.870 E10.3378
G1 X228.080 Y131.676 E11.4898
G1 X225.631 Y134.125 E11.6647
G1 X79.369 Y134.125 E19.0530
G1 X76.920 Y131.676 E19.2280
G1 X76.920 Y83.870 E21.6428
G1 X76.925 Y83.721 E21.6504
G1 X77.032 Y82.233 E21.7257
G1 X77.074 Y81.937 E21.7408
G1 X77.407 Y80.406 E21.8200
G1 X77.492 Y80.119 E21.8351
G1 X78.039 Y78.651 E21.9142
G1 X78.163 Y78.380 E21.9293
G1 X78.914 Y77.004 E22.0085
G1 X79.076 Y76.753 E22.0235
G1 X80.015 Y75.499 E22.1027
G1 X80.210 Y75.273 E22.1178
G92 E0.0000
G1 E-5.0000 F3000
; feature inner perimeter
G1 X83.408 Y78.241 F2400
G1 X83.423 Y78.226
G1 X83.953 Y78.714
G1 E0.0000 F3000
G92 E0.0000
G1 X84.759 Y77.908 E0.0576 F900
G1 X85.671 Y77.225 E0.1151
G1 X86.672 Y76.679 E0.1727
G1 X87.740 Y76.281 E0.2303
G1 X88.853 Y76.039 E0.2878
G1 X89.990 Y75.957 E0.3454
G1 X91.127 Y76.039 E0.4030
G1 X92.240 Y76.281 E0.4606
G1 X93.308 Y76.679 E0.5181
G1 X94.309 Y77.225 E0.5757
G1 X95.221 Y77.908 E0.6333
G1 X96.027 Y78.714 E0.6908
G1 X96.710 Y79.627 E0.7484
G1 X97.256 Y80.627 E0.8060
G1 X97.654 Y81.695 E0.8635
G1 X97.896 Y82.808 E0.9211
G1 X97.980 Y83.977 E0.9803
G1 X97.980 Y114.296 E2.5118
G1 X98.072 Y115.114 E2.5534
G1 X98.361 Y115.940 E2.5976
G1 X98.826 Y116.680 E2.6418
G1 X99.445 Y117.299 E2.6860
G1 X100.185 Y117.764 E2.7301
G1 X101.011 Y118.053 E2.7743
G1 X101.829 Y118.145 E2.8159
G1 X203.171 Y118.145 E7.9350
G1 X203.989 Y118.053 E7.9767
G1 X204.815 Y117.764 E8.0208
G1 X205.555 Y117.299 E8.0650
G1 X206.174 Y116.680 E8.1092
G1 X206.639 Y115.940 E8.1534
G1 X206.928 Y115.114 E8.1976
G1 X207.020 Y114.296 E8.2392
G1 X207.020 Y108.977 E8.5078
G1 X207.104 Y107.808 E8.5670
G1 X207.346 Y106.695 E8.6246
G1 X207.744 Y105.627 E8.6821
G1 X208.290 Y104.626 E8.7397
G1 X208.973 Y103.714 E8.7973
G1 X209.779 Y102.908 E8.8549
G1 X210.691 Y102.225 E8.9124
G1 X211.692 Y101.679 E8.9700
G1 X212.760 Y101.281 E9.0276
G1 X213.873 Y101.039 E9.0851
G1 X215.010 Y100.957 E9.1427
G1 X216.147 Y101.039 E9.2003
G1 X217.260 Y101.281 E9.2578
G1 X218.328 Y101.679 E9.3154
G1 X219.329 Y102.225 E9.3730
G1 X220.241 Y102.908 E9.4305
G1 X221.047 Y103.714 E9.4881
G1 X221.730 Y104.626 E9.5457
G1 X222.276 Y105.627 E9.6033
G1 X222.674 Y106.695 E9.6608
G1 X222.916 Y107.808 E9.7184
G1 X223.000 Y108.977 E9.7776
G1 X223.000 Y129.045 E10.7913
G1 X82.000 Y129.045 E17.9137
G1 X82.000 Y104.065 E19.1756
G1 X91.890 Y104.065 E19.6752
G1 X91.890 Y90.866 E20.3419
G1 X92.357 Y90.748 E20.3662
G1 X93.508 Y90.231 E20.4300
G1 X94.551 Y89.520 E20.4937
G1 X95.454 Y88.639 E20.5575
G1 X96.190 Y87.613 E20.6212
G1 X96.735 Y86.475 E20.6850
G1 X97.073 Y85.259 E20.7487
G1 X97.193 Y84.003 E20.8125
G1 X97.093 Y82.745 E20.8762
G1 X96.774 Y81.523 E20.9400
G1 X96.248 Y80.377 E21.0037
G1 X95.529 Y79.339 E21.0675
G1 X94.640 Y78.443 E21.1312
G1 X93.608 Y77.716 E21.1950
G1 X92.466 Y77.180 E21.2587
G1 X91.247 Y76.852 E21.3225
G1 X89.990 Y76.742 E21.3862
G1 X88.733 Y76.852 E21.4500
G1 X87.514 Y77.180 E21.5137
G1 X86.372 Y77.716 E21.5775
G1 X85.340 Y78.443 E21.6412
G1 X84.451 Y79.339 E21.7050
G1 X83.732 Y80.377 E21.7687
G1 X83.206 Y81.523 E21.8325
G1 X82.887 Y82.745 E21.8962
G1 X82.787 Y84.003 E21.9600
G1 X82.907 Y85.259 E22.0237
G1 X83.245 Y86.475 E22.0875
G1 X83.790 Y87.613 E22.1512
G1 X84.526 Y88.639 E22.2150
G1 X85.429 Y89.520 E22.2787
G1 X86.472 Y90.231 E22.3425
G1 X87.623 Y90.748 E22.4062
G1 X88.090 Y90.866 E22.4306
G1 X88.090 Y100.265 E22.9053
G1 X82.000 Y100.265 E23.2130
G1 X82.000 Y83.977 E24.0357
G1 X82.084 Y82.808 E24.0949
G1 X82.326 Y81.695 E24.1525
G1 X82.724 Y80.627 E24.2101
G1 X83.270 Y79.626 E24.2676
G1 X83.953 Y78.714 E24.3252
G1 X83.681 Y78.478 F2400
G92 E0.0000
G1 X84.523 Y77.635 E0.0602 F900
G1 X85.476 Y76.922 E0.1203
G1 X86.522 Y76.351 E0.1805
G1 X87.638 Y75.935 E0.2407
G1 X88.802 Y75.681 E0.3008
G1 X89.990 Y75.596 E0.3610
G1 X91.178 Y75.681 E0.4212
G1 X92.342 Y75.935 E0.4814
G1 X93.458 Y76.351 E0.5415
G1 X94.504 Y76.922 E0.6017
G1 X95.457 Y77.635 E0.6619
G1 X96.299 Y78.478 E0.7220
G1 X97.013 Y79.431 E0.7822
G1 X97.584 Y80.477 E0.8424
G1 X98.000 Y81.593 E0.9026
G1 X98.254 Y82.757 E0.9627
G1 X98.340 Y83.964 E1.0239
G1 X98.340 Y114.275 E2.5550
G1 X98.425 Y115.033 E2.5935
G1 X98.688 Y115.782 E2.6336
G1 X99.110 Y116.454 E2.6737
G1 X99.671 Y117.015 E2.7138
G1 X100.343 Y117.438 E2.7539
G1 X101.092 Y117.700 E2.7939
G1 X101.850 Y117.785 E2.8325
G1 X203.150 Y117.785 E7.9496
G1 X203.908 Y117.700 E7.9881
G1 X204.657 Y117.438 E8.0282
G1 X205.329 Y117.015 E8.0683
G1 X205.890 Y116.454 E8.1084
G1 X206.312 Y115.782 E8.1484
G1 X206.575 Y115.033 E8.1885
G1 X206.660 Y114.275 E8.2271
G1 X206.660 Y108.964 E8.4953
G1 X206.746 Y107.757 E8.5565
G1 X207.000 Y106.593 E8.6167
G1 X207.416 Y105.477 E8.6768
G1 X207.987 Y104.431 E8.7370
G1 X208.701 Y103.478 E8.7972
G1 X209.543 Y102.635 E8.8573
G1 X210.496 Y101.922 E8.9175
G1 X211.542 Y101.351 E8.9777
G1 X212.658 Y100.935 E9.0379
G1 X213.822 Y100.681 E9.0980
G1 X215.010 Y100.596 E9.1582
G1 X216.198 Y100.681 E9.2184
G1 X217.362 Y100.935 E9.2785
G1 X218.478 Y101.351 E9.3387
G1 X219.524 Y101.922 E9.3989
G1 X220.477 Y102.635 E9.4590
G1 X221.319 Y103.478 E9.5192
G1 X222.033 Y104.431 E9.5794
G1 X222.604 Y105.477 E9.6396
G1 X223.020 Y106.593 E9.6997
