; G-Code generated by Simplify3D(R) Version 4.1.2
; May 2, 2021 at 3:28:54 PM
; Settings Summary
;   processName,Process1
;   applyToModels,JRCNC0008 v3
;   profileName,NORMAL (modified)
;   profileVersion,2021-04-03 23:45:23
;   baseProfile,Wanhao Duplicator 5S Mini
;   printMaterial,PLA
;   printQuality,0.25
;   printExtruders,
;   extruderName,Primary Extruder
;   extruderToolheadNumber,0
;   extruderDiameter,0.3
;   extruderAutoWidth,1
;   extruderWidth,0.36
;   extrusionMultiplier,0.9
;   extruderUseRetract,1
;   extruderRetractionDistance,5
;   extruderExtraRestartDistance,0
;   extruderRetractionZLift,0
;   extruderRetractionSpeed,3000
;   extruderUseCoasting,0
;   extruderCoastingDistance,1.5
;   extruderUseWipe,0
;   extruderWipeDistance,5
;   primaryExtruder,0
;   layerHeight,0.25
;   topSolidLayers,3
;   bottomSolidLayers,3
;   perimeterOutlines,3
;   printPerimetersInsideOut,1
;   startPointOption,3
;   startPointOriginX,0
;   startPointOriginY,0
;   sequentialIslands,0
;   spiralVaseMode,0
;   firstLayerHeightPercentage,150
;   firstLayerWidthPercentage,100
;   firstLayerUnderspeed,0.5
;   useRaft,0
;   raftExtruder,0
;   raftTopLayers,3
;   raftBaseLayers,2
;   raftOffset,3
;   raftSeparationDistance,0.14
;   raftTopInfill,100
;   aboveRaftSpeedMultiplier,0.3
;   useSkirt,1
;   skirtExtruder,0
;   skirtLayers,2
;   skirtOutlines,2
;   skirtOffset,4
;   usePrimePillar,0
;   primePillarExtruder,999
;   primePillarWidth,12
;   primePillarLocation,7
;   primePillarSpeedMultiplier,1
;   useOozeShield,0
;   oozeShieldExtruder,999
;   oozeShieldOffset,2
;   oozeShieldOutlines,1
;   oozeShieldSidewallShape,1
;   oozeShieldSidewallAngle,30
;   oozeShieldSpeedMultiplier,1
;   infillExtruder,0
;   internalInfillPattern,Triangular
;   externalInfillPattern,Rectilinear
;   infillPercentage,30
;   outlineOverlapPercentage,15
;   infillExtrusionWidthPercentage,150
;   minInfillLength,5
;   infillLayerInterval,1
;   internalInfillAngles,0,60,-60
;   overlapInternalInfillAngles,1
;   externalInfillAngles,45,-45
;   generateSupport,1
;   supportExtruder,0
;   supportInfillPercentage,40
;   supportExtraInflation,1
;   supportBaseLayers,0
;   denseSupportExtruder,0
;   denseSupportLayers,0
;   denseSupportInfillPercentage,70
;   supportLayerInterval,1
;   supportHorizontalPartOffset,1
;   supportUpperSeparationLayers,1
;   supportLowerSeparationLayers,1
;   supportType,0
;   supportGridSpacing,4
;   maxOverhangAngle,45
;   supportAngles,0
;   temperatureName,Primary Extruder
;   temperatureNumber,0
;   temperatureSetpointCount,2
;   temperatureSetpointLayers,1,5
;   temperatureSetpointTemperatures,220,210
;   temperatureStabilizeAtStartup,1
;   temperatureHeatedBed,0
;   fanLayers,1,2
;   fanSpeeds,100,100
;   blipFanToFullPower,0
;   adjustSpeedForCooling,1
;   minSpeedLayerTime,7
;   minCoolingSpeedSlowdown,20
;   increaseFanForCooling,0
;   minFanLayerTime,45
;   maxCoolingFanSpeed,100
;   increaseFanForBridging,0
;   bridgingFanSpeed,100
;   use5D,1
;   relativeEdistances,0
;   allowEaxisZeroing,1
;   independentExtruderAxes,0
;   includeM10123,0
;   stickySupport,1
;   applyToolheadOffsets,0
;   gcodeXoffset,0
;   gcodeYoffset,0
;   gcodeZoffset,0
;   overrideMachineDefinition,0
;   machineTypeOverride,0
;   strokeXoverride,305
;   strokeYoverride,205
;   strokeZoverride,205
;   originOffsetXoverride,0
;   originOffsetYoverride,0
;   originOffsetZoverride,0
;   homeXdirOverride,-1
;   homeYdirOverride,-1
;   homeZdirOverride,-1
;   flipXoverride,1
;   flipYoverride,-1
;   flipZoverride,1
;   toolheadOffsets,0,0|0,0|0,0|0,0|0,0|0,0
;   overrideFirmwareConfiguration,1
;   firmwareTypeOverride,RepRap (Marlin/Repetier/Sprinter)
;   GPXconfigOverride,r2
;   baudRateOverride,115200
;   overridePrinterModels,1
;   printerModelsOverride
;   startingGcode,G28 ; home all axes,G1 Z 2 ; set height for prime line,G92 E0 ; zero extruder,G1 X150 E30 F400 ; prime line
;   layerChangeGcode,
;   retractionGcode,
;   toolChangeGcode,
;   endingGcode,G28 X0 ; home X axis,M104 S0 ; turn off extruder,M84 ; disable motors
;   exportFileFormat,gcode
;   celebration,0
;   celebrationSong,Random Song
;   postProcessing,
;   defaultSpeed,2400
;   outlineUnderspeed,0.5
;   solidInfillUnderspeed,0.8
;   supportUnderspeed,0.8
;   rapidXYspeed,2400
;   rapidZspeed,900
;   minBridgingArea,50
;   bridgingExtraInflation,0
;   bridgingExtrusionMultiplier,1
;   bridgingSpeedMultiplier,1
;   useFixedBridgingAngle,0
;   fixedBridgingAngle,0
;   applyBridgingToPerimeters,0
;   filamentDiameters,1.75|3|3|3|3|3
;   filamentPricesPerKg,46|46|46|46|46|46
;   filamentDensities,1.25|1.25|1.25|1.25|1.25|1.25
;   useMinPrintHeight,0
;   minPrintHeight,0
;   useMaxPrintHeight,0
;   maxPrintHeight,0
;   useDiaphragm,0
;   diaphragmLayerInterval,20
;   robustSlicing,1
;   mergeAllIntoSolid,0
;   onlyRetractWhenCrossingOutline,1
;   retractBetweenLayers,0
;   useRetractionMinTravel,1
;   retractionMinTravel,3
;   retractWhileWiping,0
;   onlyWipeOutlines,1
;   avoidCrossingOutline,1
;   maxMovementDetourFactor,3
;   toolChangeRetractionDistance,12
;   toolChangeExtraRestartDistance,-0.5
;   toolChangeRetractionSpeed,600
;   externalThinWallType,0
;   internalThinWallType,2
;   thinWallAllowedOverlapPercentage,10
;   singleExtrusionMinLength,1
;   singleExtrusionMinPrintingWidthPercentage,50
;   singleExtrusionMaxPrintingWidthPercentage,200
;   singleExtrusionEndpointExtension,0
;   horizontalSizeCompensation,0
G90
M82
M106 S255
M104 S220 T0
M109 S220 T0
G28 ; home all axes
G1 Z 2 ; set height for prime line
G92 E0 ; zero extruder
G1 X150 E30 F400 ; prime line
; process Process1
; layer 1, Z = 0.375
T0
G92 E0.0000
G1 E-5.0000 F3000
; feature skirt
; tool H0.375 W0.360
G1 Z0.375 F900
G1 X67.944 Y35.460 F2400
G1 E0.0000 F3000
G92 E0.0000
G1 X68.411 Y34.614 E0.0488 F1200
G1 X68.547 Y34.398 E0.0617
G1 X69.106 Y33.610 E0.1105
G1 X69.265 Y33.411 E0.1234
G1 X69.909 Y32.690 E0.1722
G1 X70.090 Y32.510 E0.1851
G1 X70.811 Y31.865 E0.2340
G1 X71.010 Y31.706 E0.2468
G1 X71.798 Y31.147 E0.2957
G1 X72.014 Y31.011 E0.3085
G1 X72.860 Y30.544 E0.3574
G1 X73.090 Y30.433 E0.3702
G1 X73.983 Y30.063 E0.4191
G1 X74.223 Y29.979 E0.4320
G1 X75.153 Y29.711 E0.4808
G1 X75.401 Y29.655 E0.4937
G1 X76.354 Y29.493 E0.5425
G1 X76.607 Y29.464 E0.5554
G1 X77.509 Y29.414 E0.6010
G1 X77.636 Y29.410 E0.6074
G1 X179.364 Y29.410 E5.7461
G1 X179.491 Y29.414 E5.7525
G1 X180.393 Y29.464 E5.7981
G1 X180.646 Y29.493 E5.8110
G1 X181.599 Y29.655 E5.8598
G1 X181.847 Y29.711 E5.8727
G1 X182.777 Y29.979 E5.9215
G1 X183.017 Y30.063 E5.9344
G1 X183.910 Y30.433 E5.9832
G1 X184.140 Y30.544 E5.9961
G1 X184.986 Y31.011 E6.0450
G1 X185.202 Y31.147 E6.0578
G1 X185.990 Y31.706 E6.1067
G1 X186.189 Y31.865 E6.1195
G1 X186.910 Y32.510 E6.1684
G1 X187.091 Y32.690 E6.1812
G1 X187.735 Y33.411 E6.2301
G1 X187.894 Y33.610 E6.2429
G1 X188.453 Y34.398 E6.2918
G1 X188.589 Y34.614 E6.3047
G1 X189.056 Y35.460 E6.3535
G1 X189.167 Y35.690 E6.3664
G1 X189.537 Y36.583 E6.4152
G1 X189.621 Y36.824 E6.4281
G1 X189.889 Y37.753 E6.4769
G1 X189.945 Y38.001 E6.4898
G1 X190.107 Y38.954 E6.5386
G1 X190.136 Y39.207 E6.5515
G1 X190.186 Y40.109 E6.5971
G1 X190.190 Y40.236 E6.6035
G1 X190.190 Y192.764 E14.3083
G1 X190.186 Y192.891 E14.3147
G1 X190.136 Y193.793 E14.3603
G1 X190.107 Y194.046 E14.3732
G1 X189.945 Y194.999 E14.4220
G1 X189.889 Y195.247 E14.4349
G1 X189.621 Y196.176 E14.4838
G1 X189.537 Y196.417 E14.4966
G1 X189.167 Y197.310 E14.5455
G1 X189.056 Y197.540 E14.5583
G1 X188.589 Y198.386 E14.6072
G1 X188.453 Y198.602 E14.6200
G1 X187.894 Y199.390 E14.6689
G1 X187.735 Y199.589 E14.6817
G1 X187.090 Y200.310 E14.7306
G1 X186.910 Y200.490 E14.7435
G1 X186.189 Y201.135 E14.7923
G1 X185.990 Y201.294 E14.8052
G1 X185.202 Y201.853 E14.8540
G1 X184.986 Y201.989 E14.8669
G1 X184.140 Y202.456 E14.9157
G1 X183.910 Y202.567 E14.9286
G1 X183.017 Y202.937 E14.9774
G1 X182.777 Y203.021 E14.9903
G1 X181.848 Y203.289 E15.0391
G1 X181.599 Y203.345 E15.0520
G1 X180.646 Y203.507 E15.1008
G1 X180.393 Y203.536 E15.1137
G1 X179.491 Y203.586 E15.1593
G1 X179.364 Y203.590 E15.1658
G1 X132.969 Y203.590 E17.5093
G1 X130.310 Y200.931 E17.6993
G1 X130.310 Y168.371 E19.3440
G1 X131.344 Y166.394 E19.4567
G1 X132.932 Y165.291 E19.5544
G1 X133.434 Y164.881 E19.5871
G1 X133.912 Y164.424 E19.6205
G1 X134.362 Y163.923 E19.6545
G1 X134.781 Y163.380 E19.6892
G1 X135.164 Y162.798 E19.7244
G1 X135.511 Y162.177 E19.7603
G1 X135.801 Y161.562 E19.7947
G1 X136.078 Y160.845 E19.8335
G1 X136.291 Y160.146 E19.8704
G1 X136.459 Y159.421 E19.9080
G1 X136.572 Y158.711 E19.9443
G1 X136.640 Y157.960 E19.9824
G1 X136.654 Y157.327 E20.0144
G1 X136.616 Y156.554 E20.0535
G1 X136.535 Y155.872 E20.0882
G1 X136.397 Y155.134 E20.1261
G1 X136.211 Y154.417 E20.1635
G1 X135.976 Y153.721 E20.2006
G1 X135.697 Y153.051 E20.2373
G1 X135.378 Y152.419 E20.2731
G1 X134.987 Y151.772 E20.3112
G1 X134.613 Y151.240 E20.3441
G1 X134.180 Y150.713 E20.3785
G1 X133.747 Y150.260 E20.4102
G1 X133.225 Y149.788 E20.4457
G1 X132.720 Y149.402 E20.4778
G1 X132.191 Y149.059 E20.5097
G1 X131.646 Y148.765 E20.5410
G1 X131.086 Y148.520 E20.5719
G1 X130.528 Y148.327 E20.6017
G1 X129.973 Y148.185 E20.6306
G1 X129.373 Y148.083 E20.6614
G1 X128.776 Y148.034 E20.6916
G1 X128.208 Y148.034 E20.7203
G1 X127.639 Y148.081 E20.7491
G1 X127.057 Y148.179 E20.7790
G1 X126.470 Y148.328 E20.8096
G1 X125.914 Y148.520 E20.8392
G1 X125.360 Y148.763 E20.8698
G1 X124.779 Y149.079 E20.9032
G1 X124.281 Y149.401 E20.9332
G1 X123.769 Y149.793 E20.9657
G1 X123.281 Y150.231 E20.9989
G1 X122.819 Y150.714 E21.0326
G1 X122.387 Y151.240 E21.0670
G1 X121.988 Y151.807 E21.1020
G1 X121.625 Y152.413 E21.1377
G1 X121.324 Y153.009 E21.1715
G1 X121.021 Y153.728 E21.2108
G1 X120.789 Y154.417 E21.2476
G1 X120.603 Y155.134 E21.2850
G1 X120.465 Y155.869 E21.3228
G1 X120.379 Y156.615 E21.3607
G1 X120.346 Y157.319 E21.3963
G1 X120.360 Y157.961 E21.4287
G1 X120.428 Y158.711 E21.4668
G1 X120.541 Y159.421 E21.5031
G1 X120.709 Y160.146 E21.5407
G1 X120.924 Y160.849 E21.5778
G1 X121.185 Y161.528 E21.6146
G1 X121.490 Y162.179 E21.6509
G1 X121.835 Y162.798 E21.6867
G1 X122.219 Y163.380 E21.7219
G1 X122.638 Y163.923 E21.7566
G1 X123.088 Y164.424 E21.7906
G1 X123.566 Y164.880 E21.8240
G1 X124.068 Y165.291 E21.8567
G1 X125.656 Y166.394 E21.9544
G1 X126.690 Y168.371 E22.0671
G1 X126.690 Y200.931 E23.7118
G1 X124.031 Y203.590 E23.9018
G1 X77.636 Y203.590 E26.2453
G1 X77.509 Y203.586 E26.2518
G1 X76.607 Y203.536 E26.2974
G1 X76.354 Y203.507 E26.3103
G1 X75.401 Y203.345 E26.3591
G1 X75.152 Y203.289 E26.3720
G1 X74.223 Y203.021 E26.4208
G1 X73.983 Y202.937 E26.4337
G1 X73.090 Y202.567 E26.4825
G1 X72.860 Y202.456 E26.4954
G1 X72.014 Y201.989 E26.5442
G1 X71.798 Y201.853 E26.5571
G1 X71.010 Y201.294 E26.6059
G1 X70.811 Y201.135 E26.6188
G1 X70.090 Y200.490 E26.6676
G1 X69.909 Y200.310 E26.6805
G1 X69.265 Y199.589 E26.7294
G1 X69.106 Y199.390 E26.7422
G1 X68.547 Y198.602 E26.7911
G1 X68.411 Y198.386 E26.8039
G1 X67.944 Y197.540 E26.8528
G1 X67.833 Y197.310 E26.8656
G1 X67.463 Y196.417 E26.9145
G1 X67.379 Y196.176 E26.9274
G1 X67.111 Y195.247 E26.9762
G1 X67.055 Y194.999 E26.9891
G1 X66.893 Y194.046 E27.0379
G1 X66.864 Y193.793 E27.0508
G1 X66.814 Y192.891 E27.0964
G1 X66.810 Y192.764 E27.1028
G1 X66.810 Y40.236 E34.8076
G1 X66.814 Y40.109 E34.8140
G1 X66.864 Y39.207 E34.8596
G1 X66.893 Y38.954 E34.8725
G1 X67.055 Y38.001 E34.9213
G1 X67.111 Y37.753 E34.9342
G1 X67.379 Y36.824 E34.9830
G1 X67.463 Y36.583 E34.9959
G1 X67.833 Y35.690 E35.0447
G1 X67.944 Y35.460 E35.0576
G1 X68.264 Y35.625 F2400
G92 E0.0000
G1 X68.722 Y34.797 E0.0478 F1200
G1 X68.846 Y34.598 E0.0597
G1 X69.394 Y33.826 E0.1075
G1 X69.540 Y33.643 E0.1193
G1 X70.171 Y32.937 E0.1671
G1 X70.337 Y32.771 E0.1790
G1 X71.043 Y32.140 E0.2268
G1 X71.226 Y31.994 E0.2387
G1 X71.998 Y31.446 E0.2865
G1 X72.197 Y31.322 E0.2983
G1 X73.026 Y30.864 E0.3462
G1 X73.237 Y30.762 E0.3580
G1 X74.111 Y30.400 E0.4058
G1 X74.333 Y30.322 E0.4177
G1 X75.243 Y30.060 E0.4655
G1 X75.471 Y30.008 E0.4773
G1 X76.405 Y29.849 E0.5252
G1 X76.638 Y29.823 E0.5370
G1 X77.524 Y29.773 E0.5819
G1 X77.641 Y29.770 E0.5878
G1 X179.359 Y29.770 E5.7259
G1 X179.476 Y29.773 E5.7318
G1 X180.362 Y29.823 E5.7767
G1 X180.595 Y29.849 E5.7885
G1 X181.529 Y30.008 E5.8364
G1 X181.758 Y30.060 E5.8482
G1 X182.667 Y30.322 E5.8960
G1 X182.889 Y30.400 E5.9079
G1 X183.763 Y30.762 E5.9557
G1 X183.974 Y30.864 E5.9675
G1 X184.803 Y31.322 E6.0154
G1 X185.002 Y31.446 E6.0272
G1 X185.774 Y31.994 E6.0750
G1 X185.957 Y32.140 E6.0869
G1 X186.663 Y32.771 E6.1347
G1 X186.829 Y32.937 E6.1465
G1 X187.460 Y33.643 E6.1944
G1 X187.606 Y33.826 E6.2062
G1 X188.154 Y34.598 E6.2540
G1 X188.278 Y34.797 E6.2659
G1 X188.736 Y35.625 E6.3137
G1 X188.838 Y35.837 E6.3255
G1 X189.200 Y36.711 E6.3734
G1 X189.278 Y36.933 E6.3852
G1 X189.540 Y37.843 E6.4330
G1 X189.592 Y38.071 E6.4449
G1 X189.751 Y39.004 E6.4927
G1 X189.777 Y39.238 E6.5046
G1 X189.827 Y40.124 E6.5494
G1 X189.830 Y40.241 E6.5553
G1 X189.830 Y192.759 E14.2596
G1 X189.827 Y192.876 E14.2655
G1 X189.777 Y193.762 E14.3103
G1 X189.751 Y193.995 E14.3222
G1 X189.592 Y194.929 E14.3700
G1 X189.540 Y195.157 E14.3819
G1 X189.278 Y196.067 E14.4297
G1 X189.200 Y196.289 E14.4415
G1 X188.838 Y197.163 E14.4893
G1 X188.736 Y197.374 E14.5012
G1 X188.278 Y198.203 E14.5490
G1 X188.154 Y198.402 E14.5609
G1 X187.606 Y199.174 E14.6087
G1 X187.460 Y199.357 E14.6205
G1 X186.829 Y200.063 E14.6683
G1 X186.663 Y200.229 E14.6802
G1 X185.957 Y200.860 E14.7280
G1 X185.774 Y201.006 E14.7399
G1 X185.002 Y201.554 E14.7877
G1 X184.803 Y201.678 E14.7995
G1 X183.974 Y202.136 E14.8473
G1 X183.763 Y202.238 E14.8592
G1 X182.889 Y202.600 E14.9070
G1 X182.667 Y202.678 E14.9189
G1 X181.758 Y202.940 E14.9667
G1 X181.529 Y202.992 E14.9785
G1 X180.596 Y203.151 E15.0264
G1 X180.362 Y203.177 E15.0382
G1 X179.476 Y203.227 E15.0831
G1 X179.359 Y203.230 E15.0890
G1 X133.119 Y203.230 E17.4247
G1 X130.670 Y200.781 E17.5997
G1 X130.670 Y168.459 E19.2324
G1 X131.622 Y166.639 E19.3362
G1 X133.149 Y165.579 E19.4300
G1 X133.673 Y165.150 E19.4642
G1 X134.171 Y164.675 E19.4990
G1 X134.639 Y164.153 E19.5344
G1 X135.074 Y163.589 E19.5704
G1 X135.472 Y162.985 E19.6069
G1 X135.832 Y162.342 E19.6442
G1 X136.132 Y161.703 E19.6798
G1 X136.418 Y160.963 E19.7199
G1 X136.639 Y160.239 E19.7581
G1 X136.812 Y159.490 E19.7970
G1 X136.929 Y158.756 E19.8345
G1 X137.000 Y157.981 E19.8738
G1 X137.014 Y157.323 E19.9071
G1 X136.975 Y156.524 E19.9475
G1 X136.892 Y155.818 E19.9834
G1 X136.749 Y155.056 E20.0226
G1 X136.556 Y154.314 E20.0613
G1 X136.313 Y153.594 E20.0997
G1 X136.024 Y152.900 E20.1376
G1 X135.693 Y152.244 E20.1747
G1 X135.289 Y151.575 E20.2142
G1 X134.900 Y151.022 E20.2484
G1 X134.450 Y150.474 E20.2842
G1 X133.998 Y150.001 E20.3172
G1 X133.455 Y149.511 E20.3542
G1 X132.928 Y149.108 E20.3877
G1 X132.374 Y148.749 E20.4210
G1 X131.804 Y148.442 E20.4538
G1 X131.217 Y148.184 E20.4861
G1 X130.631 Y147.982 E20.5174
G1 X130.048 Y147.833 E20.5479
G1 X129.418 Y147.725 E20.5801
G1 X128.791 Y147.674 E20.6119
G1 X128.193 Y147.674 E20.6421
G1 X127.594 Y147.724 E20.6725
G1 X126.982 Y147.826 E20.7038
G1 X126.366 Y147.983 E20.7359
G1 X125.783 Y148.184 E20.7671
G1 X125.202 Y148.439 E20.7992
G1 X124.595 Y148.769 E20.8341
G1 X124.073 Y149.107 E20.8654
G1 X123.539 Y149.516 E20.8994
G1 X123.031 Y149.972 E20.9339
G1 X122.550 Y150.475 E20.9691
G1 X122.100 Y151.022 E21.0048
G1 X121.686 Y151.611 E21.0412
G1 X121.310 Y152.239 E21.0782
G1 X120.997 Y152.858 E21.1132
G1 X120.684 Y153.600 E21.1539
G1 X120.444 Y154.314 E21.1920
G1 X120.251 Y155.056 E21.2307
G1 X120.109 Y155.815 E21.2697
G1 X120.020 Y156.586 E21.3089
G1 X119.986 Y157.314 E21.3457
G1 X120.000 Y157.981 E21.3794
G1 X120.071 Y158.755 E21.4187
G1 X120.188 Y159.490 E21.4563
G1 X120.361 Y160.239 E21.4951
G1 X120.583 Y160.966 E21.5335
G1 X120.853 Y161.670 E21.5716
G1 X121.169 Y162.344 E21.6092
G1 X121.528 Y162.985 E21.6463
G1 X121.926 Y163.589 E21.6829
G1 X122.361 Y164.153 E21.7188
G1 X122.829 Y164.675 E21.7542
G1 X123.327 Y165.150 E21.7890
G1 X123.851 Y165.579 E21.8232
