; G-Code generated by Simplify3D(R) Version 
; Jun 26, 2021 at 2:41:46 PM
; Settings Summary
;   processName,Process1
;   applyToModels,JRCNC0015 v5
;   profileName,NORMAL
;   profileVersion,2021-04-03 23:45:23
;   baseProfile,Wanhao Duplicator 5S Mini
;   printMaterial,PLA
;   printQuality,0.25
;   printExtruders,
;   extruderName,Primary Extruder
;   extruderToolheadNumber,0
;   extruderDiameter,0.3
;   extruderAutoWidth,1
;   extruderWidth,0.36
;   extrusionMultiplier,0.9
;   extruderUseRetract,1
;   extruderRetractionDistance,5
;   extruderExtraRestartDistance,0
;   extruderRetractionZLift,0
;   extruderRetractionSpeed,3000
;   extruderUseCoasting,0
;   extruderCoastingDistance,1.5
;   extruderUseWipe,0
;   extruderWipeDistance,5
;   primaryExtruder,0
;   layerHeight,0.25
;   topSolidLayers,3
;   bottomSolidLayers,3
;   perimeterOutlines,3
;   printPerimetersInsideOut,1
;   startPointOption,3
;   startPointOriginX,0
;   startPointOriginY,0
;   sequentialIslands,0
;   spiralVaseMode,0
;   firstLayerHeightPercentage,150
;   firstLayerWidthPercentage,100
;   firstLayerUnderspeed,0.5
;   useRaft,0
;   raftExtruder,0
;   raftTopLayers,3
;   raftBaseLayers,2
;   raftOffset,3
;   raftSeparationDistance,0.14
;   raftTopInfill,100
;   aboveRaftSpeedMultiplier,0.3
;   useSkirt,1
;   skirtExtruder,0
;   skirtLayers,2
;   skirtOutlines,2
;   skirtOffset,4
;   usePrimePillar,0
;   primePillarExtruder,999
;   primePillarWidth,12
;   primePillarLocation,7
;   primePillarSpeedMultiplier,1
;   useOozeShield,0
;   oozeShieldExtruder,999
;   oozeShieldOffset,2
;   oozeShieldOutlines,1
;   oozeShieldSidewallShape,1
;   oozeShieldSidewallAngle,30
;   oozeShieldSpeedMultiplier,1
;   infillExtruder,0
;   internalInfillPattern,Triangular
;   externalInfillPattern,Rectilinear
;   infillPercentage,30
;   outlineOverlapPercentage,15
;   infillExtrusionWidthPercentage,150
;   minInfillLength,5
;   infillLayerInterval,1
;   internalInfillAngles,0,60,-60
;   overlapInternalInfillAngles,1
;   externalInfillAngles,45,-45
;   generateSupport,0
;   supportExtruder,0
;   supportInfillPercentage,40
;   supportExtraInflation,1
;   supportBaseLayers,0
;   denseSupportExtruder,0
;   denseSupportLayers,0
;   denseSupportInfillPercentage,70
;   supportLayerInterval,1
;   supportHorizontalPartOffset,1
;   supportUpperSeparationLayers,1
;   supportLowerSeparationLayers,1
;   supportType,0
;   supportGridSpacing,4
;   maxOverhangAngle,45
;   supportAngles,0
;   temperatureName,Primary Extruder
;   temperatureNumber,0
;   temperatureSetpointCount,2
;   temperatureSetpointLayers,1,5
;   temperatureSetpointTemperatures,220,210
;   temperatureStabilizeAtStartup,1
;   temperatureHeatedBed,0
;   fanLayers,1,2
;   fanSpeeds,100,100
;   blipFanToFullPower,0
;   adjustSpeedForCooling,1
;   minSpeedLayerTime,7
;   minCoolingSpeedSlowdown,20
;   increaseFanForCooling,0
;   minFanLayerTime,45
;   maxCoolingFanSpeed,100
;   increaseFanForBridging,0
;   bridgingFanSpeed,100
;   use5D,1
;   relativeEdistances,0
;   allowEaxisZeroing,1
;   independentExtruderAxes,0
;   includeM10123,0
;   stickySupport,1
;   applyToolheadOffsets,0
;   gcodeXoffset,0
;   gcodeYoffset,0
;   gcodeZoffset,0
;   overrideMachineDefinition,0
;   machineTypeOverride,0
;   strokeXoverride,305
;   strokeYoverride,205
;   strokeZoverride,205
;   originOffsetXoverride,0
;   originOffsetYoverride,0
;   originOffsetZoverride,0
;   homeXdirOverride,-1
;   homeYdirOverride,-1
;   homeZdirOverride,-1
;   flipXoverride,1
;   flipYoverride,-1
;   flipZoverride,1
;   toolheadOffsets,0,0|0,0|0,0|0,0|0,0|0,0
;   overrideFirmwareConfiguration,1
;   firmwareTypeOverride,RepRap (Marlin/Repetier/Sprinter)
;   GPXconfigOverride,r2
;   baudRateOverride,115200
;   overridePrinterModels,1
;   printerModelsOverride
;   startingGcode,G28 ; home all axes,G1 Z 2 ; set height for prime line,G92 E0 ; zero extruder,G1 X150 E30 F400 ; prime line
;   layerChangeGcode,
;   retractionGcode,
;   toolChangeGcode,
;   endingGcode,G28 X0 ; home X axis,M104 S0 ; turn off extruder,M84 ; disable motors
;   exportFileFormat,gcode
;   celebration,0
;   celebrationSong,Random Song
;   postProcessing,
;   defaultSpeed,2400
;   outlineUnderspeed,0.5
;   solidInfillUnderspeed,0.8
;   supportUnderspeed,0.8
;   rapidXYspeed,2400
;   rapidZspeed,900
;   minBridgingArea,50
;   bridgingExtraInflation,0
;   bridgingExtrusionMultiplier,1
;   bridgingSpeedMultiplier,1
;   useFixedBridgingAngle,0
;   fixedBridgingAngle,0
;   applyBridgingToPerimeters,0
;   filamentDiameters,1.75|3|3|3|3|3
;   filamentPricesPerKg,46|46|46|46|46|46
;   filamentDensities,1.25|1.25|1.25|1.25|1.25|1.25
;   useMinPrintHeight,0
;   minPrintHeight,0
;   useMaxPrintHeight,0
;   maxPrintHeight,0
;   useDiaphragm,0
;   diaphragmLayerInterval,20
;   robustSlicing,1
;   mergeAllIntoSolid,0
;   onlyRetractWhenCrossingOutline,1
;   retractBetweenLayers,0
;   useRetractionMinTravel,1
;   retractionMinTravel,3
;   retractWhileWiping,0
;   onlyWipeOutlines,1
;   avoidCrossingOutline,1
;   maxMovementDetourFactor,3
;   toolChangeRetractionDistance,12
;   toolChangeExtraRestartDistance,-0.5
;   toolChangeRetractionSpeed,600
;   externalThinWallType,0
;   internalThinWallType,2
;   thinWallAllowedOverlapPercentage,10
;   singleExtrusionMinLength,1
;   singleExtrusionMinPrintingWidthPercentage,50
;   singleExtrusionMaxPrintingWidthPercentage,200
;   singleExtrusionEndpointExtension,0
;   horizontalSizeCompensation,0
G90
M82
M106 S255
M104 S220 T0
M109 S220 T0
G28 ; home all axes
G1 Z 2 ; set height for prime line
G92 E0 ; zero extruder
G1 X150 E30 F400 ; prime line
; process Process1
; layer 1, Z = 0.375
T0
G92 E0.0000
G1 E-5.0000 F3000
; feature skirt
; tool H0.375 W0.360
G1 Z0.375 F900
G1 X116.806 Y55.385 F2400
G1 E0.0000 F3000
G92 E0.0000
G1 X118.077 Y52.956 E0.1385 F1200
G1 X118.157 Y52.814 E0.1467
G1 X119.565 Y50.537 E0.2820
G1 X119.657 Y50.400 E0.2903
G1 X121.246 Y48.204 E0.4272
G1 X121.347 Y48.074 E0.4355
G1 X123.091 Y45.999 E0.5724
G1 X123.201 Y45.877 E0.5808
G1 X125.091 Y43.934 E0.7177
G1 X125.210 Y43.820 E0.7260
G1 X127.236 Y42.020 E0.8629
G1 X127.363 Y41.915 E0.8712
G1 X129.514 Y40.267 E1.0081
G1 X129.649 Y40.171 E1.0165
G1 X131.914 Y38.683 E1.1534
G1 X132.055 Y38.598 E1.1617
G1 X134.422 Y37.278 E1.2986
G1 X134.569 Y37.203 E1.3069
G1 X137.026 Y36.059 E1.4438
G1 X137.178 Y35.994 E1.4521
G1 X139.711 Y35.031 E1.5890
G1 X139.867 Y34.978 E1.5974
G1 X142.464 Y34.202 E1.7343
G1 X142.623 Y34.160 E1.7426
G1 X145.269 Y33.574 E1.8795
G1 X145.432 Y33.545 E1.8878
G1 X148.113 Y33.152 E2.0247
G1 X148.277 Y33.134 E2.0331
G1 X150.980 Y32.938 E2.1700
G1 X151.145 Y32.932 E2.1783
G1 X153.855 Y32.932 E2.3152
G1 X154.020 Y32.938 E2.3235
G1 X156.723 Y33.134 E2.4604
G1 X156.887 Y33.152 E2.4688
G1 X159.568 Y33.545 E2.6057
G1 X159.731 Y33.574 E2.6140
G1 X162.377 Y34.160 E2.7509
G1 X162.536 Y34.202 E2.7592
G1 X165.133 Y34.978 E2.8961
G1 X165.289 Y35.031 E2.9045
G1 X167.822 Y35.994 E3.0414
G1 X167.974 Y36.059 E3.0497
G1 X170.431 Y37.203 E3.1866
G1 X170.578 Y37.278 E3.1949
G1 X172.945 Y38.598 E3.3318
G1 X173.086 Y38.683 E3.3401
G1 X175.351 Y40.171 E3.4770
G1 X175.485 Y40.267 E3.4854
G1 X177.637 Y41.915 E3.6223
G1 X177.764 Y42.020 E3.6306
G1 X179.790 Y43.820 E3.7675
G1 X179.909 Y43.934 E3.7758
G1 X181.799 Y45.877 E3.9127
G1 X181.909 Y45.999 E3.9211
G1 X183.653 Y48.074 E4.0580
G1 X183.754 Y48.204 E4.0663
G1 X185.343 Y50.400 E4.2032
G1 X185.435 Y50.537 E4.2115
G1 X186.860 Y52.842 E4.3484
G1 X186.941 Y52.985 E4.3568
G1 X188.195 Y55.388 E4.4937
G1 X188.266 Y55.537 E4.5020
G1 X189.342 Y58.024 E4.6389
G1 X189.402 Y58.178 E4.6472
G1 X190.295 Y60.736 E4.7841
G1 X190.344 Y60.894 E4.7924
G1 X191.049 Y63.511 E4.9293
G1 X191.086 Y63.672 E4.9377
G1 X191.598 Y66.333 E5.0746
G1 X191.624 Y66.496 E5.0829
G1 X191.942 Y69.187 E5.2198
G1 X191.956 Y69.352 E5.2281
G1 X192.078 Y72.059 E5.3650
G1 X192.079 Y72.224 E5.3734
G1 X192.005 Y74.933 E5.5103
G1 X191.994 Y75.098 E5.5186
G1 X191.723 Y77.794 E5.6555
G1 X191.700 Y77.957 E5.6638
G1 X191.234 Y80.627 E5.8007
G1 X191.200 Y80.789 E5.8091
G1 X190.541 Y83.417 E5.9460
G1 X190.495 Y83.576 E5.9543
G1 X189.648 Y86.150 E6.0912
G1 X189.590 Y86.305 E6.0995
G1 X188.558 Y88.810 E6.2364
G1 X188.490 Y88.961 E6.2447
G1 X187.278 Y91.385 E6.3816
G1 X187.199 Y91.530 E6.3900
G1 X185.815 Y93.859 E6.5269
G1 X185.725 Y93.998 E6.5352
G1 X184.175 Y96.221 E6.6721
G1 X184.076 Y96.353 E6.6804
G1 X182.369 Y98.458 E6.8173
G1 X182.261 Y98.582 E6.8257
G1 X180.405 Y100.558 E6.9626
G1 X180.288 Y100.674 E6.9709
G1 X178.297 Y102.506 E7.1076
G1 X178.179 Y102.608 E7.1155
G1 X174.725 Y105.373 E7.3390
G1 X173.578 Y106.485 E7.4197
G1 X172.527 Y107.702 E7.5009
G1 X171.590 Y109.009 E7.5821
G1 X170.774 Y110.395 E7.6634
G1 X170.085 Y111.847 E7.7446
G1 X169.528 Y113.356 E7.8258
G1 X169.109 Y114.909 E7.9070
G1 X168.830 Y116.492 E7.9883
G1 X168.694 Y118.095 E8.0695
G1 X168.702 Y119.696 E8.1504
G1 X168.865 Y121.362 E8.2350
G1 X169.148 Y122.884 E8.3132
G1 X169.583 Y124.433 E8.3944
G1 X170.155 Y125.936 E8.4756
G1 X170.858 Y127.382 E8.5569
G1 X171.690 Y128.761 E8.6382
G1 X173.999 Y131.921 E8.8360
G1 X174.118 Y132.101 E8.8468
G1 X175.246 Y133.998 E8.9583
G1 X175.346 Y134.185 E8.9690
G1 X176.291 Y136.178 E9.0805
G1 X176.373 Y136.375 E9.0912
G1 X177.127 Y138.447 E9.2026
G1 X177.191 Y138.650 E9.2134
G1 X177.748 Y140.785 E9.3248
G1 X177.792 Y140.993 E9.3355
G1 X178.147 Y143.170 E9.4469
G1 X178.172 Y143.381 E9.4577
G1 X178.322 Y145.582 E9.5691
G1 X178.326 Y145.794 E9.5799
G1 X178.270 Y147.999 E9.6913
G1 X178.255 Y148.211 E9.7020
G1 X177.993 Y150.401 E9.8134
G1 X177.957 Y150.611 E9.8242
G1 X177.492 Y152.767 E9.9356
G1 X177.437 Y152.973 E9.9463
G1 X176.771 Y155.076 E10.0578
G1 X176.698 Y155.275 E10.0685
G1 X175.839 Y157.307 E10.1799
G1 X175.747 Y157.499 E10.1907
G1 X174.701 Y159.441 E10.3021
G1 X174.592 Y159.623 E10.3128
G1 X173.369 Y161.459 E10.4243
G1 X173.243 Y161.630 E10.4350
G1 X171.854 Y163.344 E10.5464
G1 X171.713 Y163.503 E10.5572
G1 X170.170 Y165.079 E10.6686
G1 X170.014 Y165.224 E10.6793
G1 X168.331 Y166.649 E10.7908
G1 X168.162 Y166.779 E10.8015
G1 X166.353 Y168.040 E10.9129
G1 X166.173 Y168.153 E10.9237
G1 X164.253 Y169.240 E11.0351
G1 X164.063 Y169.336 E11.0458
G1 X162.050 Y170.238 E11.1572
G1 X161.853 Y170.316 E11.1680
G1 X159.764 Y171.026 E11.2794
G1 X159.560 Y171.085 E11.2902
G1 X157.414 Y171.597 E11.4016
G1 X157.206 Y171.636 E11.4123
G1 X155.021 Y171.945 E11.5237
G1 X154.810 Y171.965 E11.5345
G1 X152.606 Y172.068 E11.6459
G1 X152.394 Y172.068 E11.6566
G1 X150.190 Y171.965 E11.7681
G1 X149.979 Y171.945 E11.7788
G1 X147.794 Y171.636 E11.8902
G1 X147.586 Y171.597 E11.9010
G1 X145.440 Y171.085 E12.0124
G1 X145.236 Y171.026 E12.0231
G1 X143.147 Y170.316 E12.1346
G1 X142.950 Y170.238 E12.1453
G1 X140.937 Y169.336 E12.2567
G1 X140.747 Y169.240 E12.2675
G1 X138.827 Y168.153 E12.3789
G1 X138.647 Y168.040 E12.3896
G1 X136.838 Y166.779 E12.5010
G1 X136.669 Y166.649 E12.5118
G1 X134.986 Y165.224 E12.6232
G1 X134.830 Y165.079 E12.6340
G1 X133.287 Y163.503 E12.7454
G1 X133.145 Y163.344 E12.7561
G1 X131.757 Y161.630 E12.8675
G1 X131.631 Y161.459 E12.8783
G1 X130.408 Y159.623 E12.9897
G1 X130.299 Y159.441 E13.0004
G1 X129.253 Y157.499 E13.1119
G1 X129.161 Y157.307 E13.1226
G1 X128.302 Y155.275 E13.2340
G1 X128.229 Y155.076 E13.2448
G1 X127.563 Y152.973 E13.3562
G1 X127.508 Y152.767 E13.3669
G1 X127.043 Y150.611 E13.4784
G1 X127.007 Y150.401 E13.4891
G1 X126.745 Y148.211 E13.6005
G1 X126.730 Y147.999 E13.6113
G1 X126.674 Y145.794 E13.7227
G1 X126.678 Y145.582 E13.7334
G1 X126.828 Y143.381 E13.8449
G1 X126.853 Y143.170 E13.8556
G1 X127.208 Y140.993 E13.9670
G1 X127.252 Y140.785 E13.9778
G1 X127.809 Y138.650 E14.0892
G1 X127.873 Y138.447 E14.0999
G1 X128.627 Y136.375 E14.2113
G1 X128.709 Y136.178 E14.2221
G1 X129.654 Y134.185 E14.3335
G1 X129.754 Y133.998 E14.3443
G1 X130.882 Y132.101 E14.4557
G1 X131.001 Y131.921 E14.4666
G1 X133.310 Y128.761 E14.6643
G1 X134.142 Y127.382 E14.7457
G1 X134.845 Y125.936 E14.8269
G1 X135.417 Y124.433 E14.9081
G1 X135.852 Y122.885 E14.9894
G1 X136.146 Y121.304 E15.0706
G1 X136.298 Y119.703 E15.1518
G1 X136.306 Y118.095 E15.2331
G1 X136.170 Y116.492 E15.3143
G1 X135.891 Y114.909 E15.3955
G1 X135.472 Y113.356 E15.4767
G1 X134.916 Y111.848 E15.5580
G1 X134.226 Y110.395 E15.6392
G1 X133.410 Y109.009 E15.7204
G1 X132.473 Y107.703 E15.8017
G1 X131.422 Y106.485 E15.8829
G1 X130.275 Y105.373 E15.9636
G1 X126.821 Y102.608 E16.1871
G1 X126.703 Y102.506 E16.1950
G1 X124.712 Y100.674 E16.3317
G1 X124.595 Y100.558 E16.3400
G1 X122.739 Y98.582 E16.4769
G1 X122.631 Y98.458 E16.4852
G1 X120.924 Y96.353 E16.6221
G1 X120.825 Y96.221 E16.6304
G1 X119.275 Y93.998 E16.7673
G1 X119.185 Y93.859 E16.7757
G1 X117.801 Y91.530 E16.9126
G1 X117.722 Y91.385 E16.9209
G1 X116.510 Y88.961 E17.0578
G1 X116.442 Y88.810 E17.0661
G1 X115.410 Y86.305 E17.2030
G1 X115.352 Y86.150 E17.2114
G1 X114.505 Y83.576 E17.3483
G1 X114.459 Y83.417 E17.3566
G1 X113.800 Y80.789 E17.4935
G1 X113.766 Y80.627 E17.5018
G1 X113.300 Y77.957 E17.6387
G1 X113.277 Y77.794 E17.6471
G1 X113.006 Y75.098 E17.7840
G1 X112.995 Y74.933 E17.7923
G1 X112.921 Y72.224 E17.9292
G1 X112.922 Y72.059 E17.9375
G1 X113.044 Y69.352 E18.0744
G1 X113.058 Y69.187 E18.0827
G1 X113.376 Y66.496 E18.2196
G1 X113.402 Y66.333 E18.2280
G1 X113.914 Y63.672 E18.3649
G1 X113.951 Y63.511 E18.3732
G1 X114.656 Y60.894 E18.5101
G1 X114.705 Y60.736 E18.5184
G1 X115.598 Y58.178 E18.6553
G1 X115.658 Y58.024 E18.6637
G1 X116.734 Y55.536 E18.8006
G1 X116.806 Y55.385 E18.8091
G1 X117.128 Y55.546 F2400
G92 E0.0000
G1 X118.393 Y53.129 E0.1378 F1200
G1 X118.467 Y52.998 E0.1454
G1 X119.868 Y50.731 E0.2800
G1 X119.952 Y50.605 E0.2877
G1 X121.533 Y48.420 E0.4239
G1 X121.627 Y48.300 E0.4316
G1 X123.362 Y46.236 E0.5678
G1 X123.464 Y46.123 E0.5755
G1 X125.345 Y44.190 E0.7117
G1 X125.454 Y44.085 E0.7194
G1 X127.470 Y42.293 E0.8556
G1 X127.588 Y42.197 E0.8633
G1 X129.728 Y40.556 E0.9995
G1 X129.852 Y40.468 E1.0072
G1 X132.106 Y38.988 E1.1435
G1 X132.236 Y38.909 E1.1511
G1 X134.592 Y37.596 E1.2874
G1 X134.727 Y37.526 E1.2950
G1 X137.172 Y36.388 E1.4313
G1 X137.312 Y36.329 E1.4389
G1 X139.833 Y35.370 E1.5752
G1 X139.977 Y35.322 E1.5829
G1 X142.561 Y34.549 E1.7191
G1 X142.708 Y34.511 E1.7268
G1 X145.341 Y33.927 E1.8630
G1 X145.490 Y33.900 E1.8707
G1 X148.159 Y33.509 E2.0069
G1 X148.310 Y33.493 E2.0146
G1 X151.000 Y33.297 E2.1508
G1 X151.151 Y33.292 E2.1585
G1 X153.849 Y33.292 E2.2947
G1 X154.000 Y33.297 E2.3024
G1 X156.690 Y33.493 E2.4386
G1 X156.841 Y33.509 E2.4463
G1 X159.510 Y33.900 E2.5825
G1 X159.659 Y33.927 E2.5902
G1 X162.292 Y34.511 E2.7265
G1 X162.439 Y34.549 E2.7341
G1 X165.023 Y35.322 E2.8704
G1 X165.167 Y35.370 E2.8780
G1 X167.688 Y36.329 E3.0143
G1 X167.828 Y36.388 E3.0219
G1 X170.273 Y37.526 E3.1582
G1 X170.408 Y37.596 E3.1659
G1 X172.764 Y38.909 E3.3021
G1 X172.894 Y38.988 E3.3098
G1 X175.148 Y40.468 E3.4460
G1 X175.272 Y40.556 E3.4537
G1 X177.412 Y42.197 E3.5899
G1 X177.530 Y42.293 E3.5976
G1 X179.546 Y44.085 E3.7338
G1 X179.655 Y44.190 E3.7415
G1 X181.536 Y46.123 E3.8777
G1 X181.638 Y46.236 E3.8854
G1 X183.373 Y48.300 E4.0216
G1 X183.467 Y48.420 E4.0293
G1 X185.048 Y50.605 E4.1655
G1 X185.132 Y50.731 E4.1732
G1 X186.550 Y53.026 E4.3095
G1 X186.625 Y53.158 E4.3171
G1 X187.873 Y55.549 E4.4534
G1 X187.938 Y55.686 E4.4610
G1 X189.009 Y58.161 E4.5973
G1 X189.065 Y58.302 E4.6049
G1 X189.953 Y60.849 E4.7412
G1 X189.998 Y60.994 E4.7489
G1 X190.699 Y63.598 E4.8851
G1 X190.733 Y63.746 E4.8928
G1 X191.244 Y66.395 E5.0290
G1 X191.267 Y66.545 E5.0367
G1 X191.584 Y69.223 E5.1729
G1 X191.596 Y69.374 E5.1806
G1 X191.718 Y72.069 E5.3168
G1 X191.719 Y72.220 E5.3245
G1 X191.645 Y74.917 E5.4607
G1 X191.635 Y75.068 E5.4684
G1 X191.365 Y77.752 E5.6046
G1 X191.345 Y77.902 E5.6123
G1 X190.881 Y80.559 E5.7485
G1 X190.849 Y80.707 E5.7562
G1 X190.194 Y83.324 E5.8925
G1 X190.151 Y83.469 E5.9001
G1 X189.308 Y86.031 E6.0364
G1 X189.255 Y86.174 E6.0440
G1 X188.228 Y88.667 E6.1803
G1 X188.165 Y88.805 E6.1879
G1 X186.959 Y91.218 E6.3242
G1 X186.886 Y91.351 E6.3319
G1 X185.508 Y93.670 E6.4681
