; G-Code generated by Simplify3D(R) Version 4.1.2
; May 5, 2021 at 6:33:06 PM
; Settings Summary
;   processName,Process1
;   applyToModels,JRCNC0009 v3
;   profileName,NORMAL (modified)
;   profileVersion,2021-04-03 23:45:23
;   baseProfile,Wanhao Duplicator 5S Mini
;   printMaterial,PLA
;   printQuality,0.25
;   printExtruders,
;   extruderName,Primary Extruder
;   extruderToolheadNumber,0
;   extruderDiameter,0.3
;   extruderAutoWidth,1
;   extruderWidth,0.36
;   extrusionMultiplier,0.9
;   extruderUseRetract,1
;   extruderRetractionDistance,5
;   extruderExtraRestartDistance,0
;   extruderRetractionZLift,0
;   extruderRetractionSpeed,3000
;   extruderUseCoasting,0
;   extruderCoastingDistance,1.5
;   extruderUseWipe,0
;   extruderWipeDistance,5
;   primaryExtruder,0
;   layerHeight,0.25
;   topSolidLayers,3
;   bottomSolidLayers,3
;   perimeterOutlines,3
;   printPerimetersInsideOut,1
;   startPointOption,3
;   startPointOriginX,0
;   startPointOriginY,0
;   sequentialIslands,0
;   spiralVaseMode,0
;   firstLayerHeightPercentage,150
;   firstLayerWidthPercentage,100
;   firstLayerUnderspeed,0.5
;   useRaft,0
;   raftExtruder,0
;   raftTopLayers,3
;   raftBaseLayers,2
;   raftOffset,3
;   raftSeparationDistance,0.14
;   raftTopInfill,100
;   aboveRaftSpeedMultiplier,0.3
;   useSkirt,1
;   skirtExtruder,0
;   skirtLayers,2
;   skirtOutlines,2
;   skirtOffset,4
;   usePrimePillar,0
;   primePillarExtruder,999
;   primePillarWidth,12
;   primePillarLocation,7
;   primePillarSpeedMultiplier,1
;   useOozeShield,0
;   oozeShieldExtruder,999
;   oozeShieldOffset,2
;   oozeShieldOutlines,1
;   oozeShieldSidewallShape,1
;   oozeShieldSidewallAngle,30
;   oozeShieldSpeedMultiplier,1
;   infillExtruder,0
;   internalInfillPattern,Triangular
;   externalInfillPattern,Rectilinear
;   infillPercentage,30
;   outlineOverlapPercentage,15
;   infillExtrusionWidthPercentage,150
;   minInfillLength,5
;   infillLayerInterval,1
;   internalInfillAngles,0,60,-60
;   overlapInternalInfillAngles,1
;   externalInfillAngles,45,-45
;   generateSupport,1
;   supportExtruder,0
;   supportInfillPercentage,40
;   supportExtraInflation,1
;   supportBaseLayers,0
;   denseSupportExtruder,0
;   denseSupportLayers,0
;   denseSupportInfillPercentage,70
;   supportLayerInterval,1
;   supportHorizontalPartOffset,1
;   supportUpperSeparationLayers,1
;   supportLowerSeparationLayers,1
;   supportType,0
;   supportGridSpacing,4
;   maxOverhangAngle,45
;   supportAngles,0
;   temperatureName,Primary Extruder
;   temperatureNumber,0
;   temperatureSetpointCount,2
;   temperatureSetpointLayers,1,5
;   temperatureSetpointTemperatures,220,210
;   temperatureStabilizeAtStartup,1
;   temperatureHeatedBed,0
;   fanLayers,1,2
;   fanSpeeds,100,100
;   blipFanToFullPower,0
;   adjustSpeedForCooling,1
;   minSpeedLayerTime,7
;   minCoolingSpeedSlowdown,20
;   increaseFanForCooling,0
;   minFanLayerTime,45
;   maxCoolingFanSpeed,100
;   increaseFanForBridging,0
;   bridgingFanSpeed,100
;   use5D,1
;   relativeEdistances,0
;   allowEaxisZeroing,1
;   independentExtruderAxes,0
;   includeM10123,0
;   stickySupport,1
;   applyToolheadOffsets,0
;   gcodeXoffset,0
;   gcodeYoffset,0
;   gcodeZoffset,0
;   overrideMachineDefinition,0
;   machineTypeOverride,0
;   strokeXoverride,305
;   strokeYoverride,205
;   strokeZoverride,205
;   originOffsetXoverride,0
;   originOffsetYoverride,0
;   originOffsetZoverride,0
;   homeXdirOverride,-1
;   homeYdirOverride,-1
;   homeZdirOverride,-1
;   flipXoverride,1
;   flipYoverride,-1
;   flipZoverride,1
;   toolheadOffsets,0,0|0,0|0,0|0,0|0,0|0,0
;   overrideFirmwareConfiguration,1
;   firmwareTypeOverride,RepRap (Marlin/Repetier/Sprinter)
;   GPXconfigOverride,r2
;   baudRateOverride,115200
;   overridePrinterModels,1
;   printerModelsOverride
;   startingGcode,G28 ; home all axes,G1 Z 2 ; set height for prime line,G92 E0 ; zero extruder,G1 X150 E30 F400 ; prime line
;   layerChangeGcode,
;   retractionGcode,
;   toolChangeGcode,
;   endingGcode,G28 X0 ; home X axis,M104 S0 ; turn off extruder,M84 ; disable motors
;   exportFileFormat,gcode
;   celebration,0
;   celebrationSong,Random Song
;   postProcessing,
;   defaultSpeed,2400
;   outlineUnderspeed,0.5
;   solidInfillUnderspeed,0.8
;   supportUnderspeed,0.8
;   rapidXYspeed,2400
;   rapidZspeed,900
;   minBridgingArea,50
;   bridgingExtraInflation,0
;   bridgingExtrusionMultiplier,1
;   bridgingSpeedMultiplier,1
;   useFixedBridgingAngle,0
;   fixedBridgingAngle,0
;   applyBridgingToPerimeters,0
;   filamentDiameters,1.75|3|3|3|3|3
;   filamentPricesPerKg,46|46|46|46|46|46
;   filamentDensities,1.25|1.25|1.25|1.25|1.25|1.25
;   useMinPrintHeight,0
;   minPrintHeight,0
;   useMaxPrintHeight,0
;   maxPrintHeight,0
;   useDiaphragm,0
;   diaphragmLayerInterval,20
;   robustSlicing,1
;   mergeAllIntoSolid,0
;   onlyRetractWhenCrossingOutline,1
;   retractBetweenLayers,0
;   useRetractionMinTravel,1
;   retractionMinTravel,3
;   retractWhileWiping,0
;   onlyWipeOutlines,1
;   avoidCrossingOutline,1
;   maxMovementDetourFactor,3
;   toolChangeRetractionDistance,12
;   toolChangeExtraRestartDistance,-0.5
;   toolChangeRetractionSpeed,600
;   externalThinWallType,0
;   internalThinWallType,2
;   thinWallAllowedOverlapPercentage,10
;   singleExtrusionMinLength,1
;   singleExtrusionMinPrintingWidthPercentage,50
;   singleExtrusionMaxPrintingWidthPercentage,200
;   singleExtrusionEndpointExtension,0
;   horizontalSizeCompensation,0
G90
M82
M106 S255
M104 S220 T0
M109 S220 T0
G28 ; home all axes
G1 Z 2 ; set height for prime line
G92 E0 ; zero extruder
G1 X150 E30 F400 ; prime line
; process Process1
; layer 1, Z = 0.375
T0
G92 E0.0000
G1 E-5.0000 F3000
; feature skirt
; tool H0.375 W0.360
G1 Z0.375 F900
G1 X116.996 Y73.344 F2400
G1 E0.0000 F3000
G92 E0.0000
G1 X119.656 Y70.685 E0.1900 F1200
G1 X141.909 Y70.685 E1.3141
G1 X142.013 Y70.687 E1.3194
G1 X142.639 Y70.716 E1.3510
G1 X142.848 Y70.736 E1.3616
G1 X143.521 Y70.830 E1.3959
G1 X143.727 Y70.868 E1.4065
G1 X144.388 Y71.024 E1.4408
G1 X144.590 Y71.081 E1.4514
G1 X145.233 Y71.297 E1.4857
G1 X145.429 Y71.373 E1.4963
G1 X146.050 Y71.647 E1.5306
G1 X146.238 Y71.740 E1.5412
G1 X146.831 Y72.071 E1.5755
G1 X147.010 Y72.181 E1.5861
G1 X147.570 Y72.565 E1.6204
G1 X147.737 Y72.691 E1.6310
G1 X148.260 Y73.125 E1.6653
G1 X148.415 Y73.266 E1.6759
G1 X148.895 Y73.747 E1.7102
G1 X149.036 Y73.902 E1.7208
G1 X149.470 Y74.424 E1.7551
G1 X149.596 Y74.591 E1.7657
G1 X149.980 Y75.152 E1.8000
G1 X150.090 Y75.330 E1.8106
G1 X150.421 Y75.923 E1.8449
G1 X150.514 Y76.111 E1.8555
G1 X150.789 Y76.732 E1.8898
G1 X150.864 Y76.928 E1.9004
G1 X151.080 Y77.571 E1.9347
G1 X151.138 Y77.773 E1.9453
G1 X151.293 Y78.434 E1.9796
G1 X151.332 Y78.640 E1.9902
G1 X151.425 Y79.313 E2.0245
G1 X151.445 Y79.522 E2.0351
G1 X151.474 Y80.148 E2.0667
G1 X151.476 Y80.253 E2.0720
G1 X151.476 Y159.656 E6.0830
G1 X148.817 Y162.315 E6.2729
G1 X138.706 Y162.315 E6.7837
G1 X136.046 Y159.656 E6.9737
G1 X136.046 Y124.860 E8.7313
G1 X136.039 Y124.706 E8.7391
G1 X136.032 Y124.656 E8.7416
G1 X136.021 Y124.609 E8.7441
G1 X136.005 Y124.562 E8.7466
G1 X135.985 Y124.516 E8.7491
G1 X135.961 Y124.473 E8.7516
G1 X135.933 Y124.432 E8.7541
G1 X135.902 Y124.395 E8.7566
G1 X135.867 Y124.359 E8.7591
G1 X135.829 Y124.328 E8.7616
G1 X135.788 Y124.300 E8.7641
G1 X135.745 Y124.276 E8.7666
G1 X135.699 Y124.256 E8.7691
G1 X135.653 Y124.240 E8.7716
G1 X135.605 Y124.229 E8.7741
G1 X135.556 Y124.222 E8.7766
G1 X135.401 Y124.215 E8.7844
G1 X111.136 Y124.215 E10.0101
G1 X110.741 Y124.180 E10.0302
G1 X109.720 Y124.000 E10.0825
G1 X108.973 Y123.729 E10.1227
G1 X107.990 Y123.161 E10.1800
G1 X107.518 Y122.799 E10.2101
G1 X106.940 Y122.221 E10.2513
G1 X106.578 Y121.749 E10.2814
G1 X106.010 Y120.765 E10.3388
G1 X105.738 Y120.019 E10.3789
G1 X105.524 Y118.802 E10.4413
G1 X105.524 Y118.008 E10.4814
G1 X105.738 Y116.791 E10.5438
G1 X106.010 Y116.045 E10.5840
G1 X106.628 Y114.975 E10.6464
G1 X107.138 Y114.366 E10.6865
G1 X108.008 Y113.636 E10.7439
G1 X108.510 Y113.316 E10.7739
G1 X109.071 Y113.055 E10.8052
G1 X109.254 Y112.979 E10.8152
G1 X136.037 Y103.231 E12.2549
G1 X129.587 Y85.508 E13.2076
G1 X120.868 Y88.682 E13.6763
G1 X116.996 Y85.970 E13.9151
G1 X116.996 Y73.344 E14.5529
G1 X117.356 Y73.494 F2400
G92 E0.0000
G1 X119.805 Y71.045 E0.1749 F1200
G1 X141.904 Y71.045 E1.2913
G1 X142.001 Y71.047 E1.2961
G1 X142.614 Y71.076 E1.3272
G1 X142.807 Y71.093 E1.3369
G1 X143.463 Y71.185 E1.3704
G1 X143.653 Y71.220 E1.3801
G1 X144.297 Y71.372 E1.4136
G1 X144.483 Y71.425 E1.4233
G1 X145.111 Y71.635 E1.4568
G1 X145.291 Y71.705 E1.4666
G1 X145.897 Y71.973 E1.5000
G1 X146.070 Y72.059 E1.5098
G1 X146.649 Y72.381 E1.5432
G1 X146.813 Y72.483 E1.5530
G1 X147.360 Y72.857 E1.5865
G1 X147.514 Y72.974 E1.5962
G1 X148.023 Y73.397 E1.6297
G1 X148.166 Y73.527 E1.6394
G1 X148.634 Y73.995 E1.6729
G1 X148.764 Y74.138 E1.6826
G1 X149.188 Y74.648 E1.7161
G1 X149.304 Y74.802 E1.7259
G1 X149.678 Y75.348 E1.7593
G1 X149.780 Y75.512 E1.7691
G1 X150.102 Y76.091 E1.8025
G1 X150.188 Y76.264 E1.8123
G1 X150.456 Y76.870 E1.8457
G1 X150.526 Y77.050 E1.8555
G1 X150.736 Y77.678 E1.8890
G1 X150.789 Y77.864 E1.8987
G1 X150.941 Y78.508 E1.9322
G1 X150.976 Y78.698 E1.9419
G1 X151.068 Y79.355 E1.9754
G1 X151.086 Y79.547 E1.9852
G1 X151.114 Y80.160 E2.0162
G1 X151.116 Y80.257 E2.0210
G1 X151.116 Y159.506 E6.0243
G1 X148.668 Y161.955 E6.1992
G1 X138.855 Y161.955 E6.6949
G1 X136.406 Y159.506 E6.8698
G1 X136.406 Y124.852 E8.6203
G1 X136.398 Y124.672 E8.6294
G1 X136.386 Y124.590 E8.6336
G1 X136.368 Y124.510 E8.6377
G1 X136.341 Y124.432 E8.6419
G1 X136.308 Y124.356 E8.6461
G1 X136.268 Y124.283 E8.6503
G1 X136.221 Y124.215 E8.6545
G1 X136.168 Y124.152 E8.6586
G1 X136.109 Y124.093 E8.6628
G1 X136.046 Y124.040 E8.6670
G1 X135.978 Y123.994 E8.6712
G1 X135.905 Y123.953 E8.6753
G1 X135.830 Y123.920 E8.6795
G1 X135.751 Y123.894 E8.6837
G1 X135.671 Y123.875 E8.6879
G1 X135.589 Y123.863 E8.6921
G1 X135.410 Y123.855 E8.7011
G1 X111.151 Y123.855 E9.9265
G1 X110.788 Y123.823 E9.9449
G1 X109.813 Y123.651 E9.9949
G1 X109.126 Y123.401 E10.0319
G1 X108.190 Y122.861 E10.0865
G1 X107.755 Y122.527 E10.1141
G1 X107.211 Y121.983 E10.1530
G1 X106.878 Y121.549 E10.1807
G1 X106.338 Y120.613 E10.2353
G1 X106.087 Y119.925 E10.2722
G1 X105.884 Y118.771 E10.3314
G1 X105.884 Y118.039 E10.3684
G1 X106.087 Y116.885 E10.4276
G1 X106.338 Y116.197 E10.4646
G1 X106.924 Y115.182 E10.5238
G1 X107.394 Y114.622 E10.5607
G1 X108.222 Y113.927 E10.6153
G1 X108.684 Y113.633 E10.6430
G1 X109.216 Y113.385 E10.6726
G1 X109.384 Y113.315 E10.6818
G1 X136.499 Y103.446 E12.1394
G1 X129.802 Y85.047 E13.1285
G1 X120.921 Y88.279 E13.6059
G1 X117.356 Y85.783 E13.8257
G1 X117.356 Y73.494 E14.4465
G92 E0.0000
G1 E-5.0000 F3000
; feature inner perimeter
G1 X121.716 Y75.405 F2400
G1 X121.716 Y75.752
G1 X122.436 Y76.125
G1 E0.0000 F3000
G92 E0.0000
G1 X141.835 Y76.125 E0.9799 F900
G1 X142.242 Y76.144 E1.0005
G1 X142.624 Y76.197 E1.0200
G1 X143.000 Y76.286 E1.0395
G1 X143.366 Y76.408 E1.0590
G1 X143.719 Y76.564 E1.0785
G1 X144.056 Y76.752 E1.0980
G1 X144.375 Y76.970 E1.1175
G1 X144.672 Y77.217 E1.1370
G1 X144.945 Y77.490 E1.1565
G1 X145.191 Y77.787 E1.1760
G1 X145.409 Y78.105 E1.1955
G1 X145.597 Y78.442 E1.2150
G1 X145.753 Y78.796 E1.2345
G1 X145.876 Y79.161 E1.2540
G1 X145.964 Y79.537 E1.2735
G1 X146.017 Y79.919 E1.2930
G1 X146.036 Y80.326 E1.3135
G1 X146.036 Y156.875 E5.1803
G1 X141.486 Y156.875 E5.4101
G1 X141.486 Y124.734 E7.0337
G1 X141.462 Y124.203 E7.0605
G1 X141.385 Y123.656 E7.0885
G1 X141.259 Y123.118 E7.1164
G1 X141.083 Y122.594 E7.1443
G1 X140.860 Y122.089 E7.1722
G1 X140.591 Y121.606 E7.2001
G1 X140.279 Y121.151 E7.2280
G1 X139.926 Y120.726 E7.2559
G1 X139.536 Y120.335 E7.2838
G1 X139.111 Y119.982 E7.3117
G1 X138.655 Y119.670 E7.3396
G1 X138.172 Y119.401 E7.3675
G1 X137.667 Y119.178 E7.3954
G1 X137.143 Y119.002 E7.4233
G1 X136.605 Y118.876 E7.4512
G1 X136.058 Y118.800 E7.4791
G1 X135.527 Y118.775 E7.5060
G1 X111.373 Y118.775 E8.7261
G1 X111.270 Y118.766 E8.7313
G1 X111.208 Y118.749 E8.7345
G1 X111.150 Y118.722 E8.7378
G1 X111.098 Y118.686 E8.7410
G1 X111.053 Y118.641 E8.7442
G1 X111.016 Y118.588 E8.7475
G1 X110.989 Y118.530 E8.7507
G1 X110.973 Y118.469 E8.7539
G1 X110.967 Y118.405 E8.7571
G1 X110.973 Y118.341 E8.7604
G1 X110.989 Y118.280 E8.7636
G1 X111.016 Y118.222 E8.7668
G1 X111.053 Y118.169 E8.7700
G1 X111.098 Y118.124 E8.7733
G1 X111.150 Y118.088 E8.7765
G1 X111.244 Y118.044 E8.7817
G1 X143.010 Y106.482 E10.4893
G1 X132.838 Y78.536 E11.9916
G1 X122.436 Y82.322 E12.5507
G1 X122.436 Y76.125 E12.8638
G1 X122.076 Y75.765 F2400
G92 E0.0000
G1 X141.844 Y75.765 E0.9985 F900
G1 X142.275 Y75.785 E1.0203
G1 X142.690 Y75.843 E1.0415
G1 X143.098 Y75.939 E1.0627
G1 X143.496 Y76.072 E1.0839
G1 X143.880 Y76.241 E1.1051
G1 X144.246 Y76.446 E1.1262
G1 X144.592 Y76.682 E1.1474
G1 X144.914 Y76.950 E1.1686
G1 X145.211 Y77.247 E1.1898
G1 X145.479 Y77.569 E1.2110
G1 X145.716 Y77.915 E1.2321
G1 X145.920 Y78.282 E1.2533
G1 X146.089 Y78.665 E1.2745
G1 X146.222 Y79.063 E1.2957
G1 X146.318 Y79.471 E1.3169
G1 X146.376 Y79.886 E1.3380
G1 X146.396 Y80.318 E1.3599
G1 X146.396 Y157.235 E5.2453
G1 X141.126 Y157.235 E5.5115
G1 X141.126 Y124.743 E7.1528
G1 X141.103 Y124.236 E7.1784
G1 X141.031 Y123.722 E7.2046
G1 X140.912 Y123.217 E7.2308
G1 X140.747 Y122.725 E7.2570
G1 X140.537 Y122.250 E7.2833
G1 X140.285 Y121.796 E7.3095
G1 X139.991 Y121.368 E7.3357
G1 X139.660 Y120.968 E7.3619
G1 X139.293 Y120.601 E7.3882
G1 X138.893 Y120.270 E7.4144
G1 X138.465 Y119.976 E7.4406
G1 X138.012 Y119.724 E7.4668
G1 X137.537 Y119.514 E7.4931
G1 X137.044 Y119.349 E7.5193
G1 X136.539 Y119.230 E7.5455
G1 X136.025 Y119.158 E7.5717
G1 X135.519 Y119.135 E7.5973
G1 X111.357 Y119.135 E8.8178
G1 X111.207 Y119.122 E8.8254
G1 X111.085 Y119.089 E8.8318
G1 X110.970 Y119.035 E8.8382
G1 X110.866 Y118.963 E8.8446
G1 X110.776 Y118.873 E8.8511
G1 X110.703 Y118.769 E8.8575
G1 X110.650 Y118.654 E8.8639
G1 X110.617 Y118.531 E8.8703
G1 X110.606 Y118.405 E8.8767
G1 X110.617 Y118.279 E8.8831
G1 X110.650 Y118.156 E8.8895
G1 X110.703 Y118.041 E8.8959
G1 X110.776 Y117.937 E8.9023
G1 X110.866 Y117.847 E8.9087
G1 X110.970 Y117.775 E8.9152
G1 X111.106 Y117.711 E8.9228
G1 X142.548 Y106.267 E10.6129
G1 X132.623 Y78.997 E12.0789
G1 X122.076 Y82.836 E12.6458
G1 X122.076 Y75.765 E13.0030
; feature outer perimeter
G1 X121.716 Y75.405 F2400
G92 E0.0000
G1 X141.852 Y75.405 E1.0171 F600
G1 X142.308 Y75.426 E1.0402
G1 X142.756 Y75.489 E1.0631
G1 X143.197 Y75.592 E1.0859
G1 X143.626 Y75.736 E1.1088
G1 X144.040 Y75.919 E1.1317
G1 X144.436 Y76.139 E1.1545
G1 X144.809 Y76.395 E1.1774
G1 X145.157 Y76.684 E1.2002
G1 X145.477 Y77.004 E1.2231
G1 X145.766 Y77.352 E1.2460
G1 X146.022 Y77.726 E1.2688
G1 X146.242 Y78.121 E1.2917
G1 X146.425 Y78.535 E1.3145
G1 X146.569 Y78.964 E1.3374
G1 X146.673 Y79.405 E1.3603
G1 X146.735 Y79.853 E1.3831
G1 X146.756 Y80.309 E1.4062
G1 X146.756 Y157.595 E5.3102
G1 X140.766 Y157.595 E5.6128
G1 X140.766 Y124.751 E7.2719
G1 X140.744 Y124.270 E7.2962
G1 X140.677 Y123.788 E7.3207
G1 X140.566 Y123.315 E7.3453
G1 X140.411 Y122.855 E7.3698
G1 X140.215 Y122.410 E7.3944
G1 X139.978 Y121.986 E7.4189
G1 X139.704 Y121.585 E7.4435
G1 X139.394 Y121.211 E7.4680
G1 X139.050 Y120.868 E7.4925
G1 X138.676 Y120.557 E7.5171
G1 X138.275 Y120.283 E7.5416
G1 X137.851 Y120.046 E7.5662
G1 X137.406 Y119.850 E7.5907
G1 X136.946 Y119.696 E7.6153
G1 X136.473 Y119.584 E7.6398
G1 X135.992 Y119.517 E7.6643
G1 X135.510 Y119.495 E7.6887
G1 X111.342 Y119.495 E8.9095
G1 X111.145 Y119.478 E8.9195
G1 X110.961 Y119.429 E8.9291
G1 X110.789 Y119.348 E8.9387
G1 X110.634 Y119.239 E8.9483
G1 X110.499 Y119.105 E8.9579
G1 X110.390 Y118.950 E8.9675
G1 X110.310 Y118.778 E8.9771
G1 X110.261 Y118.594 E8.9867
G1 X110.244 Y118.405 E8.9963
G1 X110.261 Y118.216 E9.0058
G1 X110.310 Y118.032 E9.0154
G1 X110.390 Y117.860 E9.0250
G1 X110.499 Y117.705 E9.0346
G1 X110.634 Y117.571 E9.0442
G1 X110.789 Y117.462 E9.0538
G1 X110.968 Y117.378 E9.0638
G1 X142.087 Y106.052 E10.7366
G1 X132.408 Y79.459 E12.1661
