; G-Code generated by Simplify3D(R) Version 4.1.2
; Jul 12, 2021 at 5:32:39 PM
; Settings Summary
;   processName,Process1
;   applyToModels,JRCNC0013 v19
;   profileName,JR NORMAL (modified)
;   profileVersion,2021-06-28 21:15:49
;   baseProfile,Wanhao Duplicator 5S Mini
;   printMaterial,PLA
;   printQuality,0.25
;   printExtruders,
;   extruderName,Primary Extruder
;   extruderToolheadNumber,0
;   extruderDiameter,0.3
;   extruderAutoWidth,1
;   extruderWidth,0.36
;   extrusionMultiplier,0.9
;   extruderUseRetract,1
;   extruderRetractionDistance,5
;   extruderExtraRestartDistance,0
;   extruderRetractionZLift,0
;   extruderRetractionSpeed,3000
;   extruderUseCoasting,0
;   extruderCoastingDistance,1.5
;   extruderUseWipe,0
;   extruderWipeDistance,5
;   primaryExtruder,0
;   layerHeight,0.25
;   topSolidLayers,3
;   bottomSolidLayers,3
;   perimeterOutlines,3
;   printPerimetersInsideOut,1
;   startPointOption,3
;   startPointOriginX,0
;   startPointOriginY,0
;   sequentialIslands,0
;   spiralVaseMode,0
;   firstLayerHeightPercentage,150
;   firstLayerWidthPercentage,100
;   firstLayerUnderspeed,0.5
;   useRaft,0
;   raftExtruder,0
;   raftTopLayers,3
;   raftBaseLayers,2
;   raftOffset,3
;   raftSeparationDistance,0.14
;   raftTopInfill,100
;   aboveRaftSpeedMultiplier,0.3
;   useSkirt,1
;   skirtExtruder,0
;   skirtLayers,2
;   skirtOutlines,2
;   skirtOffset,4
;   usePrimePillar,0
;   primePillarExtruder,999
;   primePillarWidth,12
;   primePillarLocation,7
;   primePillarSpeedMultiplier,1
;   useOozeShield,0
;   oozeShieldExtruder,999
;   oozeShieldOffset,2
;   oozeShieldOutlines,1
;   oozeShieldSidewallShape,1
;   oozeShieldSidewallAngle,30
;   oozeShieldSpeedMultiplier,1
;   infillExtruder,0
;   internalInfillPattern,Triangular
;   externalInfillPattern,Rectilinear
;   infillPercentage,30
;   outlineOverlapPercentage,15
;   infillExtrusionWidthPercentage,150
;   minInfillLength,5
;   infillLayerInterval,1
;   internalInfillAngles,0,60,-60
;   overlapInternalInfillAngles,1
;   externalInfillAngles,45,-45
;   generateSupport,0
;   supportExtruder,0
;   supportInfillPercentage,40
;   supportExtraInflation,1
;   supportBaseLayers,0
;   denseSupportExtruder,0
;   denseSupportLayers,0
;   denseSupportInfillPercentage,70
;   supportLayerInterval,1
;   supportHorizontalPartOffset,1
;   supportUpperSeparationLayers,1
;   supportLowerSeparationLayers,1
;   supportType,0
;   supportGridSpacing,4
;   maxOverhangAngle,45
;   supportAngles,0
;   temperatureName,Primary Extruder
;   temperatureNumber,0
;   temperatureSetpointCount,2
;   temperatureSetpointLayers,1,5
;   temperatureSetpointTemperatures,220,210
;   temperatureStabilizeAtStartup,1
;   temperatureHeatedBed,0
;   fanLayers,1,2
;   fanSpeeds,100,100
;   blipFanToFullPower,0
;   adjustSpeedForCooling,1
;   minSpeedLayerTime,7
;   minCoolingSpeedSlowdown,20
;   increaseFanForCooling,0
;   minFanLayerTime,45
;   maxCoolingFanSpeed,100
;   increaseFanForBridging,0
;   bridgingFanSpeed,100
;   use5D,1
;   relativeEdistances,0
;   allowEaxisZeroing,1
;   independentExtruderAxes,0
;   includeM10123,0
;   stickySupport,1
;   applyToolheadOffsets,0
;   gcodeXoffset,0
;   gcodeYoffset,0
;   gcodeZoffset,0
;   overrideMachineDefinition,0
;   machineTypeOverride,0
;   strokeXoverride,305
;   strokeYoverride,205
;   strokeZoverride,205
;   originOffsetXoverride,0
;   originOffsetYoverride,0
;   originOffsetZoverride,0
;   homeXdirOverride,-1
;   homeYdirOverride,-1
;   homeZdirOverride,-1
;   flipXoverride,1
;   flipYoverride,-1
;   flipZoverride,1
;   toolheadOffsets,0,0|0,0|0,0|0,0|0,0|0,0
;   overrideFirmwareConfiguration,1
;   firmwareTypeOverride,RepRap (Marlin/Repetier/Sprinter)
;   GPXconfigOverride,r2
;   baudRateOverride,115200
;   overridePrinterModels,1
;   printerModelsOverride
;   startingGcode,G28 ; home all axes,G1 Z 2 ; set height for prime line,G92 E0 ; zero extruder,G1 X150 E30 F400 ; prime line
;   layerChangeGcode,
;   retractionGcode,
;   toolChangeGcode,
;   endingGcode,G28 X0 ; home X axis,M104 S0 ; turn off extruder,M84 ; disable motors
;   exportFileFormat,gcode
;   celebration,0
;   celebrationSong,Random Song
;   postProcessing,
;   defaultSpeed,2400
;   outlineUnderspeed,0.5
;   solidInfillUnderspeed,0.8
;   supportUnderspeed,0.8
;   rapidXYspeed,2400
;   rapidZspeed,900
;   minBridgingArea,50
;   bridgingExtraInflation,0
;   bridgingExtrusionMultiplier,1
;   bridgingSpeedMultiplier,1
;   useFixedBridgingAngle,0
;   fixedBridgingAngle,0
;   applyBridgingToPerimeters,0
;   filamentDiameters,1.75|3|3|3|3|3
;   filamentPricesPerKg,46|46|46|46|46|46
;   filamentDensities,1.25|1.25|1.25|1.25|1.25|1.25
;   useMinPrintHeight,0
;   minPrintHeight,0
;   useMaxPrintHeight,0
;   maxPrintHeight,0
;   useDiaphragm,0
;   diaphragmLayerInterval,20
;   robustSlicing,1
;   mergeAllIntoSolid,0
;   onlyRetractWhenCrossingOutline,1
;   retractBetweenLayers,0
;   useRetractionMinTravel,1
;   retractionMinTravel,3
;   retractWhileWiping,0
;   onlyWipeOutlines,1
;   avoidCrossingOutline,1
;   maxMovementDetourFactor,3
;   toolChangeRetractionDistance,12
;   toolChangeExtraRestartDistance,-0.5
;   toolChangeRetractionSpeed,600
;   externalThinWallType,0
;   internalThinWallType,2
;   thinWallAllowedOverlapPercentage,10
;   singleExtrusionMinLength,1
;   singleExtrusionMinPrintingWidthPercentage,50
;   singleExtrusionMaxPrintingWidthPercentage,200
;   singleExtrusionEndpointExtension,0
;   horizontalSizeCompensation,0
G90
M82
M106 S255
M104 S220 T0
M109 S220 T0
G28 ; home all axes
G1 Z 2 ; set height for prime line
G92 E0 ; zero extruder
G1 X150 E30 F400 ; prime line
; process Process1
; layer 1, Z = 0.375
T0
G92 E0.0000
G1 E-5.0000 F3000
; feature skirt
; tool H0.375 W0.360
G1 Z0.375 F900
G1 X80.621 Y84.569 F2400
G1 E0.0000 F3000
G92 E0.0000
G1 X80.753 Y84.442 E0.0092 F1200
G1 X81.425 Y83.846 E0.0546
G1 X81.567 Y83.731 E0.0639
G1 X82.286 Y83.191 E0.1093
G1 X82.436 Y83.087 E0.1185
G1 X83.196 Y82.606 E0.1639
G1 X83.354 Y82.515 E0.1732
G1 X84.150 Y82.097 E0.2186
G1 X84.315 Y82.019 E0.2278
G1 X85.142 Y81.667 E0.2732
G1 X85.313 Y81.602 E0.2824
G1 X86.166 Y81.317 E0.3278
G1 X86.341 Y81.266 E0.3371
G1 X87.214 Y81.051 E0.3825
G1 X87.393 Y81.015 E0.3917
G1 X88.280 Y80.870 E0.4371
G1 X88.462 Y80.848 E0.4464
G1 X89.358 Y80.776 E0.4918
G1 X89.541 Y80.769 E0.5010
G1 X90.439 Y80.769 E0.5464
G1 X90.622 Y80.776 E0.5556
G1 X91.518 Y80.848 E0.6010
G1 X91.700 Y80.870 E0.6103
G1 X92.587 Y81.015 E0.6557
G1 X92.766 Y81.051 E0.6649
G1 X93.639 Y81.266 E0.7103
G1 X93.814 Y81.317 E0.7196
G1 X94.667 Y81.602 E0.7650
G1 X94.838 Y81.667 E0.7742
G1 X95.665 Y82.019 E0.8196
G1 X95.830 Y82.097 E0.8288
G1 X96.626 Y82.515 E0.8742
G1 X96.784 Y82.606 E0.8835
G1 X97.544 Y83.087 E0.9289
G1 X97.694 Y83.191 E0.9381
G1 X98.413 Y83.731 E0.9835
G1 X98.555 Y83.846 E0.9928
G1 X99.227 Y84.442 E1.0382
G1 X99.359 Y84.569 E1.0474
G1 X99.982 Y85.217 E1.0928
G1 X100.103 Y85.354 E1.1020
G1 X100.672 Y86.050 E1.1474
G1 X100.781 Y86.197 E1.1567
G1 X101.292 Y86.936 E1.2021
G1 X101.390 Y87.091 E1.2113
G1 X101.839 Y87.869 E1.2567
G1 X101.924 Y88.031 E1.2660
G1 X102.309 Y88.843 E1.3114
G1 X102.381 Y89.011 E1.3206
G1 X102.700 Y89.852 E1.3660
G1 X102.758 Y90.025 E1.3752
G1 X103.008 Y90.889 E1.4206
G1 X103.052 Y91.066 E1.4299
G1 X103.231 Y91.947 E1.4753
G1 X103.261 Y92.127 E1.4845
G1 X103.369 Y93.020 E1.5299
G1 X103.384 Y93.202 E1.5392
G1 X103.418 Y94.054 E1.5823
G1 X103.420 Y94.146 E1.5869
G1 X103.420 Y97.951 E1.7791
G1 X131.732 Y97.951 E3.2093
G1 X132.932 Y98.287 E3.2722
G1 X134.678 Y99.346 E3.3754
G1 X135.843 Y99.995 E3.4427
G1 X137.032 Y100.599 E3.5101
G1 X138.243 Y101.158 E3.5775
G1 X139.474 Y101.671 E3.6448
G1 X140.724 Y102.138 E3.7122
G1 X141.990 Y102.557 E3.7796
G1 X143.271 Y102.928 E3.8470
G1 X144.565 Y103.251 E3.9144
G1 X145.870 Y103.525 E3.9817
G1 X147.185 Y103.750 E4.0491
G1 X148.507 Y103.925 E4.1165
G1 X149.835 Y104.050 E4.1838
G1 X151.167 Y104.126 E4.2512
G1 X152.500 Y104.151 E4.3186
G1 X153.833 Y104.126 E4.3859
G1 X155.165 Y104.050 E4.4533
G1 X156.493 Y103.925 E4.5207
G1 X157.815 Y103.750 E4.5881
G1 X159.130 Y103.525 E4.6554
G1 X160.435 Y103.251 E4.7228
G1 X161.729 Y102.928 E4.7902
G1 X163.010 Y102.557 E4.8576
G1 X164.276 Y102.138 E4.9249
G1 X165.526 Y101.671 E4.9923
G1 X166.757 Y101.158 E5.0597
G1 X167.968 Y100.599 E5.1270
G1 X169.157 Y99.995 E5.1944
G1 X170.322 Y99.346 E5.2618
G1 X172.068 Y98.287 E5.3649
G1 X173.268 Y97.951 E5.4279
G1 X201.580 Y97.951 E6.8580
G1 X201.580 Y94.146 E7.0503
G1 X201.582 Y94.054 E7.0549
G1 X201.616 Y93.202 E7.0980
G1 X201.631 Y93.020 E7.1072
G1 X201.739 Y92.127 E7.1526
G1 X201.769 Y91.947 E7.1619
G1 X201.948 Y91.066 E7.2073
G1 X201.992 Y90.889 E7.2165
G1 X202.242 Y90.025 E7.2619
G1 X202.300 Y89.852 E7.2711
G1 X202.619 Y89.011 E7.3165
G1 X202.691 Y88.843 E7.3258
G1 X203.076 Y88.031 E7.3712
G1 X203.161 Y87.869 E7.3804
G1 X203.610 Y87.091 E7.4258
G1 X203.708 Y86.936 E7.4351
G1 X204.219 Y86.197 E7.4805
G1 X204.328 Y86.050 E7.4897
G1 X204.897 Y85.354 E7.5351
G1 X205.018 Y85.217 E7.5443
G1 X205.641 Y84.569 E7.5897
G1 X205.773 Y84.442 E7.5990
G1 X206.445 Y83.846 E7.6444
G1 X206.587 Y83.731 E7.6536
G1 X207.306 Y83.191 E7.6990
G1 X207.456 Y83.087 E7.7083
G1 X208.216 Y82.606 E7.7537
G1 X208.374 Y82.515 E7.7629
G1 X209.170 Y82.097 E7.8083
G1 X209.335 Y82.019 E7.8175
G1 X210.162 Y81.667 E7.8629
G1 X210.333 Y81.602 E7.8722
G1 X211.186 Y81.317 E7.9176
G1 X211.361 Y81.266 E7.9268
G1 X212.234 Y81.051 E7.9722
G1 X212.413 Y81.015 E7.9815
G1 X213.300 Y80.870 E8.0269
G1 X213.482 Y80.848 E8.0361
G1 X214.378 Y80.776 E8.0815
G1 X214.561 Y80.769 E8.0907
G1 X215.459 Y80.769 E8.1361
G1 X215.642 Y80.776 E8.1454
G1 X216.538 Y80.848 E8.1908
G1 X216.720 Y80.870 E8.2000
G1 X217.607 Y81.015 E8.2454
G1 X217.786 Y81.051 E8.2547
G1 X218.659 Y81.266 E8.3001
G1 X218.834 Y81.317 E8.3093
G1 X219.687 Y81.602 E8.3547
G1 X219.858 Y81.667 E8.3639
G1 X220.685 Y82.019 E8.4093
G1 X220.850 Y82.097 E8.4186
G1 X221.646 Y82.515 E8.4640
G1 X221.804 Y82.606 E8.4732
G1 X222.564 Y83.087 E8.5186
G1 X222.714 Y83.191 E8.5279
G1 X223.433 Y83.731 E8.5733
G1 X223.575 Y83.846 E8.5825
G1 X224.247 Y84.442 E8.6279
G1 X224.379 Y84.569 E8.6372
G1 X225.002 Y85.217 E8.6826
G1 X225.123 Y85.354 E8.6918
G1 X225.692 Y86.050 E8.7372
G1 X225.801 Y86.197 E8.7464
G1 X226.312 Y86.936 E8.7918
G1 X226.410 Y87.091 E8.8011
G1 X226.859 Y87.869 E8.8465
G1 X226.944 Y88.031 E8.8557
G1 X227.329 Y88.843 E8.9011
G1 X227.401 Y89.011 E8.9103
G1 X227.720 Y89.852 E8.9558
G1 X227.778 Y90.025 E8.9650
G1 X228.028 Y90.889 E9.0104
G1 X228.072 Y91.066 E9.0196
G1 X228.251 Y91.947 E9.0650
G1 X228.281 Y92.127 E9.0743
G1 X228.389 Y93.020 E9.1197
G1 X228.404 Y93.202 E9.1289
G1 X228.438 Y94.054 E9.1720
G1 X228.440 Y94.146 E9.1766
G1 X228.440 Y117.072 E10.3347
G1 X225.781 Y119.731 E10.5247
G1 X219.540 Y119.731 E10.8399
G1 X219.540 Y121.572 E10.9329
G1 X216.881 Y124.231 E11.1229
G1 X88.119 Y124.231 E17.6271
G1 X85.460 Y121.572 E17.8171
G1 X85.460 Y119.731 E17.9101
G1 X79.219 Y119.731 E18.2253
G1 X76.560 Y117.072 E18.4153
G1 X76.560 Y94.146 E19.5734
G1 X76.562 Y94.054 E19.5780
G1 X76.596 Y93.202 E19.6211
G1 X76.611 Y93.020 E19.6303
G1 X76.719 Y92.127 E19.6757
G1 X76.749 Y91.947 E19.6850
G1 X76.928 Y91.066 E19.7304
G1 X76.972 Y90.889 E19.7396
G1 X77.222 Y90.025 E19.7850
G1 X77.280 Y89.852 E19.7942
G1 X77.599 Y89.011 E19.8397
G1 X77.671 Y88.843 E19.8489
G1 X78.056 Y88.031 E19.8943
G1 X78.141 Y87.869 E19.9035
G1 X78.590 Y87.091 E19.9489
G1 X78.688 Y86.936 E19.9582
G1 X79.199 Y86.197 E20.0036
G1 X79.308 Y86.050 E20.0128
G1 X79.877 Y85.354 E20.0582
G1 X79.998 Y85.217 E20.0674
G1 X80.621 Y84.569 E20.1128
G1 X80.875 Y84.824 F2400
G92 E0.0000
G1 X80.997 Y84.707 E0.0085 F1200
G1 X81.659 Y84.121 E0.0532
G1 X81.789 Y84.014 E0.0617
G1 X82.496 Y83.483 E0.1064
G1 X82.635 Y83.387 E0.1149
G1 X83.382 Y82.915 E0.1595
G1 X83.528 Y82.830 E0.1680
G1 X84.311 Y82.419 E0.2127
G1 X84.463 Y82.347 E0.2212
G1 X85.277 Y82.001 E0.2659
G1 X85.434 Y81.941 E0.2744
G1 X86.273 Y81.661 E0.3191
G1 X86.435 Y81.614 E0.3276
G1 X87.293 Y81.402 E0.3722
G1 X87.458 Y81.369 E0.3807
G1 X88.331 Y81.227 E0.4254
G1 X88.498 Y81.207 E0.4339
G1 X89.380 Y81.135 E0.4786
G1 X89.548 Y81.129 E0.4871
G1 X90.432 Y81.129 E0.5318
G1 X90.600 Y81.135 E0.5403
G1 X91.482 Y81.207 E0.5849
G1 X91.649 Y81.227 E0.5934
G1 X92.522 Y81.369 E0.6381
G1 X92.687 Y81.402 E0.6466
G1 X93.545 Y81.614 E0.6913
G1 X93.707 Y81.661 E0.6998
G1 X94.546 Y81.941 E0.7445
G1 X94.703 Y82.001 E0.7530
G1 X95.517 Y82.347 E0.7976
G1 X95.669 Y82.419 E0.8061
G1 X96.452 Y82.830 E0.8508
G1 X96.598 Y82.915 E0.8593
G1 X97.345 Y83.387 E0.9040
G1 X97.484 Y83.483 E0.9125
G1 X98.191 Y84.014 E0.9572
G1 X98.321 Y84.121 E0.9657
G1 X98.983 Y84.707 E1.0103
G1 X99.105 Y84.824 E1.0188
G1 X99.717 Y85.461 E1.0635
G1 X99.829 Y85.587 E1.0720
G1 X100.388 Y86.272 E1.1167
G1 X100.489 Y86.407 E1.1252
G1 X100.992 Y87.135 E1.1699
G1 X101.082 Y87.277 E1.1784
G1 X101.524 Y88.043 E1.2230
G1 X101.602 Y88.192 E1.2315
G1 X101.981 Y88.991 E1.2762
G1 X102.047 Y89.146 E1.2847
G1 X102.361 Y89.973 E1.3294
G1 X102.414 Y90.132 E1.3379
G1 X102.660 Y90.982 E1.3826
G1 X102.700 Y91.145 E1.3911
G1 X102.877 Y92.012 E1.4357
G1 X102.904 Y92.178 E1.4442
G1 X103.011 Y93.056 E1.4889
G1 X103.024 Y93.224 E1.4974
G1 X103.058 Y94.065 E1.5400
G1 X103.060 Y94.149 E1.5442
G1 X103.060 Y98.311 E1.7545
G1 X131.683 Y98.311 E3.2003
G1 X132.787 Y98.620 E3.2582
G1 X134.497 Y99.658 E3.3592
G1 X135.674 Y100.313 E3.4273
G1 X136.875 Y100.923 E3.4954
G1 X138.098 Y101.488 E3.5634
G1 X139.342 Y102.006 E3.6315
G1 X140.604 Y102.478 E3.6995
G1 X141.883 Y102.901 E3.7676
G1 X143.177 Y103.276 E3.8356
G1 X144.485 Y103.602 E3.9037
G1 X145.803 Y103.879 E3.9717
G1 X147.131 Y104.106 E4.0398
G1 X148.467 Y104.283 E4.1079
G1 X149.808 Y104.409 E4.1759
G1 X151.153 Y104.485 E4.2440
G1 X152.500 Y104.511 E4.3120
G1 X153.847 Y104.485 E4.3801
G1 X155.192 Y104.409 E4.4481
G1 X156.533 Y104.283 E4.5162
G1 X157.869 Y104.106 E4.5843
G1 X159.197 Y103.879 E4.6523
G1 X160.516 Y103.602 E4.7204
G1 X161.823 Y103.276 E4.7884
G1 X163.117 Y102.901 E4.8565
G1 X164.396 Y102.478 E4.9245
G1 X165.658 Y102.006 E4.9926
G1 X166.902 Y101.488 E5.0606
G1 X168.125 Y100.923 E5.1287
G1 X169.326 Y100.313 E5.1968
G1 X170.503 Y99.658 E5.2648
G1 X172.212 Y98.620 E5.3658
G1 X173.317 Y98.311 E5.4238
G1 X201.940 Y98.311 E6.8696
G1 X201.940 Y94.149 E7.0799
G1 X201.942 Y94.065 E7.0841
G1 X201.976 Y93.224 E7.1266
G1 X201.989 Y93.056 E7.1352
G1 X202.096 Y92.178 E7.1798
G1 X202.123 Y92.012 E7.1883
G1 X202.300 Y91.145 E7.2330
G1 X202.340 Y90.982 E7.2415
G1 X202.586 Y90.132 E7.2862
G1 X202.639 Y89.973 E7.2947
G1 X202.953 Y89.146 E7.3393
G1 X203.019 Y88.991 E7.3479
G1 X203.398 Y88.192 E7.3925
G1 X203.476 Y88.043 E7.4010
G1 X203.918 Y87.277 E7.4457
G1 X204.008 Y87.135 E7.4542
G1 X204.511 Y86.407 E7.4989
G1 X204.612 Y86.272 E7.5074
G1 X205.171 Y85.587 E7.5521
G1 X205.283 Y85.461 E7.5606
G1 X205.895 Y84.824 E7.6052
G1 X206.017 Y84.707 E7.6137
G1 X206.679 Y84.121 E7.6584
G1 X206.809 Y84.014 E7.6669
G1 X207.516 Y83.483 E7.7116
G1 X207.655 Y83.387 E7.7201
G1 X208.402 Y82.915 E7.7648
G1 X208.548 Y82.830 E7.7733
G1 X209.331 Y82.419 E7.8179
G1 X209.483 Y82.347 E7.8264
G1 X210.297 Y82.001 E7.8711
G1 X210.454 Y81.941 E7.8796
G1 X211.293 Y81.661 E7.9243
G1 X211.455 Y81.614 E7.9328
G1 X212.313 Y81.402 E7.9775
G1 X212.478 Y81.369 E7.9860
G1 X213.351 Y81.227 E8.0306
G1 X213.518 Y81.207 E8.0391
G1 X214.400 Y81.135 E8.0838
G1 X214.568 Y81.129 E8.0923
G1 X215.452 Y81.129 E8.1370
G1 X215.620 Y81.135 E8.1455
G1 X216.502 Y81.207 E8.1902
G1 X216.669 Y81.227 E8.1987
G1 X217.542 Y81.369 E8.2433
G1 X217.707 Y81.402 E8.2518
G1 X218.565 Y81.614 E8.2965
G1 X218.727 Y81.661 E8.3050
G1 X219.566 Y81.941 E8.3497
G1 X219.723 Y82.001 E8.3582
G1 X220.537 Y82.347 E8.4029
G1 X220.689 Y82.419 E8.4114
G1 X221.472 Y82.830 E8.4560
G1 X221.618 Y82.915 E8.4645
G1 X222.365 Y83.387 E8.5092
G1 X222.504 Y83.483 E8.5177
G1 X223.211 Y84.014 E8.5624
G1 X223.341 Y84.121 E8.5709
G1 X224.003 Y84.707 E8.6156
G1 X224.125 Y84.824 E8.6241
G1 X224.737 Y85.461 E8.6687
G1 X224.849 Y85.587 E8.6772
G1 X225.408 Y86.272 E8.7219
G1 X225.509 Y86.407 E8.7304
