; G-Code generated by Simplify3D(R) Version 4.1.2
; Jul 11, 2021 at 5:13:58 PM
; Settings Summary
;   processName,Process1
;   applyToModels,JRCNC0014 v31
;   profileName,JR NORMAL
;   profileVersion,2021-06-28 21:15:49
;   baseProfile,Wanhao Duplicator 5S Mini
;   printMaterial,PLA
;   printQuality,0.25
;   printExtruders,
;   extruderName,Primary Extruder
;   extruderToolheadNumber,0
;   extruderDiameter,0.3
;   extruderAutoWidth,1
;   extruderWidth,0.36
;   extrusionMultiplier,0.9
;   extruderUseRetract,1
;   extruderRetractionDistance,5
;   extruderExtraRestartDistance,0
;   extruderRetractionZLift,0
;   extruderRetractionSpeed,3000
;   extruderUseCoasting,0
;   extruderCoastingDistance,1.5
;   extruderUseWipe,0
;   extruderWipeDistance,5
;   primaryExtruder,0
;   layerHeight,0.25
;   topSolidLayers,3
;   bottomSolidLayers,3
;   perimeterOutlines,3
;   printPerimetersInsideOut,1
;   startPointOption,3
;   startPointOriginX,0
;   startPointOriginY,0
;   sequentialIslands,0
;   spiralVaseMode,0
;   firstLayerHeightPercentage,150
;   firstLayerWidthPercentage,100
;   firstLayerUnderspeed,0.5
;   useRaft,0
;   raftExtruder,0
;   raftTopLayers,3
;   raftBaseLayers,2
;   raftOffset,3
;   raftSeparationDistance,0.14
;   raftTopInfill,100
;   aboveRaftSpeedMultiplier,0.3
;   useSkirt,1
;   skirtExtruder,0
;   skirtLayers,2
;   skirtOutlines,2
;   skirtOffset,4
;   usePrimePillar,0
;   primePillarExtruder,999
;   primePillarWidth,12
;   primePillarLocation,7
;   primePillarSpeedMultiplier,1
;   useOozeShield,0
;   oozeShieldExtruder,999
;   oozeShieldOffset,2
;   oozeShieldOutlines,1
;   oozeShieldSidewallShape,1
;   oozeShieldSidewallAngle,30
;   oozeShieldSpeedMultiplier,1
;   infillExtruder,0
;   internalInfillPattern,Triangular
;   externalInfillPattern,Rectilinear
;   infillPercentage,30
;   outlineOverlapPercentage,15
;   infillExtrusionWidthPercentage,150
;   minInfillLength,5
;   infillLayerInterval,1
;   internalInfillAngles,0,60,-60
;   overlapInternalInfillAngles,1
;   externalInfillAngles,45,-45
;   generateSupport,1
;   supportExtruder,0
;   supportInfillPercentage,40
;   supportExtraInflation,1
;   supportBaseLayers,0
;   denseSupportExtruder,0
;   denseSupportLayers,0
;   denseSupportInfillPercentage,70
;   supportLayerInterval,1
;   supportHorizontalPartOffset,1
;   supportUpperSeparationLayers,1
;   supportLowerSeparationLayers,1
;   supportType,0
;   supportGridSpacing,4
;   maxOverhangAngle,45
;   supportAngles,0
;   temperatureName,Primary Extruder
;   temperatureNumber,0
;   temperatureSetpointCount,2
;   temperatureSetpointLayers,1,5
;   temperatureSetpointTemperatures,220,210
;   temperatureStabilizeAtStartup,1
;   temperatureHeatedBed,0
;   fanLayers,1,2
;   fanSpeeds,100,100
;   blipFanToFullPower,0
;   adjustSpeedForCooling,1
;   minSpeedLayerTime,7
;   minCoolingSpeedSlowdown,20
;   increaseFanForCooling,0
;   minFanLayerTime,45
;   maxCoolingFanSpeed,100
;   increaseFanForBridging,0
;   bridgingFanSpeed,100
;   use5D,1
;   relativeEdistances,0
;   allowEaxisZeroing,1
;   independentExtruderAxes,0
;   includeM10123,0
;   stickySupport,1
;   applyToolheadOffsets,0
;   gcodeXoffset,0
;   gcodeYoffset,0
;   gcodeZoffset,0
;   overrideMachineDefinition,0
;   machineTypeOverride,0
;   strokeXoverride,305
;   strokeYoverride,205
;   strokeZoverride,205
;   originOffsetXoverride,0
;   originOffsetYoverride,0
;   originOffsetZoverride,0
;   homeXdirOverride,-1
;   homeYdirOverride,-1
;   homeZdirOverride,-1
;   flipXoverride,1
;   flipYoverride,-1
;   flipZoverride,1
;   toolheadOffsets,0,0|0,0|0,0|0,0|0,0|0,0
;   overrideFirmwareConfiguration,1
;   firmwareTypeOverride,RepRap (Marlin/Repetier/Sprinter)
;   GPXconfigOverride,r2
;   baudRateOverride,115200
;   overridePrinterModels,1
;   printerModelsOverride
;   startingGcode,G28 ; home all axes,G1 Z 2 ; set height for prime line,G92 E0 ; zero extruder,G1 X150 E30 F400 ; prime line
;   layerChangeGcode,
;   retractionGcode,
;   toolChangeGcode,
;   endingGcode,G28 X0 ; home X axis,M104 S0 ; turn off extruder,M84 ; disable motors
;   exportFileFormat,gcode
;   celebration,0
;   celebrationSong,Random Song
;   postProcessing,
;   defaultSpeed,2400
;   outlineUnderspeed,0.5
;   solidInfillUnderspeed,0.8
;   supportUnderspeed,0.8
;   rapidXYspeed,2400
;   rapidZspeed,900
;   minBridgingArea,50
;   bridgingExtraInflation,0
;   bridgingExtrusionMultiplier,1
;   bridgingSpeedMultiplier,1
;   useFixedBridgingAngle,0
;   fixedBridgingAngle,0
;   applyBridgingToPerimeters,0
;   filamentDiameters,1.75|3|3|3|3|3
;   filamentPricesPerKg,46|46|46|46|46|46
;   filamentDensities,1.25|1.25|1.25|1.25|1.25|1.25
;   useMinPrintHeight,0
;   minPrintHeight,0
;   useMaxPrintHeight,0
;   maxPrintHeight,0
;   useDiaphragm,0
;   diaphragmLayerInterval,20
;   robustSlicing,1
;   mergeAllIntoSolid,0
;   onlyRetractWhenCrossingOutline,1
;   retractBetweenLayers,0
;   useRetractionMinTravel,1
;   retractionMinTravel,3
;   retractWhileWiping,0
;   onlyWipeOutlines,1
;   avoidCrossingOutline,1
;   maxMovementDetourFactor,3
;   toolChangeRetractionDistance,12
;   toolChangeExtraRestartDistance,-0.5
;   toolChangeRetractionSpeed,600
;   externalThinWallType,0
;   internalThinWallType,2
;   thinWallAllowedOverlapPercentage,10
;   singleExtrusionMinLength,1
;   singleExtrusionMinPrintingWidthPercentage,50
;   singleExtrusionMaxPrintingWidthPercentage,200
;   singleExtrusionEndpointExtension,0
;   horizontalSizeCompensation,0
G90
M82
M106 S255
M104 S220 T0
M109 S220 T0
G28 ; home all axes
G1 Z 2 ; set height for prime line
G92 E0 ; zero extruder
G1 X150 E30 F400 ; prime line
; process Process1
; layer 1, Z = 0.375
T0
G92 E0.0000
G1 E-5.0000 F3000
; feature skirt
; tool H0.375 W0.360
G1 Z0.375 F900
G1 X137.806 Y70.767 F2400
G1 E0.0000 F3000
G92 E0.0000
G1 X138.169 Y70.053 E0.0405 F1200
G1 X138.172 Y70.048 E0.0408
G1 X138.243 Y69.919 E0.0482
G1 X138.672 Y69.195 E0.0907
G1 X138.753 Y69.068 E0.0983
G1 X138.756 Y69.063 E0.0986
G1 X138.920 Y68.824 E0.1133
G1 X139.220 Y68.385 E0.1401
G1 X139.306 Y68.268 E0.1475
G1 X139.311 Y68.262 E0.1478
G1 X139.806 Y67.628 E0.1885
G1 X139.810 Y67.623 E0.1888
G1 X139.903 Y67.511 E0.1962
G1 X140.463 Y66.883 E0.2386
G1 X140.568 Y66.773 E0.2463
G1 X140.572 Y66.769 E0.2466
G1 X140.759 Y66.585 E0.2598
G1 X141.157 Y66.193 E0.2881
G1 X141.264 Y66.094 E0.2954
G1 X141.268 Y66.090 E0.2957
G1 X141.874 Y65.565 E0.3362
G1 X141.881 Y65.559 E0.3367
G1 X141.995 Y65.467 E0.3441
G1 X142.665 Y64.958 E0.3866
G1 X142.787 Y64.871 E0.3942
G1 X142.793 Y64.867 E0.3945
G1 X142.998 Y64.732 E0.4069
G1 X143.477 Y64.415 E0.4360
G1 X143.600 Y64.339 E0.4433
G1 X143.605 Y64.336 E0.4436
G1 X143.609 Y64.333 E0.4438
G1 X144.299 Y63.937 E0.4840
G1 X144.305 Y63.934 E0.4843
G1 X144.312 Y63.930 E0.4848
G1 X144.439 Y63.863 E0.4920
G1 X144.948 Y63.613 E0.5206
G1 X145.172 Y63.502 E0.5332
G1 X145.177 Y63.500 E0.5335
G1 X145.182 Y63.497 E0.5338
G1 X145.315 Y63.437 E0.5412
G1 X145.833 Y63.223 E0.5695
G1 X146.074 Y63.122 E0.5827
G1 X146.081 Y63.120 E0.5831
G1 X146.220 Y63.067 E0.5906
G1 X147.018 Y62.796 E0.6331
G1 X147.158 Y62.753 E0.6405
G1 X147.166 Y62.751 E0.6410
G1 X147.938 Y62.543 E0.6814
G1 X147.943 Y62.542 E0.6816
G1 X147.949 Y62.540 E0.6819
G1 X148.089 Y62.507 E0.6892
G1 X148.639 Y62.396 E0.7176
G1 X148.892 Y62.345 E0.7306
G1 X148.898 Y62.343 E0.7309
G1 X148.903 Y62.342 E0.7312
G1 X149.048 Y62.318 E0.7386
G1 X149.881 Y62.205 E0.7810
G1 X150.025 Y62.190 E0.7884
G1 X150.033 Y62.190 E0.7888
G1 X150.038 Y62.189 E0.7890
G1 X150.840 Y62.133 E0.8297
G1 X150.987 Y62.127 E0.8371
G1 X151.517 Y62.124 E0.8638
G1 X151.810 Y62.122 E0.8786
G1 X151.818 Y62.122 E0.8790
G1 X151.966 Y62.126 E0.8865
G1 X152.806 Y62.175 E0.9290
G1 X152.952 Y62.188 E0.9364
G1 X152.960 Y62.189 E0.9368
G1 X153.756 Y62.287 E0.9774
G1 X153.762 Y62.288 E0.9777
G1 X153.906 Y62.311 E0.9850
G1 X154.428 Y62.409 E1.0119
G1 X154.714 Y62.463 E1.0266
G1 X154.724 Y62.465 E1.0271
G1 X154.867 Y62.497 E1.0345
G1 X155.681 Y62.706 E1.0769
G1 X155.821 Y62.747 E1.0843
G1 X155.832 Y62.751 E1.0849
G1 X156.598 Y63.001 E1.1256
G1 X156.735 Y63.051 E1.1329
G1 X157.212 Y63.241 E1.1589
G1 X157.501 Y63.356 E1.1746
G1 X157.507 Y63.359 E1.1749
G1 X157.642 Y63.418 E1.1824
G1 X158.401 Y63.780 E1.2249
G1 X158.530 Y63.846 E1.2322
G1 X158.544 Y63.854 E1.2330
G1 X159.238 Y64.241 E1.2731
G1 X159.243 Y64.244 E1.2734
G1 X159.249 Y64.248 E1.2738
G1 X159.255 Y64.247 E1.2744
G1 X159.365 Y64.317 E1.2810
G1 X159.371 Y64.321 E1.2813
G1 X159.804 Y64.600 E1.3074
G1 X160.067 Y64.770 E1.3232
G1 X160.115 Y64.803 E1.3261
G1 X160.188 Y64.854 E1.3306
G1 X160.196 Y64.860 E1.3311
G1 X160.218 Y64.876 E1.3325
G1 X160.865 Y65.356 E1.3732
G1 X160.979 Y65.446 E1.3805
G1 X160.990 Y65.456 E1.3813
G1 X161.604 Y65.975 E1.4219
G1 X161.711 Y66.072 E1.4292
G1 X162.056 Y66.403 E1.4533
G1 X162.278 Y66.616 E1.4689
G1 X162.305 Y66.642 E1.4708
G1 X162.311 Y66.649 E1.4712
G1 X162.358 Y66.697 E1.4746
G1 X162.411 Y66.751 E1.4785
G1 X162.418 Y66.758 E1.4789
G1 X162.423 Y66.763 E1.4793
G1 X162.452 Y66.796 E1.4815
G1 X162.980 Y67.375 E1.5211
G1 X163.075 Y67.486 E1.5285
G1 X163.080 Y67.492 E1.5289
G1 X163.562 Y68.093 E1.5678
G1 X163.586 Y68.123 E1.5697
G1 X163.624 Y68.175 E1.5730
G1 X163.672 Y68.238 E1.5770
G1 X163.676 Y68.244 E1.5774
G1 X163.689 Y68.263 E1.5785
G1 X163.951 Y68.636 E1.6016
G1 X164.147 Y68.915 E1.6187
G1 X164.151 Y68.922 E1.6192
G1 X164.155 Y68.928 E1.6195
G1 X164.193 Y68.985 E1.6230
G1 X164.225 Y69.034 E1.6260
G1 X164.228 Y69.039 E1.6263
G1 X164.233 Y69.047 E1.6267
G1 X164.668 Y69.763 E1.6690
G1 X164.739 Y69.888 E1.6763
G1 X164.749 Y69.906 E1.6774
G1 X165.117 Y70.608 E1.7174
G1 X165.120 Y70.614 E1.7177
G1 X165.123 Y70.620 E1.7180
G1 X165.151 Y70.679 E1.7214
G1 X165.177 Y70.733 E1.7244
G1 X165.180 Y70.738 E1.7247
G1 X165.184 Y70.747 E1.7252
G1 X165.371 Y71.167 E1.7484
G1 X165.491 Y71.437 E1.7633
G1 X165.515 Y71.490 E1.7663
G1 X165.518 Y71.497 E1.7667
G1 X165.523 Y71.509 E1.7673
G1 X165.549 Y71.574 E1.7708
G1 X165.575 Y71.636 E1.7743
G1 X165.579 Y71.648 E1.7749
G1 X165.584 Y71.660 E1.7755
G1 X165.604 Y71.716 E1.7785
G1 X165.867 Y72.430 E1.8170
G1 X165.912 Y72.566 E1.8242
G1 X165.921 Y72.594 E1.8257
G1 X166.131 Y73.300 E1.8629
G1 X166.145 Y73.345 E1.8653
G1 X166.146 Y73.351 E1.8656
G1 X166.165 Y73.421 E1.8693
G1 X166.184 Y73.494 E1.8731
G1 X166.193 Y73.532 E1.8750
G1 X166.291 Y73.961 E1.8973
G1 X166.348 Y74.212 E1.9103
G1 X166.363 Y74.271 E1.9133
G1 X166.367 Y74.291 E1.9144
G1 X166.373 Y74.317 E1.9157
G1 X166.384 Y74.380 E1.9189
G1 X166.396 Y74.437 E1.9219
G1 X166.400 Y74.464 E1.9233
G1 X166.406 Y74.494 E1.9248
G1 X166.414 Y74.550 E1.9277
G1 X166.532 Y75.278 E1.9649
G1 X166.545 Y75.381 E1.9701
G1 X166.549 Y75.410 E1.9716
G1 X166.550 Y75.422 E1.9722
G1 X166.555 Y75.469 E1.9746
G1 X166.617 Y76.116 E2.0075
G1 X166.623 Y76.165 E2.0100
G1 X166.627 Y76.212 E2.0123
G1 X166.632 Y76.271 E2.0154
G1 X166.635 Y76.321 E2.0179
G1 X166.637 Y76.358 E2.0197
G1 X166.639 Y76.418 E2.0228
G1 X166.643 Y76.490 E2.0264
G1 X166.643 Y76.526 E2.0283
G1 X166.645 Y76.580 E2.0309
G1 X166.664 Y77.174 E2.0610
G1 X166.665 Y77.247 E2.0647
G1 X166.665 Y87.804 E2.5980
G1 X168.260 Y89.399 E2.7119
G1 X168.260 Y107.601 E3.6313
G1 X165.601 Y110.260 E3.8213
G1 X147.399 Y110.260 E4.7407
G1 X144.740 Y107.601 E4.9307
G1 X144.740 Y90.878 E5.7754
G1 X143.867 Y90.388 E5.8260
G1 X143.770 Y90.330 E5.8317
G1 X143.433 Y90.119 E5.8518
G1 X143.078 Y89.896 E5.8730
G1 X143.021 Y89.857 E5.8765
G1 X142.961 Y89.816 E5.8801
G1 X142.957 Y89.814 E5.8804
G1 X142.689 Y89.620 E5.8970
G1 X142.290 Y89.332 E5.9219
G1 X142.279 Y89.323 E5.9226
G1 X142.272 Y89.318 E5.9231
G1 X142.228 Y89.284 E5.9259
G1 X142.179 Y89.247 E5.9290
G1 X142.172 Y89.240 E5.9295
G1 X142.166 Y89.236 E5.9298
G1 X141.941 Y89.050 E5.9446
G1 X141.533 Y88.714 E5.9713
G1 X141.526 Y88.707 E5.9718
G1 X141.478 Y88.665 E5.9750
G1 X141.423 Y88.617 E5.9787
G1 X141.419 Y88.613 E5.9790
G1 X141.182 Y88.390 E5.9954
G1 X140.822 Y88.052 E6.0204
G1 X140.809 Y88.039 E6.0213
G1 X140.798 Y88.029 E6.0220
G1 X140.765 Y87.995 E6.0244
G1 X140.727 Y87.958 E6.0271
G1 X140.717 Y87.947 E6.0278
G1 X140.707 Y87.937 E6.0286
G1 X140.478 Y87.692 E6.0455
G1 X140.150 Y87.341 E6.0698
G1 X140.141 Y87.331 E6.0704
G1 X140.134 Y87.323 E6.0710
G1 X140.098 Y87.283 E6.0737
G1 X140.060 Y87.239 E6.0767
G1 X140.053 Y87.230 E6.0772
G1 X140.045 Y87.222 E6.0778
G1 X139.824 Y86.952 E6.0954
G1 X139.537 Y86.603 E6.1182
G1 X139.523 Y86.586 E6.1193
G1 X139.478 Y86.527 E6.1231
G1 X139.434 Y86.470 E6.1268
G1 X139.193 Y86.135 E6.1476
G1 X138.953 Y85.801 E6.1684
G1 X138.947 Y85.793 E6.1689
G1 X138.942 Y85.786 E6.1693
G1 X138.908 Y85.734 E6.1725
G1 X138.876 Y85.688 E6.1753
G1 X138.872 Y85.681 E6.1757
G1 X138.865 Y85.670 E6.1763
G1 X138.648 Y85.323 E6.1970
G1 X138.430 Y84.975 E6.2177
G1 X138.424 Y84.965 E6.2183
G1 X138.420 Y84.958 E6.2187
G1 X138.392 Y84.909 E6.2216
G1 X138.360 Y84.856 E6.2247
G1 X138.356 Y84.849 E6.2251
G1 X138.352 Y84.840 E6.2256
G1 X137.974 Y84.140 E6.2658
G1 X137.966 Y84.126 E6.2666
G1 X137.902 Y83.996 E6.2739
G1 X137.550 Y83.232 E6.3164
G1 X137.505 Y83.124 E6.3224
G1 X137.492 Y83.094 E6.3240
G1 X137.372 Y82.780 E6.3410
G1 X137.196 Y82.322 E6.3658
G1 X137.191 Y82.307 E6.3665
G1 X137.173 Y82.254 E6.3694
G1 X137.150 Y82.188 E6.3729
G1 X137.148 Y82.183 E6.3732
G1 X137.145 Y82.175 E6.3736
G1 X137.058 Y81.895 E6.3884
G1 X136.902 Y81.392 E6.4151
G1 X136.899 Y81.381 E6.4156
G1 X136.897 Y81.376 E6.4159
G1 X136.882 Y81.322 E6.4187
G1 X136.864 Y81.255 E6.4222
G1 X136.863 Y81.249 E6.4225
G1 X136.860 Y81.241 E6.4230
G1 X136.780 Y80.907 E6.4403
G1 X136.668 Y80.444 E6.4644
G1 X136.665 Y80.429 E6.4652
G1 X136.654 Y80.378 E6.4678
G1 X136.639 Y80.305 E6.4715
G1 X136.638 Y80.299 E6.4718
G1 X136.636 Y80.293 E6.4722
G1 X136.499 Y79.504 E6.5126
G1 X136.497 Y79.494 E6.5131
G1 X136.476 Y79.350 E6.5205
G1 X136.385 Y78.513 E6.5630
G1 X136.378 Y78.428 E6.5673
G1 X136.373 Y78.362 E6.5707
G1 X136.357 Y77.986 E6.5897
G1 X136.337 Y77.534 E6.6125
G1 X136.336 Y77.444 E6.6171
G1 X136.335 Y77.386 E6.6200
G1 X136.342 Y77.047 E6.6371
G1 X136.352 Y76.562 E6.6617
G1 X136.353 Y76.549 E6.6623
G1 X136.354 Y76.520 E6.6638
G1 X136.360 Y76.418 E6.6689
G1 X136.360 Y76.408 E6.6694
G1 X136.428 Y75.608 E6.7100
G1 X136.429 Y75.601 E6.7103
G1 X136.445 Y75.456 E6.7177
G1 X136.570 Y74.624 E6.7602
G1 X136.571 Y74.615 E6.7607
G1 X136.576 Y74.589 E6.7620
G1 X136.597 Y74.477 E6.7678
G1 X136.598 Y74.470 E6.7681
G1 X136.662 Y74.175 E6.7834
G1 X136.772 Y73.667 E6.8096
G1 X136.808 Y73.526 E6.8169
G1 X136.810 Y73.519 E6.8173
G1 X137.030 Y72.746 E6.8579
G1 X137.032 Y72.739 E6.8583
G1 X137.076 Y72.600 E6.8657
G1 X137.358 Y71.808 E6.9081
G1 X137.413 Y71.668 E6.9157
G1 X137.415 Y71.662 E6.9161
G1 X137.530 Y71.396 E6.9307
G1 X137.740 Y70.908 E6.9575
G1 X137.747 Y70.893 E6.9584
G1 X137.756 Y70.874 E6.9594
G1 X137.801 Y70.779 E6.9648
G1 X137.804 Y70.773 E6.9651
G1 X137.806 Y70.767 E6.9654
G1 X138.491 Y70.216 F2400
G92 E0.0000
G1 X138.556 Y70.098 E0.0068 F1200
G1 X138.979 Y69.383 E0.0488
G1 X139.053 Y69.266 E0.0558
G1 X139.056 Y69.262 E0.0561
G1 X139.217 Y69.027 E0.0704
G1 X139.514 Y68.593 E0.0970
G1 X139.593 Y68.485 E0.1038
G1 X139.598 Y68.479 E0.1041
G1 X140.086 Y67.854 E0.1442
G1 X140.090 Y67.849 E0.1445
G1 X140.176 Y67.746 E0.1513
G1 X140.728 Y67.127 E0.1932
G1 X140.825 Y67.026 E0.2003
G1 X140.829 Y67.021 E0.2006
G1 X141.011 Y66.842 E0.2135
G1 X141.405 Y66.454 E0.2414
G1 X141.508 Y66.359 E0.2485
G1 X142.106 Y65.841 E0.2885
G1 X142.112 Y65.835 E0.2889
G1 X142.217 Y65.750 E0.2957
G1 X142.878 Y65.248 E0.3377
G1 X142.990 Y65.169 E0.3446
G1 X142.996 Y65.164 E0.3450
G1 X143.196 Y65.032 E0.3571
G1 X143.671 Y64.718 E0.3858
G1 X143.784 Y64.648 E0.3925
G1 X143.789 Y64.645 E0.3928
G1 X143.794 Y64.642 E0.3931
G1 X144.474 Y64.252 E0.4327
G1 X144.480 Y64.249 E0.4331
G1 X144.486 Y64.245 E0.4334
G1 X144.603 Y64.183 E0.4401
G1 X145.106 Y63.936 E0.4685
G1 X145.325 Y63.828 E0.4808
G1 X145.331 Y63.825 E0.4811
G1 X145.335 Y63.823 E0.4813
G1 X145.458 Y63.767 E0.4882
G1 X145.971 Y63.555 E0.5162
G1 X146.207 Y63.457 E0.5291
G1 X146.213 Y63.455 E0.5294
G1 X146.341 Y63.406 E0.5364
