; G-Code generated by Simplify3D(R) Version 4.1.2
; Jun 29, 2021 at 10:53:49 AM
; Settings Summary
;   processName,Process1
;   applyToModels,JRCNC0014 MIRROR v1
;   profileName,JR NORMAL (modified)
;   profileVersion,2021-06-28 21:15:49
;   baseProfile,Wanhao Duplicator 5S Mini
;   printMaterial,PLA
;   printQuality,0.25
;   printExtruders,
;   extruderName,Primary Extruder
;   extruderToolheadNumber,0
;   extruderDiameter,0.3
;   extruderAutoWidth,1
;   extruderWidth,0.36
;   extrusionMultiplier,0.9
;   extruderUseRetract,1
;   extruderRetractionDistance,5
;   extruderExtraRestartDistance,0
;   extruderRetractionZLift,0
;   extruderRetractionSpeed,3000
;   extruderUseCoasting,1
;   extruderCoastingDistance,1.1
;   extruderUseWipe,0
;   extruderWipeDistance,5
;   primaryExtruder,0
;   layerHeight,0.25
;   topSolidLayers,3
;   bottomSolidLayers,3
;   perimeterOutlines,3
;   printPerimetersInsideOut,1
;   startPointOption,3
;   startPointOriginX,0
;   startPointOriginY,0
;   sequentialIslands,0
;   spiralVaseMode,0
;   firstLayerHeightPercentage,150
;   firstLayerWidthPercentage,100
;   firstLayerUnderspeed,0.5
;   useRaft,0
;   raftExtruder,0
;   raftTopLayers,3
;   raftBaseLayers,2
;   raftOffset,3
;   raftSeparationDistance,0.14
;   raftTopInfill,100
;   aboveRaftSpeedMultiplier,0.3
;   useSkirt,1
;   skirtExtruder,0
;   skirtLayers,2
;   skirtOutlines,2
;   skirtOffset,4
;   usePrimePillar,0
;   primePillarExtruder,999
;   primePillarWidth,12
;   primePillarLocation,7
;   primePillarSpeedMultiplier,1
;   useOozeShield,0
;   oozeShieldExtruder,999
;   oozeShieldOffset,2
;   oozeShieldOutlines,1
;   oozeShieldSidewallShape,1
;   oozeShieldSidewallAngle,30
;   oozeShieldSpeedMultiplier,1
;   infillExtruder,0
;   internalInfillPattern,Triangular
;   externalInfillPattern,Rectilinear
;   infillPercentage,30
;   outlineOverlapPercentage,15
;   infillExtrusionWidthPercentage,150
;   minInfillLength,5
;   infillLayerInterval,1
;   internalInfillAngles,0,60,-60
;   overlapInternalInfillAngles,1
;   externalInfillAngles,45,-45
;   generateSupport,1
;   supportExtruder,0
;   supportInfillPercentage,40
;   supportExtraInflation,1
;   supportBaseLayers,0
;   denseSupportExtruder,0
;   denseSupportLayers,0
;   denseSupportInfillPercentage,70
;   supportLayerInterval,1
;   supportHorizontalPartOffset,1
;   supportUpperSeparationLayers,1
;   supportLowerSeparationLayers,1
;   supportType,0
;   supportGridSpacing,4
;   maxOverhangAngle,45
;   supportAngles,0
;   temperatureName,Primary Extruder
;   temperatureNumber,0
;   temperatureSetpointCount,2
;   temperatureSetpointLayers,1,5
;   temperatureSetpointTemperatures,220,210
;   temperatureStabilizeAtStartup,1
;   temperatureHeatedBed,0
;   fanLayers,1,2
;   fanSpeeds,100,100
;   blipFanToFullPower,0
;   adjustSpeedForCooling,1
;   minSpeedLayerTime,7
;   minCoolingSpeedSlowdown,20
;   increaseFanForCooling,0
;   minFanLayerTime,45
;   maxCoolingFanSpeed,100
;   increaseFanForBridging,0
;   bridgingFanSpeed,100
;   use5D,1
;   relativeEdistances,0
;   allowEaxisZeroing,1
;   independentExtruderAxes,0
;   includeM10123,0
;   stickySupport,1
;   applyToolheadOffsets,0
;   gcodeXoffset,0
;   gcodeYoffset,0
;   gcodeZoffset,0
;   overrideMachineDefinition,0
;   machineTypeOverride,0
;   strokeXoverride,305
;   strokeYoverride,205
;   strokeZoverride,205
;   originOffsetXoverride,0
;   originOffsetYoverride,0
;   originOffsetZoverride,0
;   homeXdirOverride,-1
;   homeYdirOverride,-1
;   homeZdirOverride,-1
;   flipXoverride,1
;   flipYoverride,-1
;   flipZoverride,1
;   toolheadOffsets,0,0|0,0|0,0|0,0|0,0|0,0
;   overrideFirmwareConfiguration,1
;   firmwareTypeOverride,RepRap (Marlin/Repetier/Sprinter)
;   GPXconfigOverride,r2
;   baudRateOverride,115200
;   overridePrinterModels,1
;   printerModelsOverride
;   startingGcode,G28 ; home all axes,G1 Z 2 ; set height for prime line,G92 E0 ; zero extruder,G1 X150 E30 F400 ; prime line
;   layerChangeGcode,
;   retractionGcode,
;   toolChangeGcode,
;   endingGcode,G28 X0 ; home X axis,M104 S0 ; turn off extruder,M84 ; disable motors
;   exportFileFormat,gcode
;   celebration,0
;   celebrationSong,Random Song
;   postProcessing,
;   defaultSpeed,2400
;   outlineUnderspeed,0.5
;   solidInfillUnderspeed,0.8
;   supportUnderspeed,0.8
;   rapidXYspeed,2400
;   rapidZspeed,900
;   minBridgingArea,50
;   bridgingExtraInflation,0
;   bridgingExtrusionMultiplier,1
;   bridgingSpeedMultiplier,1
;   useFixedBridgingAngle,0
;   fixedBridgingAngle,0
;   applyBridgingToPerimeters,0
;   filamentDiameters,1.75|3|3|3|3|3
;   filamentPricesPerKg,46|46|46|46|46|46
;   filamentDensities,1.25|1.25|1.25|1.25|1.25|1.25
;   useMinPrintHeight,0
;   minPrintHeight,0
;   useMaxPrintHeight,0
;   maxPrintHeight,0
;   useDiaphragm,0
;   diaphragmLayerInterval,20
;   robustSlicing,1
;   mergeAllIntoSolid,0
;   onlyRetractWhenCrossingOutline,1
;   retractBetweenLayers,0
;   useRetractionMinTravel,1
;   retractionMinTravel,3
;   retractWhileWiping,0
;   onlyWipeOutlines,1
;   avoidCrossingOutline,1
;   maxMovementDetourFactor,3
;   toolChangeRetractionDistance,12
;   toolChangeExtraRestartDistance,-0.5
;   toolChangeRetractionSpeed,600
;   externalThinWallType,0
;   internalThinWallType,2
;   thinWallAllowedOverlapPercentage,10
;   singleExtrusionMinLength,1
;   singleExtrusionMinPrintingWidthPercentage,50
;   singleExtrusionMaxPrintingWidthPercentage,200
;   singleExtrusionEndpointExtension,0
;   horizontalSizeCompensation,0
G90
M82
M106 S255
M104 S220 T0
M109 S220 T0
G28 ; home all axes
G1 Z 2 ; set height for prime line
G92 E0 ; zero extruder
G1 X150 E30 F400 ; prime line
; process Process1
; layer 1, Z = 0.375
T0
G92 E0.0000
G1 E-5.0000 F3000
; feature skirt
; tool H0.375 W0.360
G1 Z0.375 F900
G1 X94.226 Y65.932 F2400
G1 E0.0000 F3000
G92 E0.0000
G1 X94.319 Y65.804 E0.0080 F1200
G1 X94.870 Y65.095 E0.0533
G1 X94.972 Y64.974 E0.0613
G1 X95.571 Y64.306 E0.1067
G1 X95.681 Y64.192 E0.1147
G1 X96.325 Y63.567 E0.1600
G1 X96.443 Y63.461 E0.1680
G1 X97.129 Y62.882 E0.2134
G1 X97.253 Y62.784 E0.2213
G1 X97.979 Y62.255 E0.2667
G1 X98.109 Y62.166 E0.2747
G1 X98.870 Y61.689 E0.3200
G1 X99.006 Y61.609 E0.3280
G1 X99.798 Y61.185 E0.3734
G1 X99.940 Y61.116 E0.3814
G1 X100.759 Y60.748 E0.4267
G1 X100.905 Y60.688 E0.4347
G1 X101.748 Y60.379 E0.4800
G1 X101.898 Y60.329 E0.4880
G1 X102.760 Y60.079 E0.5334
G1 X102.914 Y60.040 E0.5414
G1 X103.791 Y59.851 E0.5867
G1 X103.947 Y59.823 E0.5947
G1 X104.835 Y59.695 E0.6401
G1 X104.993 Y59.677 E0.6480
G1 X105.888 Y59.611 E0.6934
G1 X106.046 Y59.605 E0.7014
G1 X106.944 Y59.602 E0.7467
G1 X107.102 Y59.607 E0.7547
G1 X107.998 Y59.666 E0.8001
G1 X108.155 Y59.681 E0.8081
G1 X109.045 Y59.803 E0.8534
G1 X109.201 Y59.829 E0.8614
G1 X110.080 Y60.012 E0.9068
G1 X110.233 Y60.050 E0.9147
G1 X111.097 Y60.293 E0.9601
G1 X111.248 Y60.341 E0.9681
G1 X112.093 Y60.644 E1.0134
G1 X112.240 Y60.703 E1.0214
G1 X113.062 Y61.064 E1.0668
G1 X113.204 Y61.132 E1.0748
G1 X113.999 Y61.550 E1.1201
G1 X114.137 Y61.628 E1.1281
G1 X114.901 Y62.100 E1.1735
G1 X115.032 Y62.187 E1.1814
G1 X115.761 Y62.711 E1.2268
G1 X115.887 Y62.808 E1.2348
G1 X116.578 Y63.381 E1.2801
G1 X116.696 Y63.486 E1.2881
G1 X117.345 Y64.106 E1.3335
G1 X117.456 Y64.219 E1.3415
G1 X118.061 Y64.882 E1.3868
G1 X118.163 Y65.003 E1.3948
G1 X118.720 Y65.707 E1.4401
G1 X118.814 Y65.834 E1.4481
G1 X119.321 Y66.575 E1.4935
G1 X119.405 Y66.709 E1.5015
G1 X119.859 Y67.483 E1.5468
G1 X119.935 Y67.622 E1.5548
G1 X120.334 Y68.427 E1.6002
G1 X120.399 Y68.571 E1.6081
G1 X120.741 Y69.401 E1.6535
G1 X120.796 Y69.549 E1.6615
G1 X121.080 Y70.401 E1.7068
G1 X121.124 Y70.552 E1.7148
G1 X121.348 Y71.422 E1.7602
G1 X121.382 Y71.576 E1.7682
G1 X121.545 Y72.459 E1.8135
G1 X121.568 Y72.616 E1.8215
G1 X121.668 Y73.508 E1.8669
G1 X121.681 Y73.665 E1.8748
G1 X121.719 Y74.562 E1.9202
G1 X121.720 Y74.721 E1.9282
G1 X121.696 Y75.618 E1.9735
G1 X121.686 Y75.776 E1.9815
G1 X121.600 Y76.670 E2.0269
G1 X121.579 Y76.826 E2.0349
G1 X121.431 Y77.712 E2.0802
G1 X121.399 Y77.867 E2.0882
G1 X121.189 Y78.740 E2.1335
G1 X121.147 Y78.892 E2.1415
G1 X120.877 Y79.748 E2.1869
G1 X120.824 Y79.897 E2.1949
G1 X120.496 Y80.733 E2.2402
G1 X120.433 Y80.878 E2.2482
G1 X120.046 Y81.688 E2.2936
G1 X119.973 Y81.828 E2.3016
G1 X119.532 Y82.610 E2.3469
G1 X119.449 Y82.745 E2.3549
G1 X118.954 Y83.494 E2.4002
G1 X118.862 Y83.623 E2.4082
G1 X118.317 Y84.336 E2.4536
G1 X118.216 Y84.458 E2.4616
G1 X117.622 Y85.131 E2.5069
G1 X117.513 Y85.246 E2.5149
G1 X116.874 Y85.876 E2.5603
G1 X116.757 Y85.983 E2.5682
G1 X116.075 Y86.567 E2.6136
G1 X115.952 Y86.665 E2.6216
G1 X115.231 Y87.200 E2.6669
G1 X115.101 Y87.290 E2.6749
G1 X114.345 Y87.774 E2.7202
G1 X114.210 Y87.854 E2.7282
G1 X113.039 Y88.493 E2.7955
G1 X112.742 Y88.684 E2.8134
G1 X112.459 Y88.896 E2.8313
G1 X112.191 Y89.128 E2.8492
G1 X111.941 Y89.379 E2.8670
G1 X111.710 Y89.646 E2.8849
G1 X111.498 Y89.930 E2.9028
G1 X111.307 Y90.228 E2.9207
G1 X111.137 Y90.539 E2.9386
G1 X110.990 Y90.861 E2.9564
G1 X110.970 Y90.915 E2.9594
G1 X110.970 Y91.377 E2.9827
G1 X111.157 Y91.475 E2.9934
G1 X111.352 Y91.589 E3.0047
G1 X111.954 Y91.983 E3.0411
G1 X112.136 Y92.116 E3.0525
G1 X112.697 Y92.568 E3.0889
G1 X112.865 Y92.718 E3.1002
G1 X113.378 Y93.223 E3.1366
G1 X113.530 Y93.389 E3.1480
G1 X113.991 Y93.943 E3.1844
G1 X114.126 Y94.123 E3.1958
G1 X114.529 Y94.719 E3.2321
G1 X114.646 Y94.912 E3.2435
G1 X114.989 Y95.546 E3.2799
G1 X115.086 Y95.749 E3.2913
G1 X115.364 Y96.413 E3.3277
G1 X115.440 Y96.625 E3.3390
G1 X115.651 Y97.313 E3.3754
G1 X115.706 Y97.531 E3.3868
G1 X115.848 Y98.238 E3.4232
G1 X115.882 Y98.460 E3.4345
G1 X115.953 Y99.177 E3.4709
G1 X115.964 Y99.402 E3.4823
G1 X115.964 Y100.122 E3.5187
G1 X115.953 Y100.347 E3.5300
G1 X115.882 Y101.064 E3.5664
G1 X115.848 Y101.286 E3.5778
G1 X115.706 Y101.992 E3.6142
G1 X115.651 Y102.211 E3.6255
G1 X115.440 Y102.899 E3.6619
G1 X115.364 Y103.111 E3.6733
G1 X115.086 Y103.775 E3.7097
G1 X114.989 Y103.978 E3.7210
G1 X114.646 Y104.612 E3.7574
G1 X114.529 Y104.805 E3.7688
G1 X114.126 Y105.401 E3.8052
G1 X113.991 Y105.581 E3.8166
G1 X113.530 Y106.135 E3.8529
G1 X113.378 Y106.301 E3.8643
G1 X112.865 Y106.806 E3.9007
G1 X112.697 Y106.956 E3.9121
G1 X112.136 Y107.408 E3.9484
G1 X111.954 Y107.541 E3.9598
G1 X111.352 Y107.935 E3.9962
G1 X111.157 Y108.049 E4.0076
G1 X110.519 Y108.382 E4.0440
G1 X110.314 Y108.476 E4.0553
G1 X109.646 Y108.744 E4.0917
G1 X109.433 Y108.818 E4.1031
G1 X109.078 Y108.921 E4.1217
G1 X108.628 Y109.137 E4.1470
G1 X107.632 Y109.364 E4.1986
G1 X94.050 Y109.364 E4.8847
G1 X91.390 Y106.705 E5.0747
G1 X91.390 Y74.722 E6.6902
G1 X91.392 Y74.643 E6.6942
G1 X91.421 Y73.786 E6.7376
G1 X91.432 Y73.628 E6.7455
G1 X91.526 Y72.735 E6.7909
G1 X91.548 Y72.578 E6.7989
G1 X91.703 Y71.694 E6.8442
G1 X91.736 Y71.539 E6.8522
G1 X91.953 Y70.668 E6.8976
G1 X91.996 Y70.516 E6.9056
G1 X92.273 Y69.662 E6.9509
G1 X92.327 Y69.514 E6.9589
G1 X92.663 Y68.681 E7.0042
G1 X92.727 Y68.536 E7.0122
G1 X93.119 Y67.729 E7.0576
G1 X93.194 Y67.589 E7.0656
G1 X93.641 Y66.811 E7.1109
G1 X93.725 Y66.677 E7.1189
G1 X94.226 Y65.932 E7.1643
G1 X94.521 Y66.138 F2400
G92 E0.0000
G1 X94.607 Y66.020 E0.0074 F1200
G1 X95.150 Y65.321 E0.0521
G1 X95.244 Y65.210 E0.0594
G1 X95.835 Y64.551 E0.1041
G1 X95.936 Y64.446 E0.1115
G1 X96.571 Y63.830 E0.1562
G1 X96.679 Y63.732 E0.1636
G1 X97.356 Y63.161 E0.2083
G1 X97.471 Y63.071 E0.2156
G1 X98.186 Y62.549 E0.2604
G1 X98.306 Y62.468 E0.2677
G1 X99.056 Y61.997 E0.3124
G1 X99.182 Y61.924 E0.3198
G1 X99.962 Y61.506 E0.3645
G1 X100.093 Y61.442 E0.3719
G1 X100.901 Y61.079 E0.4166
G1 X101.035 Y61.024 E0.4239
G1 X101.866 Y60.719 E0.4687
G1 X102.005 Y60.673 E0.4760
G1 X102.855 Y60.427 E0.5207
G1 X102.996 Y60.391 E0.5281
G1 X103.861 Y60.204 E0.5728
G1 X104.004 Y60.178 E0.5801
G1 X104.881 Y60.052 E0.6249
G1 X105.025 Y60.036 E0.6322
G1 X105.908 Y59.971 E0.6769
G1 X106.054 Y59.965 E0.6843
G1 X106.939 Y59.962 E0.7290
G1 X107.085 Y59.966 E0.7364
G1 X107.968 Y60.024 E0.7811
G1 X108.113 Y60.039 E0.7884
G1 X108.990 Y60.158 E0.8332
G1 X109.133 Y60.183 E0.8405
G1 X110.000 Y60.363 E0.8852
G1 X110.141 Y60.398 E0.8926
G1 X110.994 Y60.638 E0.9373
G1 X111.132 Y60.682 E0.9447
G1 X111.966 Y60.981 E0.9894
G1 X112.101 Y61.035 E0.9967
G1 X112.911 Y61.391 E1.0414
G1 X113.043 Y61.454 E1.0488
G1 X113.826 Y61.865 E1.0935
G1 X113.953 Y61.937 E1.1009
G1 X114.706 Y62.403 E1.1456
G1 X114.827 Y62.483 E1.1529
G1 X115.546 Y63.000 E1.1977
G1 X115.662 Y63.089 E1.2050
G1 X116.343 Y63.654 E1.2497
G1 X116.452 Y63.751 E1.2571
G1 X117.092 Y64.362 E1.3018
G1 X117.194 Y64.466 E1.3092
G1 X117.790 Y65.120 E1.3539
G1 X117.885 Y65.231 E1.3612
G1 X118.434 Y65.925 E1.4059
G1 X118.520 Y66.042 E1.4133
G1 X119.020 Y66.773 E1.4580
G1 X119.098 Y66.896 E1.4654
G1 X119.546 Y67.660 E1.5101
G1 X119.615 Y67.788 E1.5174
G1 X120.008 Y68.581 E1.5622
G1 X120.068 Y68.714 E1.5695
G1 X120.406 Y69.532 E1.6142
G1 X120.457 Y69.668 E1.6216
G1 X120.736 Y70.508 E1.6663
G1 X120.777 Y70.648 E1.6737
G1 X120.998 Y71.505 E1.7184
G1 X121.029 Y71.648 E1.7257
G1 X121.189 Y72.518 E1.7705
G1 X121.211 Y72.662 E1.7778
G1 X121.310 Y73.542 E1.8225
G1 X121.321 Y73.687 E1.8299
G1 X121.359 Y74.572 E1.8746
G1 X121.360 Y74.717 E1.8820
G1 X121.336 Y75.602 E1.9267
G1 X121.328 Y75.747 E1.9340
G1 X121.242 Y76.629 E1.9787
G1 X121.223 Y76.773 E1.9861
G1 X121.077 Y77.646 E2.0308
G1 X121.048 Y77.789 E2.0382
G1 X120.841 Y78.649 E2.0829
G1 X120.802 Y78.790 E2.0902
G1 X120.536 Y79.634 E2.1350
G1 X120.487 Y79.771 E2.1423
G1 X120.163 Y80.595 E2.1870
G1 X120.105 Y80.728 E2.1944
G1 X119.724 Y81.528 E2.2391
G1 X119.657 Y81.657 E2.2465
G1 X119.221 Y82.428 E2.2912
G1 X119.145 Y82.552 E2.2985
G1 X118.657 Y83.290 E2.3432
G1 X118.573 Y83.409 E2.3506
G1 X118.035 Y84.112 E2.3953
G1 X117.942 Y84.224 E2.4027
G1 X117.356 Y84.888 E2.4474
G1 X117.256 Y84.993 E2.4548
G1 X116.625 Y85.615 E2.4995
G1 X116.518 Y85.713 E2.5068
G1 X115.846 Y86.289 E2.5515
G1 X115.732 Y86.380 E2.5589
G1 X115.021 Y86.908 E2.6036
G1 X114.902 Y86.990 E2.6110
G1 X114.156 Y87.467 E2.6557
G1 X114.032 Y87.541 E2.6630
G1 X112.855 Y88.183 E2.7307
G1 X112.537 Y88.388 E2.7498
G1 X112.233 Y88.616 E2.7690
G1 X111.946 Y88.865 E2.7882
G1 X111.678 Y89.133 E2.8074
G1 X111.429 Y89.421 E2.8265
G1 X111.202 Y89.725 E2.8457
G1 X110.997 Y90.044 E2.8649
G1 X110.815 Y90.378 E2.8841
G1 X110.657 Y90.723 E2.9033
G1 X110.610 Y90.850 E2.9101
G1 X110.610 Y91.595 E2.9478
G1 X110.983 Y91.790 E2.9690
G1 X111.162 Y91.895 E2.9795
G1 X111.750 Y92.279 E3.0150
G1 X111.917 Y92.401 E3.0254
G1 X112.464 Y92.842 E3.0609
G1 X112.618 Y92.980 E3.0714
G1 X113.119 Y93.473 E3.1069
G1 X113.259 Y93.626 E3.1173
G1 X113.708 Y94.166 E3.1528
G1 X113.833 Y94.332 E3.1633
G1 X114.226 Y94.914 E3.1988
G1 X114.334 Y95.091 E3.2092
G1 X114.668 Y95.709 E3.2447
G1 X114.757 Y95.896 E3.2552
G1 X115.028 Y96.544 E3.2907
G1 X115.099 Y96.739 E3.3011
G1 X115.304 Y97.410 E3.3366
G1 X115.355 Y97.611 E3.3471
G1 X115.494 Y98.300 E3.3826
G1 X115.524 Y98.505 E3.3930
G1 X115.594 Y99.204 E3.4285
G1 X115.604 Y99.411 E3.4390
G1 X115.604 Y100.113 E3.4745
G1 X115.594 Y100.320 E3.4849
G1 X115.524 Y101.019 E3.5204
G1 X115.494 Y101.224 E3.5309
G1 X115.355 Y101.913 E3.5664
G1 X115.304 Y102.114 E3.5768
G1 X115.099 Y102.785 E3.6123
G1 X115.028 Y102.980 E3.6228
G1 X114.757 Y103.628 E3.6583
G1 X114.668 Y103.815 E3.6687
G1 X114.334 Y104.433 E3.7042
G1 X114.226 Y104.610 E3.7147
G1 X113.833 Y105.192 E3.7502
G1 X113.708 Y105.358 E3.7606
G1 X113.259 Y105.898 E3.7961
G1 X113.119 Y106.050 E3.8066
G1 X112.618 Y106.544 E3.8421
G1 X112.464 Y106.681 E3.8525
G1 X111.917 Y107.122 E3.8880
G1 X111.750 Y107.244 E3.8985
G1 X111.162 Y107.629 E3.9340
G1 X110.983 Y107.734 E3.9444
G1 X110.360 Y108.059 E3.9799
G1 X110.172 Y108.145 E3.9904
G1 X109.520 Y108.407 E4.0259
G1 X109.324 Y108.474 E4.0363
G1 X108.949 Y108.583 E4.0561
G1 X108.509 Y108.795 E4.0807
G1 X107.591 Y109.004 E4.1283
G1 X94.199 Y109.004 E4.8048
G1 X91.750 Y106.556 E4.9797
G1 X91.750 Y74.726 E6.5876
G1 X91.751 Y74.653 E6.5912
G1 X91.781 Y73.804 E6.6341
G1 X91.791 Y73.659 E6.6415
G1 X91.883 Y72.779 E6.6862
G1 X91.904 Y72.635 E6.6935
G1 X92.057 Y71.763 E6.7383
