; G-Code generated by Simplify3D(R) Version 4.1.2
; Jul 11, 2021 at 5:16:47 PM
; Settings Summary
;   processName,Process1
;   applyToModels,JRCNC0013 v18
;   profileName,JR NORMAL
;   profileVersion,2021-06-28 21:15:49
;   baseProfile,Wanhao Duplicator 5S Mini
;   printMaterial,PLA
;   printQuality,0.25
;   printExtruders,
;   extruderName,Primary Extruder
;   extruderToolheadNumber,0
;   extruderDiameter,0.3
;   extruderAutoWidth,1
;   extruderWidth,0.36
;   extrusionMultiplier,0.9
;   extruderUseRetract,1
;   extruderRetractionDistance,5
;   extruderExtraRestartDistance,0
;   extruderRetractionZLift,0
;   extruderRetractionSpeed,3000
;   extruderUseCoasting,0
;   extruderCoastingDistance,1.5
;   extruderUseWipe,0
;   extruderWipeDistance,5
;   primaryExtruder,0
;   layerHeight,0.25
;   topSolidLayers,3
;   bottomSolidLayers,3
;   perimeterOutlines,3
;   printPerimetersInsideOut,1
;   startPointOption,3
;   startPointOriginX,0
;   startPointOriginY,0
;   sequentialIslands,0
;   spiralVaseMode,0
;   firstLayerHeightPercentage,150
;   firstLayerWidthPercentage,100
;   firstLayerUnderspeed,0.5
;   useRaft,0
;   raftExtruder,0
;   raftTopLayers,3
;   raftBaseLayers,2
;   raftOffset,3
;   raftSeparationDistance,0.14
;   raftTopInfill,100
;   aboveRaftSpeedMultiplier,0.3
;   useSkirt,1
;   skirtExtruder,0
;   skirtLayers,2
;   skirtOutlines,2
;   skirtOffset,4
;   usePrimePillar,0
;   primePillarExtruder,999
;   primePillarWidth,12
;   primePillarLocation,7
;   primePillarSpeedMultiplier,1
;   useOozeShield,0
;   oozeShieldExtruder,999
;   oozeShieldOffset,2
;   oozeShieldOutlines,1
;   oozeShieldSidewallShape,1
;   oozeShieldSidewallAngle,30
;   oozeShieldSpeedMultiplier,1
;   infillExtruder,0
;   internalInfillPattern,Triangular
;   externalInfillPattern,Rectilinear
;   infillPercentage,30
;   outlineOverlapPercentage,15
;   infillExtrusionWidthPercentage,150
;   minInfillLength,5
;   infillLayerInterval,1
;   internalInfillAngles,0,60,-60
;   overlapInternalInfillAngles,1
;   externalInfillAngles,45,-45
;   generateSupport,1
;   supportExtruder,0
;   supportInfillPercentage,40
;   supportExtraInflation,1
;   supportBaseLayers,0
;   denseSupportExtruder,0
;   denseSupportLayers,0
;   denseSupportInfillPercentage,70
;   supportLayerInterval,1
;   supportHorizontalPartOffset,1
;   supportUpperSeparationLayers,1
;   supportLowerSeparationLayers,1
;   supportType,0
;   supportGridSpacing,4
;   maxOverhangAngle,45
;   supportAngles,0
;   temperatureName,Primary Extruder
;   temperatureNumber,0
;   temperatureSetpointCount,2
;   temperatureSetpointLayers,1,5
;   temperatureSetpointTemperatures,220,210
;   temperatureStabilizeAtStartup,1
;   temperatureHeatedBed,0
;   fanLayers,1,2
;   fanSpeeds,100,100
;   blipFanToFullPower,0
;   adjustSpeedForCooling,1
;   minSpeedLayerTime,7
;   minCoolingSpeedSlowdown,20
;   increaseFanForCooling,0
;   minFanLayerTime,45
;   maxCoolingFanSpeed,100
;   increaseFanForBridging,0
;   bridgingFanSpeed,100
;   use5D,1
;   relativeEdistances,0
;   allowEaxisZeroing,1
;   independentExtruderAxes,0
;   includeM10123,0
;   stickySupport,1
;   applyToolheadOffsets,0
;   gcodeXoffset,0
;   gcodeYoffset,0
;   gcodeZoffset,0
;   overrideMachineDefinition,0
;   machineTypeOverride,0
;   strokeXoverride,305
;   strokeYoverride,205
;   strokeZoverride,205
;   originOffsetXoverride,0
;   originOffsetYoverride,0
;   originOffsetZoverride,0
;   homeXdirOverride,-1
;   homeYdirOverride,-1
;   homeZdirOverride,-1
;   flipXoverride,1
;   flipYoverride,-1
;   flipZoverride,1
;   toolheadOffsets,0,0|0,0|0,0|0,0|0,0|0,0
;   overrideFirmwareConfiguration,1
;   firmwareTypeOverride,RepRap (Marlin/Repetier/Sprinter)
;   GPXconfigOverride,r2
;   baudRateOverride,115200
;   overridePrinterModels,1
;   printerModelsOverride
;   startingGcode,G28 ; home all axes,G1 Z 2 ; set height for prime line,G92 E0 ; zero extruder,G1 X150 E30 F400 ; prime line
;   layerChangeGcode,
;   retractionGcode,
;   toolChangeGcode,
;   endingGcode,G28 X0 ; home X axis,M104 S0 ; turn off extruder,M84 ; disable motors
;   exportFileFormat,gcode
;   celebration,0
;   celebrationSong,Random Song
;   postProcessing,
;   defaultSpeed,2400
;   outlineUnderspeed,0.5
;   solidInfillUnderspeed,0.8
;   supportUnderspeed,0.8
;   rapidXYspeed,2400
;   rapidZspeed,900
;   minBridgingArea,50
;   bridgingExtraInflation,0
;   bridgingExtrusionMultiplier,1
;   bridgingSpeedMultiplier,1
;   useFixedBridgingAngle,0
;   fixedBridgingAngle,0
;   applyBridgingToPerimeters,0
;   filamentDiameters,1.75|3|3|3|3|3
;   filamentPricesPerKg,46|46|46|46|46|46
;   filamentDensities,1.25|1.25|1.25|1.25|1.25|1.25
;   useMinPrintHeight,0
;   minPrintHeight,0
;   useMaxPrintHeight,0
;   maxPrintHeight,0
;   useDiaphragm,0
;   diaphragmLayerInterval,20
;   robustSlicing,1
;   mergeAllIntoSolid,0
;   onlyRetractWhenCrossingOutline,1
;   retractBetweenLayers,0
;   useRetractionMinTravel,1
;   retractionMinTravel,3
;   retractWhileWiping,0
;   onlyWipeOutlines,1
;   avoidCrossingOutline,1
;   maxMovementDetourFactor,3
;   toolChangeRetractionDistance,12
;   toolChangeExtraRestartDistance,-0.5
;   toolChangeRetractionSpeed,600
;   externalThinWallType,0
;   internalThinWallType,2
;   thinWallAllowedOverlapPercentage,10
;   singleExtrusionMinLength,1
;   singleExtrusionMinPrintingWidthPercentage,50
;   singleExtrusionMaxPrintingWidthPercentage,200
;   singleExtrusionEndpointExtension,0
;   horizontalSizeCompensation,0
G90
M82
M106 S255
M104 S220 T0
M109 S220 T0
G28 ; home all axes
G1 Z 2 ; set height for prime line
G92 E0 ; zero extruder
G1 X150 E30 F400 ; prime line
; process Process1
; layer 1, Z = 0.375
T0
G92 E0.0000
G1 E-5.0000 F3000
; feature skirt
; tool H0.375 W0.360
G1 Z0.375 F900
G1 X80.753 Y84.442 F2400
G1 E0.0000 F3000
G92 E0.0000
G1 X81.425 Y83.846 E0.0454 F1200
G1 X81.567 Y83.731 E0.0546
G1 X82.286 Y83.191 E0.1000
G1 X82.436 Y83.087 E0.1093
G1 X83.196 Y82.606 E0.1547
G1 X83.354 Y82.515 E0.1639
G1 X84.150 Y82.097 E0.2093
G1 X84.315 Y82.019 E0.2186
G1 X85.142 Y81.667 E0.2640
G1 X85.313 Y81.602 E0.2732
G1 X86.166 Y81.317 E0.3186
G1 X86.341 Y81.266 E0.3278
G1 X87.214 Y81.051 E0.3732
G1 X87.393 Y81.015 E0.3825
G1 X88.280 Y80.870 E0.4279
G1 X88.462 Y80.848 E0.4371
G1 X89.358 Y80.776 E0.4825
G1 X89.541 Y80.769 E0.4918
G1 X90.439 Y80.769 E0.5372
G1 X90.622 Y80.776 E0.5464
G1 X91.518 Y80.848 E0.5918
G1 X91.700 Y80.870 E0.6010
G1 X92.587 Y81.015 E0.6464
G1 X92.766 Y81.051 E0.6557
G1 X93.639 Y81.266 E0.7011
G1 X93.814 Y81.317 E0.7103
G1 X94.667 Y81.602 E0.7557
G1 X94.838 Y81.667 E0.7650
G1 X95.665 Y82.019 E0.8104
G1 X95.830 Y82.097 E0.8196
G1 X96.626 Y82.515 E0.8650
G1 X96.784 Y82.606 E0.8742
G1 X97.544 Y83.087 E0.9196
G1 X97.694 Y83.191 E0.9289
G1 X98.413 Y83.731 E0.9743
G1 X98.555 Y83.846 E0.9835
G1 X99.227 Y84.442 E1.0289
G1 X99.359 Y84.569 E1.0382
G1 X99.982 Y85.217 E1.0836
G1 X100.103 Y85.354 E1.0928
G1 X100.672 Y86.050 E1.1382
G1 X100.781 Y86.197 E1.1474
G1 X101.292 Y86.936 E1.1929
G1 X101.390 Y87.091 E1.2021
G1 X101.839 Y87.869 E1.2475
G1 X101.924 Y88.031 E1.2567
G1 X102.309 Y88.843 E1.3021
G1 X102.381 Y89.011 E1.3114
G1 X102.700 Y89.852 E1.3568
G1 X102.758 Y90.025 E1.3660
G1 X103.008 Y90.889 E1.4114
G1 X103.052 Y91.066 E1.4206
G1 X103.231 Y91.947 E1.4661
G1 X103.261 Y92.127 E1.4753
G1 X103.369 Y93.020 E1.5207
G1 X103.384 Y93.202 E1.5299
G1 X103.418 Y94.054 E1.5730
G1 X103.420 Y94.146 E1.5776
G1 X103.420 Y97.951 E1.7699
G1 X201.580 Y97.951 E6.7283
G1 X201.580 Y94.146 E6.9206
G1 X201.582 Y94.054 E6.9252
G1 X201.616 Y93.202 E6.9683
G1 X201.631 Y93.020 E6.9775
G1 X201.739 Y92.127 E7.0229
G1 X201.769 Y91.947 E7.0321
G1 X201.948 Y91.066 E7.0775
G1 X201.992 Y90.889 E7.0868
G1 X202.242 Y90.025 E7.1322
G1 X202.300 Y89.852 E7.1414
G1 X202.619 Y89.011 E7.1868
G1 X202.691 Y88.843 E7.1961
G1 X203.076 Y88.031 E7.2415
G1 X203.161 Y87.869 E7.2507
G1 X203.610 Y87.091 E7.2961
G1 X203.708 Y86.936 E7.3053
G1 X204.219 Y86.197 E7.3508
G1 X204.328 Y86.050 E7.3600
G1 X204.897 Y85.354 E7.4054
G1 X205.018 Y85.217 E7.4146
G1 X205.641 Y84.569 E7.4600
G1 X205.773 Y84.442 E7.4693
G1 X206.445 Y83.846 E7.5147
G1 X206.587 Y83.731 E7.5239
G1 X207.306 Y83.191 E7.5693
G1 X207.456 Y83.087 E7.5786
G1 X208.216 Y82.606 E7.6240
G1 X208.374 Y82.515 E7.6332
G1 X209.170 Y82.097 E7.6786
G1 X209.335 Y82.019 E7.6878
G1 X210.162 Y81.667 E7.7332
G1 X210.333 Y81.602 E7.7425
G1 X211.186 Y81.317 E7.7879
G1 X211.361 Y81.266 E7.7971
G1 X212.234 Y81.051 E7.8425
G1 X212.413 Y81.015 E7.8518
G1 X213.300 Y80.870 E7.8972
G1 X213.482 Y80.848 E7.9064
G1 X214.378 Y80.776 E7.9518
G1 X214.561 Y80.769 E7.9610
G1 X215.459 Y80.769 E8.0064
G1 X215.642 Y80.776 E8.0157
G1 X216.538 Y80.848 E8.0611
G1 X216.720 Y80.870 E8.0703
G1 X217.607 Y81.015 E8.1157
G1 X217.786 Y81.051 E8.1250
G1 X218.659 Y81.266 E8.1704
G1 X218.834 Y81.317 E8.1796
G1 X219.687 Y81.602 E8.2250
G1 X219.858 Y81.667 E8.2342
G1 X220.685 Y82.019 E8.2796
G1 X220.850 Y82.097 E8.2889
G1 X221.646 Y82.515 E8.3343
G1 X221.804 Y82.606 E8.3435
G1 X222.564 Y83.087 E8.3889
G1 X222.714 Y83.191 E8.3982
G1 X223.433 Y83.731 E8.4436
G1 X223.575 Y83.846 E8.4528
G1 X224.247 Y84.442 E8.4982
G1 X224.379 Y84.569 E8.5074
G1 X225.002 Y85.217 E8.5528
G1 X225.123 Y85.354 E8.5621
G1 X225.692 Y86.050 E8.6075
G1 X225.801 Y86.197 E8.6167
G1 X226.312 Y86.936 E8.6621
G1 X226.410 Y87.091 E8.6714
G1 X226.859 Y87.869 E8.7168
G1 X226.944 Y88.031 E8.7260
G1 X227.329 Y88.843 E8.7714
G1 X227.401 Y89.011 E8.7806
G1 X227.720 Y89.852 E8.8260
G1 X227.778 Y90.025 E8.8353
G1 X228.028 Y90.889 E8.8807
G1 X228.072 Y91.066 E8.8899
G1 X228.251 Y91.947 E8.9353
G1 X228.281 Y92.127 E8.9446
G1 X228.389 Y93.020 E8.9900
G1 X228.404 Y93.202 E8.9992
G1 X228.438 Y94.054 E9.0423
G1 X228.440 Y94.146 E9.0469
G1 X228.440 Y117.072 E10.2050
G1 X225.781 Y119.731 E10.3950
G1 X219.540 Y119.731 E10.7102
G1 X219.540 Y121.572 E10.8032
G1 X216.881 Y124.231 E10.9932
G1 X88.119 Y124.231 E17.4974
G1 X85.460 Y121.572 E17.6874
G1 X85.460 Y119.731 E17.7804
G1 X79.219 Y119.731 E18.0956
G1 X76.560 Y117.072 E18.2856
G1 X76.560 Y94.146 E19.4437
G1 X76.562 Y94.054 E19.4483
G1 X76.596 Y93.202 E19.4914
G1 X76.611 Y93.020 E19.5006
G1 X76.719 Y92.127 E19.5460
G1 X76.749 Y91.947 E19.5553
G1 X76.928 Y91.066 E19.6007
G1 X76.972 Y90.889 E19.6099
G1 X77.222 Y90.025 E19.6553
G1 X77.280 Y89.852 E19.6645
G1 X77.599 Y89.011 E19.7099
G1 X77.671 Y88.843 E19.7192
G1 X78.056 Y88.031 E19.7646
G1 X78.141 Y87.869 E19.7738
G1 X78.590 Y87.091 E19.8192
G1 X78.688 Y86.936 E19.8285
G1 X79.199 Y86.197 E19.8739
G1 X79.308 Y86.050 E19.8831
G1 X79.877 Y85.354 E19.9285
G1 X79.998 Y85.217 E19.9377
G1 X80.621 Y84.569 E19.9831
G1 X80.753 Y84.442 E19.9924
G1 X80.997 Y84.707 F2400
G92 E0.0000
G1 X81.659 Y84.121 E0.0447 F1200
G1 X81.789 Y84.014 E0.0532
G1 X82.496 Y83.483 E0.0978
G1 X82.635 Y83.387 E0.1063
G1 X83.382 Y82.915 E0.1510
G1 X83.528 Y82.830 E0.1595
G1 X84.311 Y82.419 E0.2042
G1 X84.463 Y82.347 E0.2127
G1 X85.277 Y82.001 E0.2574
G1 X85.434 Y81.941 E0.2659
G1 X86.273 Y81.661 E0.3105
G1 X86.435 Y81.614 E0.3191
G1 X87.293 Y81.402 E0.3637
G1 X87.458 Y81.369 E0.3722
G1 X88.331 Y81.227 E0.4169
G1 X88.498 Y81.207 E0.4254
G1 X89.380 Y81.135 E0.4701
G1 X89.548 Y81.129 E0.4786
G1 X90.432 Y81.129 E0.5232
G1 X90.600 Y81.135 E0.5318
G1 X91.482 Y81.207 E0.5764
G1 X91.649 Y81.227 E0.5849
G1 X92.522 Y81.369 E0.6296
G1 X92.687 Y81.402 E0.6381
G1 X93.545 Y81.614 E0.6828
G1 X93.707 Y81.661 E0.6913
G1 X94.546 Y81.941 E0.7359
G1 X94.703 Y82.001 E0.7445
G1 X95.517 Y82.347 E0.7891
G1 X95.669 Y82.419 E0.7976
G1 X96.452 Y82.830 E0.8423
G1 X96.598 Y82.915 E0.8508
G1 X97.345 Y83.387 E0.8955
G1 X97.484 Y83.483 E0.9040
G1 X98.191 Y84.014 E0.9486
G1 X98.321 Y84.121 E0.9572
G1 X98.983 Y84.707 E1.0018
G1 X99.105 Y84.824 E1.0103
G1 X99.717 Y85.461 E1.0550
G1 X99.829 Y85.587 E1.0635
G1 X100.388 Y86.272 E1.1082
G1 X100.489 Y86.407 E1.1167
G1 X100.992 Y87.135 E1.1614
G1 X101.082 Y87.277 E1.1699
G1 X101.524 Y88.043 E1.2145
G1 X101.602 Y88.192 E1.2230
G1 X101.981 Y88.991 E1.2677
G1 X102.047 Y89.146 E1.2762
G1 X102.361 Y89.973 E1.3209
G1 X102.414 Y90.132 E1.3294
G1 X102.660 Y90.982 E1.3741
G1 X102.700 Y91.145 E1.3826
G1 X102.877 Y92.012 E1.4272
G1 X102.904 Y92.178 E1.4357
G1 X103.011 Y93.056 E1.4804
G1 X103.024 Y93.224 E1.4889
G1 X103.058 Y94.065 E1.5315
G1 X103.060 Y94.149 E1.5357
G1 X103.060 Y98.311 E1.7459
G1 X201.940 Y98.311 E6.7408
G1 X201.940 Y94.149 E6.9510
G1 X201.942 Y94.065 E6.9553
G1 X201.976 Y93.224 E6.9978
G1 X201.989 Y93.056 E7.0063
G1 X202.096 Y92.178 E7.0510
G1 X202.123 Y92.012 E7.0595
G1 X202.300 Y91.145 E7.1041
G1 X202.340 Y90.982 E7.1126
G1 X202.586 Y90.132 E7.1573
G1 X202.639 Y89.973 E7.1658
G1 X202.953 Y89.146 E7.2105
G1 X203.019 Y88.991 E7.2190
G1 X203.398 Y88.192 E7.2637
G1 X203.476 Y88.043 E7.2722
G1 X203.918 Y87.277 E7.3168
G1 X204.008 Y87.135 E7.3253
G1 X204.511 Y86.407 E7.3700
G1 X204.612 Y86.272 E7.3785
G1 X205.171 Y85.587 E7.4232
G1 X205.283 Y85.461 E7.4317
G1 X205.895 Y84.824 E7.4764
G1 X206.017 Y84.707 E7.4849
G1 X206.679 Y84.121 E7.5295
G1 X206.809 Y84.014 E7.5380
G1 X207.516 Y83.483 E7.5827
G1 X207.655 Y83.387 E7.5912
G1 X208.402 Y82.915 E7.6359
G1 X208.548 Y82.830 E7.6444
G1 X209.331 Y82.419 E7.6891
G1 X209.483 Y82.347 E7.6976
G1 X210.297 Y82.001 E7.7422
G1 X210.454 Y81.941 E7.7508
G1 X211.293 Y81.661 E7.7954
G1 X211.455 Y81.614 E7.8039
G1 X212.313 Y81.402 E7.8486
G1 X212.478 Y81.369 E7.8571
G1 X213.351 Y81.227 E7.9018
G1 X213.518 Y81.207 E7.9103
G1 X214.400 Y81.135 E7.9549
G1 X214.568 Y81.129 E7.9635
G1 X215.452 Y81.129 E8.0081
G1 X215.620 Y81.135 E8.0166
G1 X216.502 Y81.207 E8.0613
G1 X216.669 Y81.227 E8.0698
G1 X217.542 Y81.369 E8.1145
G1 X217.707 Y81.402 E8.1230
G1 X218.565 Y81.614 E8.1676
G1 X218.727 Y81.661 E8.1762
G1 X219.566 Y81.941 E8.2208
G1 X219.723 Y82.001 E8.2293
G1 X220.537 Y82.347 E8.2740
G1 X220.689 Y82.419 E8.2825
G1 X221.472 Y82.830 E8.3272
G1 X221.618 Y82.915 E8.3357
G1 X222.365 Y83.387 E8.3804
G1 X222.504 Y83.483 E8.3889
G1 X223.211 Y84.014 E8.4335
G1 X223.341 Y84.121 E8.4420
G1 X224.003 Y84.707 E8.4867
G1 X224.125 Y84.824 E8.4952
G1 X224.737 Y85.461 E8.5399
G1 X224.849 Y85.587 E8.5484
G1 X225.408 Y86.272 E8.5931
G1 X225.509 Y86.407 E8.6016
G1 X226.012 Y87.135 E8.6462
G1 X226.102 Y87.277 E8.6547
G1 X226.544 Y88.043 E8.6994
G1 X226.622 Y88.192 E8.7079
G1 X227.001 Y88.991 E8.7526
G1 X227.067 Y89.146 E8.7611
G1 X227.381 Y89.973 E8.8058
G1 X227.434 Y90.132 E8.8143
G1 X227.680 Y90.982 E8.8589
G1 X227.720 Y91.145 E8.8674
G1 X227.897 Y92.012 E8.9121
G1 X227.924 Y92.178 E8.9206
G1 X228.031 Y93.056 E8.9653
G1 X228.044 Y93.224 E8.9738
G1 X228.078 Y94.065 E9.0163
G1 X228.080 Y94.149 E9.0206
G1 X228.080 Y116.923 E10.1710
G1 X225.631 Y119.371 E10.3459
G1 X219.180 Y119.371 E10.6718
G1 X219.180 Y121.423 E10.7754
G1 X216.731 Y123.871 E10.9503
G1 X88.269 Y123.871 E17.4395
G1 X85.820 Y121.423 E17.6144
G1 X85.820 Y119.371 E17.7180
G1 X79.369 Y119.371 E18.0439
G1 X76.920 Y116.923 E18.2188
G1 X76.920 Y94.149 E19.3692
G1 X76.922 Y94.065 E19.3734
G1 X76.956 Y93.224 E19.4160
G1 X76.969 Y93.056 E19.4245
G1 X77.076 Y92.178 E19.4692
G1 X77.103 Y92.012 E19.4777
G1 X77.280 Y91.145 E19.5223
G1 X77.320 Y90.982 E19.5308
G1 X77.566 Y90.132 E19.5755
G1 X77.619 Y89.973 E19.5840
G1 X77.933 Y89.146 E19.6287
G1 X77.999 Y88.991 E19.6372
G1 X78.378 Y88.192 E19.6819
G1 X78.456 Y88.043 E19.6904
G1 X78.898 Y87.277 E19.7350
G1 X78.988 Y87.135 E19.7435
G1 X79.491 Y86.407 E19.7882
G1 X79.592 Y86.272 E19.7967
G1 X80.151 Y85.587 E19.8414
G1 X80.263 Y85.461 E19.8499
G1 X80.875 Y84.824 E19.8946
G1 X80.997 Y84.707 E19.9031
G92 E0.0000
G1 E-5.0000 F3000
; feature inner perimeter
G1 X83.957 Y87.910 F2400
G1 X83.965 Y87.902
G1 X84.456 Y88.430
G1 E0.0000 F3000
G92 E0.0000
G1 X84.937 Y88.003 E0.0325 F900
G1 X85.452 Y87.616 E0.0650
G1 X85.995 Y87.272 E0.0975
G1 X86.565 Y86.973 E0.1300
G1 X87.157 Y86.721 E0.1625
G1 X87.767 Y86.518 E0.1950
G1 X88.392 Y86.364 E0.2275
G1 X89.027 Y86.260 E0.2600
G1 X89.668 Y86.209 E0.2925
G1 X90.312 Y86.209 E0.3250
G1 X90.953 Y86.260 E0.3575
G1 X91.588 Y86.364 E0.3900
G1 X92.213 Y86.518 E0.4225
G1 X92.823 Y86.721 E0.4550
G1 X93.415 Y86.973 E0.4875
