; G-Code generated by Simplify3D(R) Version 4.1.2
; Nov 19, 2020 at 10:08:38 PM
; Settings Summary
;   processName,Process1
;   applyToModels,MandoV2FullBucket
;   profileName,HIGH DETAIL
;   profileVersion,2020-11-19 21:56:08
;   baseProfile,Wanhao Duplicator 5S Mini
;   printMaterial,PLA
;   printQuality,0.15
;   printExtruders,
;   extruderName,Primary Extruder
;   extruderToolheadNumber,0
;   extruderDiameter,0.3
;   extruderAutoWidth,0
;   extruderWidth,0.3
;   extrusionMultiplier,0.87
;   extruderUseRetract,1
;   extruderRetractionDistance,7.5
;   extruderExtraRestartDistance,0
;   extruderRetractionZLift,0
;   extruderRetractionSpeed,3000
;   extruderUseCoasting,1
;   extruderCoastingDistance,2
;   extruderUseWipe,0
;   extruderWipeDistance,5
;   primaryExtruder,0
;   layerHeight,0.15
;   topSolidLayers,3
;   bottomSolidLayers,3
;   perimeterOutlines,3
;   printPerimetersInsideOut,1
;   startPointOption,3
;   startPointOriginX,0
;   startPointOriginY,0
;   sequentialIslands,0
;   spiralVaseMode,0
;   firstLayerHeightPercentage,150
;   firstLayerWidthPercentage,100
;   firstLayerUnderspeed,0.5
;   useRaft,0
;   raftExtruder,0
;   raftTopLayers,3
;   raftBaseLayers,2
;   raftOffset,3
;   raftSeparationDistance,0.14
;   raftTopInfill,100
;   aboveRaftSpeedMultiplier,0.3
;   useSkirt,1
;   skirtExtruder,0
;   skirtLayers,1
;   skirtOutlines,2
;   skirtOffset,4
;   usePrimePillar,0
;   primePillarExtruder,999
;   primePillarWidth,12
;   primePillarLocation,7
;   primePillarSpeedMultiplier,1
;   useOozeShield,0
;   oozeShieldExtruder,999
;   oozeShieldOffset,2
;   oozeShieldOutlines,1
;   oozeShieldSidewallShape,1
;   oozeShieldSidewallAngle,30
;   oozeShieldSpeedMultiplier,1
;   infillExtruder,0
;   internalInfillPattern,Triangular
;   externalInfillPattern,Rectilinear
;   infillPercentage,35
;   outlineOverlapPercentage,15
;   infillExtrusionWidthPercentage,150
;   minInfillLength,5
;   infillLayerInterval,2
;   internalInfillAngles,0,60,-60
;   overlapInternalInfillAngles,1
;   externalInfillAngles,45,-45
;   generateSupport,0
;   supportExtruder,0
;   supportInfillPercentage,30
;   supportExtraInflation,1
;   supportBaseLayers,0
;   denseSupportExtruder,0
;   denseSupportLayers,0
;   denseSupportInfillPercentage,70
;   supportLayerInterval,2
;   supportHorizontalPartOffset,1
;   supportUpperSeparationLayers,1
;   supportLowerSeparationLayers,1
;   supportType,0
;   supportGridSpacing,4
;   maxOverhangAngle,45
;   supportAngles,0
;   temperatureName,Primary Extruder
;   temperatureNumber,0
;   temperatureSetpointCount,2
;   temperatureSetpointLayers,1,5
;   temperatureSetpointTemperatures,220,200
;   temperatureStabilizeAtStartup,1
;   temperatureHeatedBed,0
;   fanLayers,1,2
;   fanSpeeds,100,100
;   blipFanToFullPower,0
;   adjustSpeedForCooling,1
;   minSpeedLayerTime,7
;   minCoolingSpeedSlowdown,20
;   increaseFanForCooling,0
;   minFanLayerTime,45
;   maxCoolingFanSpeed,100
;   increaseFanForBridging,0
;   bridgingFanSpeed,100
;   use5D,1
;   relativeEdistances,0
;   allowEaxisZeroing,1
;   independentExtruderAxes,0
;   includeM10123,0
;   stickySupport,1
;   applyToolheadOffsets,0
;   gcodeXoffset,0
;   gcodeYoffset,0
;   gcodeZoffset,0
;   overrideMachineDefinition,0
;   machineTypeOverride,0
;   strokeXoverride,305
;   strokeYoverride,205
;   strokeZoverride,205
;   originOffsetXoverride,0
;   originOffsetYoverride,0
;   originOffsetZoverride,0
;   homeXdirOverride,-1
;   homeYdirOverride,-1
;   homeZdirOverride,-1
;   flipXoverride,1
;   flipYoverride,-1
;   flipZoverride,1
;   toolheadOffsets,0,0|0,0|0,0|0,0|0,0|0,0
;   overrideFirmwareConfiguration,1
;   firmwareTypeOverride,RepRap (Marlin/Repetier/Sprinter)
;   GPXconfigOverride,r2
;   baudRateOverride,115200
;   overridePrinterModels,1
;   printerModelsOverride
;   startingGcode,G28 ; home all axes,G1 Z  ; set height for prime line,G92 E0 ; zero extruder,G1 X150 E30 F400 ; prime line
;   layerChangeGcode,
;   retractionGcode,
;   toolChangeGcode,
;   endingGcode,G28 X0 ; home X axis,M104 S0 ; turn off extruder,M84 ; disable motors
;   exportFileFormat,gcode
;   celebration,0
;   celebrationSong,Random Song
;   postProcessing,
;   defaultSpeed,1800
;   outlineUnderspeed,0.5
;   solidInfillUnderspeed,0.8
;   supportUnderspeed,0.8
;   rapidXYspeed,2400
;   rapidZspeed,600
;   minBridgingArea,50
;   bridgingExtraInflation,0
;   bridgingExtrusionMultiplier,1
;   bridgingSpeedMultiplier,1
;   useFixedBridgingAngle,0
;   fixedBridgingAngle,0
;   applyBridgingToPerimeters,0
;   filamentDiameters,1.75|3|3|3|3|3
;   filamentPricesPerKg,46|46|46|46|46|46
;   filamentDensities,1.25|1.25|1.25|1.25|1.25|1.25
;   useMinPrintHeight,0
;   minPrintHeight,0
;   useMaxPrintHeight,0
;   maxPrintHeight,0
;   useDiaphragm,0
;   diaphragmLayerInterval,20
;   robustSlicing,1
;   mergeAllIntoSolid,0
;   onlyRetractWhenCrossingOutline,1
;   retractBetweenLayers,0
;   useRetractionMinTravel,1
;   retractionMinTravel,3
;   retractWhileWiping,0
;   onlyWipeOutlines,1
;   avoidCrossingOutline,1
;   maxMovementDetourFactor,3
;   toolChangeRetractionDistance,12
;   toolChangeExtraRestartDistance,-0.5
;   toolChangeRetractionSpeed,600
;   externalThinWallType,0
;   internalThinWallType,2
;   thinWallAllowedOverlapPercentage,10
;   singleExtrusionMinLength,1
;   singleExtrusionMinPrintingWidthPercentage,50
;   singleExtrusionMaxPrintingWidthPercentage,200
;   singleExtrusionEndpointExtension,0.2
;   horizontalSizeCompensation,0
G90
M82
M106 S255
M104 S220 T0
M109 S220 T0
G28 ; home all axes
G1 Z  ; set height for prime line
G92 E0 ; zero extruder
G1 X150 E30 F400 ; prime line
; process Process1
; layer 1, Z = 0.225
T0
G92 E0.0000
G1 E-7.5000 F3000
; feature skirt
; tool H0.225 W0.300
G1 Z0.225 F600
G1 X137.159 Y85.515 F2400
G1 E0.0000 F3000
G92 E0.0000
G1 X137.958 Y84.263 E0.0363 F900
G1 X138.093 Y84.074 E0.0420
G1 X139.039 Y82.886 E0.0790
G1 X139.176 Y82.730 E0.0841
G1 X139.881 Y81.997 E0.1089
G1 X139.998 Y81.883 E0.1129
G1 X141.030 Y80.957 E0.1468
G1 X141.182 Y80.832 E0.1516
G1 X142.255 Y80.027 E0.1843
G1 X142.372 Y79.945 E0.1878
G1 X143.044 Y79.505 E0.2074
G1 X143.151 Y79.439 E0.2105
G1 X144.132 Y78.873 E0.2381
G1 X144.252 Y78.809 E0.2415
G1 X145.035 Y78.419 E0.2628
G1 X145.186 Y78.351 E0.2668
G1 X146.696 Y77.735 E0.3067
G1 X146.874 Y77.671 E0.3113
G1 X147.906 Y77.349 E0.3377
G1 X148.058 Y77.253 E0.3421
G1 X149.600 Y76.688 E0.3822
G1 X150.053 Y76.574 E0.3936
G1 X150.286 Y76.541 E0.3993
G1 X150.465 Y76.462 E0.4041
G1 X151.010 Y76.438 E0.4174
G1 X152.384 Y76.242 E0.4513
G1 X152.421 Y76.214 E0.4524
G1 X152.500 Y76.225 E0.4544
G1 X152.579 Y76.214 E0.4563
G1 X152.615 Y76.242 E0.4574
G1 X153.990 Y76.437 E0.4913
G1 X154.535 Y76.462 E0.5047
G1 X154.714 Y76.541 E0.5094
G1 X154.946 Y76.574 E0.5152
G1 X155.400 Y76.688 E0.5266
G1 X156.942 Y77.253 E0.5667
G1 X157.094 Y77.349 E0.5711
G1 X158.099 Y77.662 E0.5968
G1 X158.226 Y77.706 E0.6001
G1 X159.047 Y78.018 E0.6215
G1 X159.200 Y78.082 E0.6255
G1 X160.673 Y78.771 E0.6652
G1 X160.839 Y78.857 E0.6698
G1 X161.806 Y79.413 E0.6971
G1 X161.914 Y79.479 E0.7002
G1 X162.625 Y79.943 E0.7209
G1 X162.744 Y80.026 E0.7244
G1 X163.822 Y80.834 E0.7573
G1 X163.980 Y80.965 E0.7623
G1 X165.161 Y82.034 E0.8012
G1 X165.328 Y82.203 E0.8070
G1 X166.350 Y83.348 E0.8445
G1 X166.468 Y83.493 E0.8490
G1 X166.962 Y84.150 E0.8691
G1 X167.059 Y84.290 E0.8733
G1 X167.841 Y85.515 E0.9088
G1 X167.943 Y85.693 E0.9138
G1 X168.595 Y86.956 E0.9485
G1 X168.652 Y87.076 E0.9517
G1 X168.960 Y87.772 E0.9703
G1 X169.012 Y87.900 E0.9737
G1 X169.641 Y89.599 E1.0179
G1 X169.687 Y89.739 E1.0215
G1 X169.907 Y90.481 E1.0404
G1 X170.874 Y91.003 E1.0672
G1 X171.512 Y91.518 E1.0872
G1 X172.243 Y92.371 E1.1147
G1 X172.759 Y93.481 E1.1446
G1 X172.969 Y94.771 E1.1765
G1 X173.019 Y94.888 E1.1796
G1 X173.206 Y95.875 E1.2041
G1 X173.217 Y96.143 E1.2107
G1 X173.251 Y96.268 E1.2138
G1 X173.326 Y96.835 E1.2278
G1 X173.341 Y100.184 E1.3096
G1 X173.268 Y100.760 E1.3237
G1 X173.243 Y100.857 E1.3262
G1 X173.235 Y101.119 E1.3326
G1 X173.057 Y102.152 E1.3581
G1 X173.045 Y102.181 E1.3589
G1 X173.036 Y102.278 E1.3613
G1 X172.832 Y103.438 E1.3901
G1 X172.567 Y104.168 E1.4090
G1 X172.043 Y105.078 E1.4347
G1 X171.239 Y105.894 E1.4626
G1 X171.138 Y105.953 E1.4655
G1 X171.043 Y106.634 E1.4822
G1 X171.003 Y106.845 E1.4875
G1 X170.657 Y108.281 E1.5236
G1 X170.623 Y108.407 E1.5267
G1 X170.067 Y110.240 E1.5735
G1 X170.032 Y110.344 E1.5762
G1 X169.412 Y112.073 E1.6210
G1 X169.371 Y112.178 E1.6238
G1 X168.887 Y113.341 E1.6545
G1 X168.840 Y113.446 E1.6574
G1 X168.265 Y114.646 E1.6898
G1 X168.183 Y114.801 E1.6941
G1 X167.409 Y116.133 E1.7317
G1 X167.300 Y116.304 E1.7367
G1 X166.750 Y117.079 E1.7599
G1 X166.636 Y117.226 E1.7644
G1 X166.023 Y117.953 E1.7876
G1 X165.897 Y118.091 E1.7922
G1 X165.216 Y118.773 E1.8157
G1 X165.088 Y118.891 E1.8200
G1 X164.343 Y119.529 E1.8439
G1 X164.221 Y119.626 E1.8477
G1 X163.394 Y120.239 E1.8729
G1 X163.248 Y120.338 E1.8772
G1 X161.700 Y121.305 E1.9217
G1 X161.564 Y121.384 E1.9256
G1 X159.612 Y122.420 E1.9795
G1 X159.514 Y122.469 E1.9822
G1 X157.048 Y123.625 E2.0487
G1 X156.555 Y123.789 E2.0614
G1 X155.666 Y123.974 E2.0836
G1 X154.582 Y123.933 E2.1101
G1 X153.529 Y123.630 E2.1368
G1 X152.684 Y123.174 E2.1602
G1 X152.511 Y123.025 E2.1658
G1 X152.283 Y123.231 E2.1733
G1 X150.621 Y123.952 E2.2176
G1 X148.797 Y123.962 E2.2621
G1 X147.224 Y123.298 E2.3038
G1 X147.131 Y123.257 E2.3063
G1 X145.708 Y122.579 E2.3447
G1 X145.652 Y122.551 E2.3463
G1 X144.289 Y121.854 E2.3836
G1 X144.222 Y121.818 E2.3855
G1 X143.237 Y121.271 E2.4130
G1 X143.130 Y121.207 E2.4160
G1 X141.740 Y120.330 E2.4562
G1 X141.602 Y120.236 E2.4603
G1 X140.785 Y119.631 E2.4851
G1 X140.675 Y119.543 E2.4885
G1 X140.111 Y119.067 E2.5065
G1 X139.993 Y118.960 E2.5104
G1 X139.135 Y118.123 E2.5397
G1 X138.987 Y117.964 E2.5450
G1 X138.353 Y117.213 E2.5690
G1 X138.219 Y117.037 E2.5744
G1 X137.505 Y115.996 E2.6052
G1 X137.419 Y115.861 E2.6091
G1 X137.033 Y115.201 E2.6278
G1 X136.974 Y115.093 E2.6308
G1 X136.458 Y114.088 E2.6584
G1 X136.405 Y113.977 E2.6614
G1 X135.880 Y112.798 E2.6929
G1 X135.833 Y112.686 E2.6958
G1 X135.209 Y111.051 E2.7386
G1 X135.173 Y110.950 E2.7412
G1 X134.713 Y109.541 E2.7774
G1 X134.690 Y109.468 E2.7792
G1 X134.286 Y108.073 E2.8147
G1 X134.256 Y107.956 E2.8177
G1 X133.996 Y106.836 E2.8457
G1 X133.966 Y106.683 E2.8496
G1 X133.849 Y105.946 E2.8678
G1 X133.693 Y105.853 E2.8722
G1 X132.810 Y104.892 E2.9041
G1 X132.336 Y103.917 E2.9305
G1 X132.144 Y103.320 E2.9458
G1 X131.963 Y102.266 E2.9720
G1 X131.953 Y102.155 E2.9747
G1 X131.937 Y102.115 E2.9757
G1 X131.711 Y100.805 E3.0082
G1 X131.722 Y100.704 E3.0107
G1 X131.656 Y100.156 E3.0241
G1 X131.674 Y96.828 E3.1054
G1 X131.751 Y96.261 E3.1194
G1 X131.783 Y96.142 E3.1224
G1 X131.794 Y95.875 E3.1289
G1 X131.981 Y94.888 E3.1534
G1 X132.040 Y94.749 E3.1571
G1 X132.062 Y94.399 E3.1657
G1 X132.317 Y93.282 E3.1937
G1 X132.804 Y92.317 E3.2200
G1 X133.491 Y91.514 E3.2458
G1 X134.139 Y90.994 E3.2661
G1 X135.080 Y90.491 E3.2922
G1 X135.117 Y90.366 E3.2954
G1 X135.557 Y89.021 E3.3299
G1 X135.611 Y88.872 E3.3338
G1 X136.307 Y87.165 E3.3788
G1 X136.390 Y86.985 E3.3836
G1 X137.057 Y85.693 E3.4191
G1 X137.159 Y85.515 E3.4241
G1 X137.415 Y85.671 F2400
G92 E0.0000
G1 X138.206 Y84.431 E0.0359 F900
G1 X138.333 Y84.255 E0.0412
G1 X139.270 Y83.078 E0.0779
G1 X139.397 Y82.933 E0.0826
G1 X140.093 Y82.209 E0.1072
G1 X140.203 Y82.103 E0.1109
G1 X141.225 Y81.184 E0.1445
G1 X141.367 Y81.068 E0.1489
G1 X142.431 Y80.270 E0.1814
G1 X142.540 Y80.193 E0.1846
G1 X143.205 Y79.758 E0.2041
G1 X143.304 Y79.697 E0.2069
G1 X144.278 Y79.136 E0.2343
G1 X144.390 Y79.076 E0.2374
G1 X145.164 Y78.690 E0.2585
G1 X145.304 Y78.627 E0.2623
G1 X146.803 Y78.015 E0.3018
G1 X146.970 Y77.955 E0.3062
G1 X148.033 Y77.623 E0.3334
G1 X148.191 Y77.524 E0.3379
G1 X149.689 Y76.975 E0.3769
G1 X150.111 Y76.868 E0.3875
G1 X150.369 Y76.832 E0.3939
G1 X150.534 Y76.759 E0.3983
G1 X151.038 Y76.737 E0.4106
G1 X152.497 Y76.529 E0.4466
G1 X152.503 Y76.529 E0.4467
G1 X153.962 Y76.737 E0.4827
G1 X154.466 Y76.759 E0.4950
G1 X154.631 Y76.832 E0.4994
G1 X154.889 Y76.868 E0.5058
G1 X155.311 Y76.975 E0.5164
G1 X156.809 Y77.524 E0.5554
G1 X156.967 Y77.623 E0.5599
G1 X158.006 Y77.947 E0.5865
G1 X158.124 Y77.988 E0.5896
G1 X158.935 Y78.296 E0.6107
G1 X159.078 Y78.356 E0.6145
G1 X160.540 Y79.040 E0.6539
G1 X160.695 Y79.120 E0.6582
G1 X161.653 Y79.671 E0.6852
G1 X161.754 Y79.732 E0.6881
G1 X162.457 Y80.191 E0.7086
G1 X162.568 Y80.269 E0.7119
G1 X163.636 Y81.070 E0.7445
G1 X163.784 Y81.192 E0.7491
G1 X164.953 Y82.251 E0.7877
G1 X165.110 Y82.408 E0.7931
G1 X166.122 Y83.543 E0.8302
G1 X166.232 Y83.678 E0.8345
G1 X166.719 Y84.326 E0.8542
G1 X166.809 Y84.456 E0.8581
G1 X167.585 Y85.671 E0.8933
G1 X167.680 Y85.836 E0.8980
G1 X168.326 Y87.090 E0.9324
G1 X168.380 Y87.202 E0.9354
G1 X168.684 Y87.889 E0.9538
G1 X168.733 Y88.009 E0.9569
G1 X169.358 Y89.698 E1.0009
G1 X169.401 Y89.829 E1.0043
G1 X169.655 Y90.686 E1.0261
G1 X170.707 Y91.254 E1.0553
G1 X171.302 Y91.734 E1.0740
G1 X171.988 Y92.535 E1.0997
G1 X172.469 Y93.570 E1.1276
G1 X172.679 Y94.855 E1.1594
G1 X172.730 Y94.976 E1.1626
G1 X172.907 Y95.909 E1.1858
G1 X172.919 Y96.189 E1.1926
G1 X172.956 Y96.327 E1.1961
G1 X173.027 Y96.856 E1.2091
G1 X173.041 Y100.166 E1.2899
G1 X172.973 Y100.703 E1.3031
G1 X172.944 Y100.814 E1.3059
G1 X172.936 Y101.089 E1.3127
G1 X172.767 Y102.067 E1.3369
G1 X172.750 Y102.107 E1.3380
G1 X172.738 Y102.238 E1.3412
G1 X172.541 Y103.360 E1.3690
G1 X172.294 Y104.041 E1.3867
G1 X171.802 Y104.895 E1.4107
G1 X171.052 Y105.655 E1.4368
G1 X170.861 Y105.769 E1.4422
G1 X170.747 Y106.585 E1.4623
G1 X170.709 Y106.781 E1.4672
G1 X170.366 Y108.206 E1.5030
G1 X170.335 Y108.324 E1.5060
G1 X169.781 Y110.149 E1.5525
G1 X169.748 Y110.246 E1.5550
G1 X169.131 Y111.968 E1.5997
G1 X169.093 Y112.067 E1.6023
G1 X168.612 Y113.222 E1.6328
G1 X168.568 Y113.320 E1.6355
G1 X167.997 Y114.511 E1.6677
G1 X167.920 Y114.655 E1.6717
G1 X167.153 Y115.977 E1.7090
G1 X167.051 Y116.136 E1.7136
G1 X166.509 Y116.901 E1.7365
G1 X166.403 Y117.037 E1.7407
G1 X165.798 Y117.755 E1.7636
G1 X165.680 Y117.883 E1.7679
G1 X165.008 Y118.557 E1.7911
G1 X164.889 Y118.667 E1.7951
G1 X164.152 Y119.297 E1.8188
G1 X164.038 Y119.388 E1.8223
G1 X163.220 Y119.994 E1.8472
G1 X163.084 Y120.087 E1.8512
G1 X161.546 Y121.048 E1.8955
G1 X161.419 Y121.121 E1.8991
G1 X159.475 Y122.153 E1.9528
G1 X159.383 Y122.199 E1.9553
G1 X156.936 Y123.346 E2.0213
G1 X156.477 Y123.499 E2.0331
G1 X155.641 Y123.673 E2.0539
G1 X154.629 Y123.635 E2.0787
G1 X153.643 Y123.351 E2.1037
G1 X152.855 Y122.925 E2.1256
G1 X152.505 Y122.625 E2.1368
G1 X152.118 Y122.976 E2.1496
G1 X150.558 Y123.653 E2.1911
G1 X148.857 Y123.662 E2.2326
G1 X147.343 Y123.023 E2.2728
G1 X147.257 Y122.984 E2.2751
G1 X145.839 Y122.309 E2.3134
G1 X145.787 Y122.283 E2.3148
G1 X144.428 Y121.588 E2.3521
G1 X144.366 Y121.554 E2.3538
G1 X143.386 Y121.010 E2.3812
G1 X143.287 Y120.951 E2.3840
G1 X141.904 Y120.079 E2.4239
G1 X141.776 Y119.991 E2.4277
G1 X140.968 Y119.393 E2.4523
G1 X140.865 Y119.311 E2.4555
G1 X140.308 Y118.841 E2.4733
G1 X140.198 Y118.742 E2.4769
G1 X139.349 Y117.914 E2.5058
G1 X139.211 Y117.765 E2.5108
G1 X138.587 Y117.025 E2.5344
G1 X138.462 Y116.861 E2.5395
G1 X137.755 Y115.831 E2.5700
G1 X137.675 Y115.705 E2.5736
G1 X137.294 Y115.053 E2.5921
G1 X137.239 Y114.953 E2.5948
G1 X136.726 Y113.954 E2.6222
G1 X136.677 Y113.851 E2.6250
G1 X136.155 Y112.680 E2.6563
G1 X136.112 Y112.576 E2.6591
G1 X135.491 Y110.948 E2.7016
G1 X135.457 Y110.853 E2.7041
G1 X134.998 Y109.450 E2.7401
G1 X134.977 Y109.382 E2.7419
G1 X134.575 Y107.994 E2.7772
G1 X134.547 Y107.885 E2.7799
G1 X134.290 Y106.773 E2.8078
G1 X134.262 Y106.630 E2.8113
G1 X134.124 Y105.760 E2.8328
G1 X133.884 Y105.617 E2.8396
G1 X133.061 Y104.722 E2.8693
G1 X132.615 Y103.805 E2.8942
G1 X132.436 Y103.248 E2.9085
G1 X132.260 Y102.227 E2.9338
G1 X132.248 Y102.084 E2.9373
G1 X132.227 Y102.033 E2.9387
G1 X132.014 Y100.796 E2.9693
G1 X132.026 Y100.686 E2.9720
G1 X132.019 Y100.658 E2.9727
G1 X131.956 Y100.139 E2.9855
