; G-Code generated by Simplify3D(R) Version 4.1.2
; Jul 5, 2021 at 2:50:01 PM
; Settings Summary
;   processName,Process1
;   applyToModels,monitor Power  adaptor v2
;   profileName,JR NORMAL
;   profileVersion,2021-06-28 21:15:49
;   baseProfile,Wanhao Duplicator 5S Mini
;   printMaterial,PLA
;   printQuality,0.25
;   printExtruders,
;   extruderName,Primary Extruder
;   extruderToolheadNumber,0
;   extruderDiameter,0.3
;   extruderAutoWidth,1
;   extruderWidth,0.36
;   extrusionMultiplier,0.9
;   extruderUseRetract,1
;   extruderRetractionDistance,5
;   extruderExtraRestartDistance,0
;   extruderRetractionZLift,0
;   extruderRetractionSpeed,3000
;   extruderUseCoasting,0
;   extruderCoastingDistance,1.5
;   extruderUseWipe,0
;   extruderWipeDistance,5
;   primaryExtruder,0
;   layerHeight,0.25
;   topSolidLayers,3
;   bottomSolidLayers,3
;   perimeterOutlines,3
;   printPerimetersInsideOut,1
;   startPointOption,3
;   startPointOriginX,0
;   startPointOriginY,0
;   sequentialIslands,0
;   spiralVaseMode,0
;   firstLayerHeightPercentage,150
;   firstLayerWidthPercentage,100
;   firstLayerUnderspeed,0.5
;   useRaft,0
;   raftExtruder,0
;   raftTopLayers,3
;   raftBaseLayers,2
;   raftOffset,3
;   raftSeparationDistance,0.14
;   raftTopInfill,100
;   aboveRaftSpeedMultiplier,0.3
;   useSkirt,1
;   skirtExtruder,0
;   skirtLayers,2
;   skirtOutlines,2
;   skirtOffset,4
;   usePrimePillar,0
;   primePillarExtruder,999
;   primePillarWidth,12
;   primePillarLocation,7
;   primePillarSpeedMultiplier,1
;   useOozeShield,0
;   oozeShieldExtruder,999
;   oozeShieldOffset,2
;   oozeShieldOutlines,1
;   oozeShieldSidewallShape,1
;   oozeShieldSidewallAngle,30
;   oozeShieldSpeedMultiplier,1
;   infillExtruder,0
;   internalInfillPattern,Triangular
;   externalInfillPattern,Rectilinear
;   infillPercentage,30
;   outlineOverlapPercentage,15
;   infillExtrusionWidthPercentage,150
;   minInfillLength,5
;   infillLayerInterval,1
;   internalInfillAngles,0,60,-60
;   overlapInternalInfillAngles,1
;   externalInfillAngles,45,-45
;   generateSupport,1
;   supportExtruder,0
;   supportInfillPercentage,40
;   supportExtraInflation,1
;   supportBaseLayers,0
;   denseSupportExtruder,0
;   denseSupportLayers,0
;   denseSupportInfillPercentage,70
;   supportLayerInterval,1
;   supportHorizontalPartOffset,1
;   supportUpperSeparationLayers,1
;   supportLowerSeparationLayers,1
;   supportType,0
;   supportGridSpacing,4
;   maxOverhangAngle,45
;   supportAngles,0
;   temperatureName,Primary Extruder
;   temperatureNumber,0
;   temperatureSetpointCount,2
;   temperatureSetpointLayers,1,5
;   temperatureSetpointTemperatures,220,210
;   temperatureStabilizeAtStartup,1
;   temperatureHeatedBed,0
;   fanLayers,1,2
;   fanSpeeds,100,100
;   blipFanToFullPower,0
;   adjustSpeedForCooling,1
;   minSpeedLayerTime,7
;   minCoolingSpeedSlowdown,20
;   increaseFanForCooling,0
;   minFanLayerTime,45
;   maxCoolingFanSpeed,100
;   increaseFanForBridging,0
;   bridgingFanSpeed,100
;   use5D,1
;   relativeEdistances,0
;   allowEaxisZeroing,1
;   independentExtruderAxes,0
;   includeM10123,0
;   stickySupport,1
;   applyToolheadOffsets,0
;   gcodeXoffset,0
;   gcodeYoffset,0
;   gcodeZoffset,0
;   overrideMachineDefinition,0
;   machineTypeOverride,0
;   strokeXoverride,305
;   strokeYoverride,205
;   strokeZoverride,205
;   originOffsetXoverride,0
;   originOffsetYoverride,0
;   originOffsetZoverride,0
;   homeXdirOverride,-1
;   homeYdirOverride,-1
;   homeZdirOverride,-1
;   flipXoverride,1
;   flipYoverride,-1
;   flipZoverride,1
;   toolheadOffsets,0,0|0,0|0,0|0,0|0,0|0,0
;   overrideFirmwareConfiguration,1
;   firmwareTypeOverride,RepRap (Marlin/Repetier/Sprinter)
;   GPXconfigOverride,r2
;   baudRateOverride,115200
;   overridePrinterModels,1
;   printerModelsOverride
;   startingGcode,G28 ; home all axes,G1 Z 2 ; set height for prime line,G92 E0 ; zero extruder,G1 X150 E30 F400 ; prime line
;   layerChangeGcode,
;   retractionGcode,
;   toolChangeGcode,
;   endingGcode,G28 X0 ; home X axis,M104 S0 ; turn off extruder,M84 ; disable motors
;   exportFileFormat,gcode
;   celebration,0
;   celebrationSong,Random Song
;   postProcessing,
;   defaultSpeed,2400
;   outlineUnderspeed,0.5
;   solidInfillUnderspeed,0.8
;   supportUnderspeed,0.8
;   rapidXYspeed,2400
;   rapidZspeed,900
;   minBridgingArea,50
;   bridgingExtraInflation,0
;   bridgingExtrusionMultiplier,1
;   bridgingSpeedMultiplier,1
;   useFixedBridgingAngle,0
;   fixedBridgingAngle,0
;   applyBridgingToPerimeters,0
;   filamentDiameters,1.75|3|3|3|3|3
;   filamentPricesPerKg,46|46|46|46|46|46
;   filamentDensities,1.25|1.25|1.25|1.25|1.25|1.25
;   useMinPrintHeight,0
;   minPrintHeight,0
;   useMaxPrintHeight,0
;   maxPrintHeight,0
;   useDiaphragm,0
;   diaphragmLayerInterval,20
;   robustSlicing,1
;   mergeAllIntoSolid,0
;   onlyRetractWhenCrossingOutline,1
;   retractBetweenLayers,0
;   useRetractionMinTravel,1
;   retractionMinTravel,3
;   retractWhileWiping,0
;   onlyWipeOutlines,1
;   avoidCrossingOutline,1
;   maxMovementDetourFactor,3
;   toolChangeRetractionDistance,12
;   toolChangeExtraRestartDistance,-0.5
;   toolChangeRetractionSpeed,600
;   externalThinWallType,0
;   internalThinWallType,2
;   thinWallAllowedOverlapPercentage,10
;   singleExtrusionMinLength,1
;   singleExtrusionMinPrintingWidthPercentage,50
;   singleExtrusionMaxPrintingWidthPercentage,200
;   singleExtrusionEndpointExtension,0
;   horizontalSizeCompensation,0
G90
M82
M106 S255
M104 S220 T0
M109 S220 T0
G28 ; home all axes
G1 Z 2 ; set height for prime line
G92 E0 ; zero extruder
G1 X150 E30 F400 ; prime line
; process Process1
; layer 1, Z = 0.375
T0
G92 E0.0000
G1 E-5.0000 F3000
; feature skirt
; tool H0.375 W0.360
G1 Z0.375 F900
G1 X85.432 Y53.199 F2400
G1 E0.0000 F3000
G92 E0.0000
G1 X85.926 Y52.461 E0.0449 F1200
G1 X86.209 Y52.116 E0.0674
G1 X86.837 Y51.488 E0.1123
G1 X87.090 Y51.270 E0.1292
G1 X87.559 Y50.922 E0.1586
G1 X87.841 Y50.743 E0.1755
G1 X88.625 Y50.324 E0.2204
G1 X89.037 Y50.154 E0.2429
G1 X89.935 Y49.881 E0.2904
G1 X90.363 Y49.795 E0.3124
G1 X91.152 Y49.714 E0.3525
G1 X91.187 Y49.712 E0.3542
G1 X91.254 Y49.709 E0.3576
G1 X91.388 Y49.702 E0.3644
G1 X91.412 Y49.701 E0.3656
G1 X213.571 Y49.700 E6.5364
G1 X213.794 Y49.711 E6.5476
G1 X214.622 Y49.793 E6.5897
G1 X215.060 Y49.880 E6.6122
G1 X215.963 Y50.154 E6.6599
G1 X216.375 Y50.324 E6.6824
G1 X217.208 Y50.769 E6.7301
G1 X217.579 Y51.017 E6.7526
G1 X218.309 Y51.616 E6.8003
G1 X218.624 Y51.931 E6.8229
G1 X219.223 Y52.661 E6.8705
G1 X219.471 Y53.032 E6.8931
G1 X219.916 Y53.864 E6.9408
G1 X220.086 Y54.277 E6.9633
G1 X220.360 Y55.180 E7.0110
G1 X220.447 Y55.618 E7.0335
G1 X220.529 Y56.446 E7.0756
G1 X220.540 Y56.669 E7.0868
G1 X220.540 Y148.331 E11.7171
G1 X220.529 Y148.554 E11.7283
G1 X220.447 Y149.382 E11.7704
G1 X220.360 Y149.820 E11.7929
G1 X220.103 Y150.670 E11.8378
G1 X219.982 Y150.982 E11.8547
G1 X219.733 Y151.510 E11.8842
G1 X219.568 Y151.801 E11.9010
G1 X219.074 Y152.539 E11.9459
G1 X218.791 Y152.884 E11.9684
G1 X218.124 Y153.551 E12.0161
G1 X217.779 Y153.834 E12.0387
G1 X216.994 Y154.359 E12.0863
G1 X216.601 Y154.569 E12.1089
G1 X215.729 Y154.930 E12.1566
G1 X215.302 Y155.060 E12.1791
G1 X214.431 Y155.233 E12.2240
G1 X214.098 Y155.274 E12.2409
G1 X213.627 Y155.297 E12.2647
G1 X213.516 Y155.300 E12.2703
G1 X91.429 Y155.300 E18.4374
G1 X91.206 Y155.289 E18.4487
G1 X90.378 Y155.207 E18.4907
G1 X89.940 Y155.120 E18.5133
G1 X89.037 Y154.846 E18.5609
G1 X88.625 Y154.676 E18.5835
G1 X87.792 Y154.231 E18.6312
G1 X87.421 Y153.983 E18.6537
G1 X86.734 Y153.419 E18.6986
G1 X86.492 Y153.189 E18.7155
G1 X86.100 Y152.756 E18.7450
G1 X85.895 Y152.493 E18.7618
G1 X85.432 Y151.801 E18.8039
G1 X85.267 Y151.510 E18.8208
G1 X85.018 Y150.982 E18.8503
G1 X84.897 Y150.670 E18.8672
G1 X84.640 Y149.820 E18.9120
G1 X84.553 Y149.382 E18.9346
G1 X84.471 Y148.554 E18.9766
G1 X84.460 Y148.331 E18.9879
G1 X84.460 Y56.669 E23.6181
G1 X84.471 Y56.446 E23.6294
G1 X84.553 Y55.618 E23.6714
G1 X84.640 Y55.180 E23.6939
G1 X84.897 Y54.330 E23.7388
G1 X85.018 Y54.018 E23.7557
G1 X85.267 Y53.490 E23.7852
G1 X85.432 Y53.199 E23.8021
G1 X85.739 Y53.388 F2400
G92 E0.0000
G1 X86.215 Y52.676 E0.0433 F1200
G1 X86.476 Y52.358 E0.0640
G1 X87.082 Y51.752 E0.1073
G1 X87.315 Y51.551 E0.1229
G1 X87.762 Y51.219 E0.1510
G1 X88.023 Y51.054 E0.1666
G1 X88.779 Y50.650 E0.2099
G1 X89.158 Y50.493 E0.2307
G1 X90.023 Y50.230 E0.2763
G1 X90.417 Y50.151 E0.2966
G1 X91.180 Y50.073 E0.3354
G1 X91.213 Y50.071 E0.3370
G1 X91.273 Y50.068 E0.3400
G1 X91.397 Y50.062 E0.3463
G1 X91.421 Y50.061 E0.3475
G1 X213.563 Y50.060 E6.5174
G1 X213.768 Y50.070 E6.5278
G1 X214.570 Y50.149 E6.5685
G1 X214.972 Y50.229 E6.5892
G1 X215.842 Y50.493 E6.6351
G1 X216.221 Y50.650 E6.6559
G1 X217.023 Y51.078 E6.7017
G1 X217.364 Y51.307 E6.7225
G1 X218.067 Y51.883 E6.7684
G1 X218.357 Y52.173 E6.7891
G1 X218.933 Y52.876 E6.8350
G1 X219.162 Y53.217 E6.8558
G1 X219.590 Y54.019 E6.9017
G1 X219.747 Y54.398 E6.9224
G1 X220.011 Y55.268 E6.9683
G1 X220.091 Y55.670 E6.9891
G1 X220.170 Y56.472 E7.0298
G1 X220.180 Y56.677 E7.0401
G1 X220.180 Y148.323 E11.6695
G1 X220.170 Y148.528 E11.6799
G1 X220.091 Y149.330 E11.7206
G1 X220.011 Y149.732 E11.7413
G1 X219.762 Y150.553 E11.7846
G1 X219.651 Y150.840 E11.8002
G1 X219.413 Y151.344 E11.8283
G1 X219.261 Y151.612 E11.8439
G1 X218.785 Y152.324 E11.8872
G1 X218.524 Y152.642 E11.9079
G1 X217.882 Y153.284 E11.9538
G1 X217.564 Y153.545 E11.9746
G1 X216.809 Y154.050 E12.0205
G1 X216.447 Y154.243 E12.0412
G1 X215.607 Y154.591 E12.0871
G1 X215.214 Y154.710 E12.1079
G1 X214.373 Y154.878 E12.1512
G1 X214.068 Y154.915 E12.1667
G1 X213.614 Y154.937 E12.1897
G1 X213.511 Y154.940 E12.1949
G1 X91.437 Y154.940 E18.3613
G1 X91.232 Y154.930 E18.3716
G1 X90.430 Y154.851 E18.4123
G1 X90.028 Y154.771 E18.4331
G1 X89.158 Y154.507 E18.4790
G1 X88.779 Y154.350 E18.4997
G1 X87.977 Y153.922 E18.5456
G1 X87.636 Y153.693 E18.5664
G1 X86.973 Y153.150 E18.6097
G1 X86.750 Y152.937 E18.6253
G1 X86.376 Y152.524 E18.6534
G1 X86.187 Y152.282 E18.6689
G1 X85.739 Y151.612 E18.7096
G1 X85.587 Y151.344 E18.7252
G1 X85.349 Y150.840 E18.7533
G1 X85.238 Y150.553 E18.7689
G1 X84.989 Y149.732 E18.8122
G1 X84.909 Y149.330 E18.8330
G1 X84.830 Y148.528 E18.8737
G1 X84.820 Y148.323 E18.8840
G1 X84.820 Y56.677 E23.5134
G1 X84.830 Y56.472 E23.5237
G1 X84.909 Y55.670 E23.5645
G1 X84.989 Y55.268 E23.5852
G1 X85.238 Y54.447 E23.6285
G1 X85.349 Y54.160 E23.6441
G1 X85.587 Y53.656 E23.6722
G1 X85.739 Y53.388 E23.6878
G92 E0.0000
G1 E-5.0000 F3000
; feature inner perimeter
G1 X89.459 Y55.668 F2400
G1 X89.549 Y55.518
G1 X90.177 Y55.869
G1 E0.0000 F3000
G92 E0.0000
G1 X90.273 Y55.740 E0.0081 F900
G1 X90.381 Y55.621 E0.0163
G1 X90.500 Y55.513 E0.0244
G1 X90.629 Y55.417 E0.0325
G1 X90.767 Y55.335 E0.0406
G1 X90.913 Y55.266 E0.0487
G1 X91.064 Y55.212 E0.0569
G1 X91.220 Y55.173 E0.0650
G1 X91.379 Y55.149 E0.0731
G1 X91.548 Y55.141 E0.0816
G1 X213.438 Y55.140 E6.2388
G1 X213.621 Y55.149 E6.2480
G1 X213.780 Y55.173 E6.2561
G1 X213.936 Y55.212 E6.2643
G1 X214.087 Y55.266 E6.2724
G1 X214.233 Y55.335 E6.2805
G1 X214.371 Y55.417 E6.2886
G1 X214.500 Y55.513 E6.2968
G1 X214.619 Y55.621 E6.3049
G1 X214.727 Y55.740 E6.3130
G1 X214.823 Y55.869 E6.3211
G1 X214.905 Y56.007 E6.3293
G1 X214.974 Y56.153 E6.3374
G1 X215.028 Y56.304 E6.3455
G1 X215.067 Y56.460 E6.3536
G1 X215.091 Y56.619 E6.3618
G1 X215.100 Y56.802 E6.3710
G1 X215.100 Y148.198 E10.9877
G1 X215.091 Y148.381 E10.9970
G1 X215.067 Y148.540 E11.0051
G1 X215.028 Y148.696 E11.0132
G1 X214.974 Y148.847 E11.0214
G1 X214.905 Y148.993 E11.0295
G1 X214.823 Y149.130 E11.0376
G1 X214.727 Y149.260 E11.0457
G1 X214.619 Y149.379 E11.0539
G1 X214.500 Y149.487 E11.0620
G1 X214.371 Y149.583 E11.0701
G1 X214.233 Y149.665 E11.0782
G1 X214.087 Y149.734 E11.0864
G1 X213.936 Y149.788 E11.0945
G1 X213.780 Y149.827 E11.1026
G1 X213.621 Y149.851 E11.1107
G1 X213.438 Y149.860 E11.1200
G1 X91.562 Y149.860 E17.2764
G1 X91.379 Y149.851 E17.2856
G1 X91.220 Y149.827 E17.2938
G1 X91.064 Y149.788 E17.3019
G1 X90.913 Y149.734 E17.3100
G1 X90.767 Y149.665 E17.3181
G1 X90.629 Y149.583 E17.3263
G1 X90.500 Y149.487 E17.3344
G1 X90.381 Y149.379 E17.3425
G1 X90.273 Y149.260 E17.3506
G1 X90.177 Y149.130 E17.3588
G1 X90.095 Y148.993 E17.3669
G1 X90.026 Y148.847 E17.3750
G1 X89.972 Y148.696 E17.3831
G1 X89.933 Y148.540 E17.3913
G1 X89.909 Y148.381 E17.3994
G1 X89.900 Y148.198 E17.4086
G1 X89.900 Y142.236 E17.7098
G1 X90.180 Y142.198 E17.7240
G1 X90.266 Y142.505 E17.7402
G1 X90.392 Y142.822 E17.7574
G1 X90.552 Y143.124 E17.7746
G1 X90.743 Y143.406 E17.7918
G1 X90.964 Y143.666 E17.8091
G1 X91.211 Y143.900 E17.8263
G1 X91.483 Y144.107 E17.8435
G1 X91.775 Y144.282 E17.8607
G1 X92.084 Y144.426 E17.8780
G1 X92.408 Y144.534 E17.8952
G1 X92.741 Y144.608 E17.9124
G1 X93.080 Y144.645 E17.9296
G1 X93.420 Y144.645 E17.9469
G1 X93.759 Y144.608 E17.9641
G1 X94.092 Y144.534 E17.9813
G1 X94.416 Y144.426 E17.9985
G1 X94.725 Y144.282 E18.0158
G1 X95.017 Y144.107 E18.0330
G1 X95.289 Y143.900 E18.0502
G1 X95.536 Y143.666 E18.0674
G1 X95.757 Y143.406 E18.0847
G1 X95.948 Y143.124 E18.1019
G1 X96.108 Y142.822 E18.1191
G1 X96.234 Y142.506 E18.1363
G1 X96.326 Y142.177 E18.1536
G1 X96.381 Y141.840 E18.1708
G1 X96.399 Y141.500 E18.1880
G1 X96.381 Y141.160 E18.2052
G1 X96.326 Y140.823 E18.2225
G1 X96.234 Y140.494 E18.2397
G1 X96.108 Y140.178 E18.2569
G1 X95.948 Y139.876 E18.2741
G1 X95.757 Y139.594 E18.2914
G1 X95.536 Y139.334 E18.3086
G1 X95.289 Y139.100 E18.3258
G1 X95.017 Y138.893 E18.3430
G1 X94.725 Y138.718 E18.3603
G1 X94.416 Y138.574 E18.3775
G1 X94.092 Y138.466 E18.3947
G1 X93.759 Y138.392 E18.4119
G1 X93.420 Y138.355 E18.4292
G1 X93.080 Y138.355 E18.4464
G1 X92.740 Y138.392 E18.4636
G1 X92.408 Y138.466 E18.4808
G1 X92.084 Y138.574 E18.4981
G1 X91.775 Y138.718 E18.5153
G1 X91.483 Y138.893 E18.5325
G1 X91.211 Y139.100 E18.5497
G1 X90.964 Y139.334 E18.5670
G1 X90.743 Y139.594 E18.5842
G1 X90.552 Y139.876 E18.6014
G1 X90.392 Y140.178 E18.6186
G1 X90.266 Y140.495 E18.6359
G1 X90.180 Y140.802 E18.6520
G1 X89.900 Y140.764 E18.6663
G1 X89.900 Y64.236 E22.5320
G1 X90.180 Y64.198 E22.5462
G1 X90.266 Y64.505 E22.5624
G1 X90.392 Y64.822 E22.5796
G1 X90.552 Y65.124 E22.5968
G1 X90.743 Y65.406 E22.6140
G1 X90.964 Y65.666 E22.6313
G1 X91.211 Y65.900 E22.6485
G1 X91.483 Y66.107 E22.6657
G1 X91.775 Y66.282 E22.6829
G1 X92.084 Y66.426 E22.7002
G1 X92.408 Y66.534 E22.7174
G1 X92.740 Y66.608 E22.7346
G1 X93.080 Y66.645 E22.7518
G1 X93.421 Y66.645 E22.7691
G1 X93.759 Y66.608 E22.7863
G1 X94.092 Y66.534 E22.8035
G1 X94.416 Y66.426 E22.8207
G1 X94.725 Y66.282 E22.8380
G1 X95.017 Y66.107 E22.8552
G1 X95.289 Y65.900 E22.8724
G1 X95.536 Y65.666 E22.8896
G1 X95.757 Y65.406 E22.9069
G1 X95.948 Y65.124 E22.9241
G1 X96.108 Y64.822 E22.9413
G1 X96.234 Y64.506 E22.9585
G1 X96.326 Y64.177 E22.9758
G1 X96.381 Y63.840 E22.9930
G1 X96.399 Y63.500 E23.0102
G1 X96.381 Y63.160 E23.0274
G1 X96.326 Y62.823 E23.0447
G1 X96.234 Y62.494 E23.0619
G1 X96.108 Y62.178 E23.0791
G1 X95.948 Y61.876 E23.0963
G1 X95.757 Y61.594 E23.1135
G1 X95.536 Y61.334 E23.1308
G1 X95.289 Y61.100 E23.1480
G1 X95.017 Y60.893 E23.1652
G1 X94.725 Y60.718 E23.1824
G1 X94.416 Y60.574 E23.1997
G1 X94.092 Y60.466 E23.2169
G1 X93.760 Y60.392 E23.2341
G1 X93.421 Y60.355 E23.2513
G1 X93.080 Y60.355 E23.2686
G1 X92.740 Y60.392 E23.2858
G1 X92.408 Y60.466 E23.3030
G1 X92.084 Y60.574 E23.3202
G1 X91.775 Y60.718 E23.3375
G1 X91.483 Y60.893 E23.3547
G1 X91.211 Y61.100 E23.3719
G1 X90.964 Y61.334 E23.3892
G1 X90.743 Y61.594 E23.4064
G1 X90.552 Y61.876 E23.4236
G1 X90.392 Y62.178 E23.4408
G1 X90.265 Y62.497 E23.4582
G1 X90.181 Y62.804 E23.4743
G1 X89.900 Y62.766 E23.4886
G1 X89.900 Y56.802 E23.7899
G1 X89.909 Y56.619 E23.7991
G1 X89.933 Y56.460 E23.8072
G1 X89.972 Y56.304 E23.8154
G1 X90.026 Y56.153 E23.8235
G1 X90.095 Y56.007 E23.8316
G1 X90.177 Y55.869 E23.8397
G1 X89.878 Y55.669 F2400
G92 E0.0000
G1 X89.994 Y55.512 E0.0099 F900
G1 X90.126 Y55.366 E0.0198
G1 X90.272 Y55.235 E0.0297
G1 X90.429 Y55.118 E0.0396
G1 X90.598 Y55.017 E0.0496
