; G-Code generated by Simplify3D(R) Version 4.1.2
; Apr 26, 2021 at 9:05:04 PM
; Settings Summary
;   processName,Process1
;   applyToModels,PanelDue7iFront
;   profileName,NORMAL (modified)
;   profileVersion,2021-04-03 23:45:23
;   baseProfile,Wanhao Duplicator 5S Mini
;   printMaterial,PLA
;   printQuality,0.25
;   printExtruders,
;   extruderName,Primary Extruder
;   extruderToolheadNumber,0
;   extruderDiameter,0.3
;   extruderAutoWidth,1
;   extruderWidth,0.36
;   extrusionMultiplier,0.9
;   extruderUseRetract,1
;   extruderRetractionDistance,5
;   extruderExtraRestartDistance,0
;   extruderRetractionZLift,0
;   extruderRetractionSpeed,3000
;   extruderUseCoasting,0
;   extruderCoastingDistance,1.5
;   extruderUseWipe,0
;   extruderWipeDistance,5
;   primaryExtruder,0
;   layerHeight,0.25
;   topSolidLayers,3
;   bottomSolidLayers,3
;   perimeterOutlines,3
;   printPerimetersInsideOut,1
;   startPointOption,3
;   startPointOriginX,0
;   startPointOriginY,0
;   sequentialIslands,0
;   spiralVaseMode,0
;   firstLayerHeightPercentage,150
;   firstLayerWidthPercentage,100
;   firstLayerUnderspeed,0.5
;   useRaft,0
;   raftExtruder,0
;   raftTopLayers,3
;   raftBaseLayers,2
;   raftOffset,3
;   raftSeparationDistance,0.14
;   raftTopInfill,100
;   aboveRaftSpeedMultiplier,0.3
;   useSkirt,1
;   skirtExtruder,0
;   skirtLayers,2
;   skirtOutlines,2
;   skirtOffset,4
;   usePrimePillar,0
;   primePillarExtruder,999
;   primePillarWidth,12
;   primePillarLocation,7
;   primePillarSpeedMultiplier,1
;   useOozeShield,0
;   oozeShieldExtruder,999
;   oozeShieldOffset,2
;   oozeShieldOutlines,1
;   oozeShieldSidewallShape,1
;   oozeShieldSidewallAngle,30
;   oozeShieldSpeedMultiplier,1
;   infillExtruder,0
;   internalInfillPattern,Triangular
;   externalInfillPattern,Rectilinear
;   infillPercentage,30
;   outlineOverlapPercentage,15
;   infillExtrusionWidthPercentage,150
;   minInfillLength,5
;   infillLayerInterval,1
;   internalInfillAngles,0,60,-60
;   overlapInternalInfillAngles,1
;   externalInfillAngles,45,-45
;   generateSupport,1
;   supportExtruder,0
;   supportInfillPercentage,40
;   supportExtraInflation,1
;   supportBaseLayers,0
;   denseSupportExtruder,0
;   denseSupportLayers,0
;   denseSupportInfillPercentage,70
;   supportLayerInterval,1
;   supportHorizontalPartOffset,1
;   supportUpperSeparationLayers,1
;   supportLowerSeparationLayers,1
;   supportType,0
;   supportGridSpacing,4
;   maxOverhangAngle,45
;   supportAngles,0
;   temperatureName,Primary Extruder
;   temperatureNumber,0
;   temperatureSetpointCount,2
;   temperatureSetpointLayers,1,5
;   temperatureSetpointTemperatures,220,210
;   temperatureStabilizeAtStartup,1
;   temperatureHeatedBed,0
;   fanLayers,1,2
;   fanSpeeds,100,100
;   blipFanToFullPower,0
;   adjustSpeedForCooling,1
;   minSpeedLayerTime,7
;   minCoolingSpeedSlowdown,20
;   increaseFanForCooling,0
;   minFanLayerTime,45
;   maxCoolingFanSpeed,100
;   increaseFanForBridging,0
;   bridgingFanSpeed,100
;   use5D,1
;   relativeEdistances,0
;   allowEaxisZeroing,1
;   independentExtruderAxes,0
;   includeM10123,0
;   stickySupport,1
;   applyToolheadOffsets,0
;   gcodeXoffset,0
;   gcodeYoffset,0
;   gcodeZoffset,0
;   overrideMachineDefinition,0
;   machineTypeOverride,0
;   strokeXoverride,305
;   strokeYoverride,205
;   strokeZoverride,205
;   originOffsetXoverride,0
;   originOffsetYoverride,0
;   originOffsetZoverride,0
;   homeXdirOverride,-1
;   homeYdirOverride,-1
;   homeZdirOverride,-1
;   flipXoverride,1
;   flipYoverride,-1
;   flipZoverride,1
;   toolheadOffsets,0,0|0,0|0,0|0,0|0,0|0,0
;   overrideFirmwareConfiguration,1
;   firmwareTypeOverride,RepRap (Marlin/Repetier/Sprinter)
;   GPXconfigOverride,r2
;   baudRateOverride,115200
;   overridePrinterModels,1
;   printerModelsOverride
;   startingGcode,G28 ; home all axes,G1 Z 2 ; set height for prime line,G92 E0 ; zero extruder,G1 X150 E30 F400 ; prime line
;   layerChangeGcode,
;   retractionGcode,
;   toolChangeGcode,
;   endingGcode,G28 X0 ; home X axis,M104 S0 ; turn off extruder,M84 ; disable motors
;   exportFileFormat,gcode
;   celebration,0
;   celebrationSong,Random Song
;   postProcessing,
;   defaultSpeed,2400
;   outlineUnderspeed,0.5
;   solidInfillUnderspeed,0.8
;   supportUnderspeed,0.8
;   rapidXYspeed,2400
;   rapidZspeed,900
;   minBridgingArea,50
;   bridgingExtraInflation,0
;   bridgingExtrusionMultiplier,1
;   bridgingSpeedMultiplier,1
;   useFixedBridgingAngle,0
;   fixedBridgingAngle,0
;   applyBridgingToPerimeters,0
;   filamentDiameters,1.75|3|3|3|3|3
;   filamentPricesPerKg,46|46|46|46|46|46
;   filamentDensities,1.25|1.25|1.25|1.25|1.25|1.25
;   useMinPrintHeight,0
;   minPrintHeight,0
;   useMaxPrintHeight,0
;   maxPrintHeight,0
;   useDiaphragm,0
;   diaphragmLayerInterval,20
;   robustSlicing,1
;   mergeAllIntoSolid,0
;   onlyRetractWhenCrossingOutline,1
;   retractBetweenLayers,0
;   useRetractionMinTravel,1
;   retractionMinTravel,3
;   retractWhileWiping,0
;   onlyWipeOutlines,1
;   avoidCrossingOutline,1
;   maxMovementDetourFactor,3
;   toolChangeRetractionDistance,12
;   toolChangeExtraRestartDistance,-0.5
;   toolChangeRetractionSpeed,600
;   externalThinWallType,0
;   internalThinWallType,2
;   thinWallAllowedOverlapPercentage,10
;   singleExtrusionMinLength,1
;   singleExtrusionMinPrintingWidthPercentage,50
;   singleExtrusionMaxPrintingWidthPercentage,200
;   singleExtrusionEndpointExtension,0
;   horizontalSizeCompensation,0
G90
M82
M106 S255
M104 S220 T0
M109 S220 T0
G28 ; home all axes
G1 Z 2 ; set height for prime line
G92 E0 ; zero extruder
G1 X150 E30 F400 ; prime line
; process Process1
; layer 1, Z = 0.375
T0
G92 E0.0000
G1 E-5.0000 F3000
; feature skirt
; tool H0.375 W0.360
G1 Z0.375 F900
G1 X28.928 Y59.151 F2400
G1 E0.0000 F3000
G92 E0.0000
G1 X30.597 Y58.460 E0.0912 F1200
G1 X226.403 Y58.460 E9.9822
G1 X228.072 Y59.151 E10.0734
G1 X229.849 Y60.928 E10.2003
G1 X230.540 Y62.597 E10.2916
G1 X230.540 Y170.403 E15.7373
G1 X229.849 Y172.072 E15.8285
G1 X228.072 Y173.849 E15.9555
G1 X226.403 Y174.540 E16.0467
G1 X30.597 Y174.540 E25.9376
G1 X28.928 Y173.849 E26.0288
G1 X27.151 Y172.072 E26.1558
G1 X26.460 Y170.403 E26.2470
G1 X26.460 Y62.597 E31.6927
G1 X27.151 Y60.928 E31.7840
G1 X28.928 Y59.151 E31.9109
G1 X29.132 Y59.456 F2400
G92 E0.0000
G1 X30.669 Y58.820 E0.0840 F1200
G1 X226.331 Y58.820 E9.9677
G1 X227.868 Y59.456 E10.0517
G1 X229.544 Y61.132 E10.1714
G1 X230.180 Y62.669 E10.2554
G1 X230.180 Y170.331 E15.6939
G1 X229.544 Y171.868 E15.7779
G1 X227.868 Y173.544 E15.8976
G1 X226.331 Y174.180 E15.9816
G1 X30.669 Y174.180 E25.8653
G1 X29.132 Y173.544 E25.9493
G1 X27.456 Y171.868 E26.0690
G1 X26.820 Y170.331 E26.1530
G1 X26.820 Y62.669 E31.5915
G1 X27.456 Y61.132 E31.6755
G1 X29.132 Y59.456 E31.7952
G92 E0.0000
G1 E-5.0000 F3000
; feature inner perimeter
G1 X31.575 Y63.492 F2400
G1 X31.746 Y63.492
G1 X32.212 Y64.213
G1 E0.0000 F3000
G92 E0.0000
G1 X33.465 Y64.213 E0.0633 F900
G1 X33.540 Y64.432 E0.0750
G1 X32.913 Y64.913 E0.1149
G1 X32.432 Y65.540 E0.1548
G1 X32.212 Y65.465 E0.1666
G1 X32.212 Y64.213 E0.2298
G1 X37.460 Y64.432 F2400
G92 E0.0000
G1 X37.535 Y64.213 E0.0117 F900
G1 X37.907 Y64.213 E0.0306
G1 X37.907 Y64.775 E0.0590
G1 X37.460 Y64.432 E0.0875
G1 X37.535 Y65.397 F2400
G1 X37.573 Y65.427
G1 X38.039 Y66.034
G1 X38.331 Y66.741
G1 X38.432 Y67.500
G1 X38.331 Y68.259
G1 X38.039 Y68.966
G1 X37.831 Y69.237
G1 X37.907 Y70.224
G92 E0.0000
G1 X37.907 Y162.776 E4.6751 F900
G1 X37.328 Y162.332 E4.7120
G1 X36.447 Y161.967 E4.7602
G1 X35.500 Y161.842 E4.8084
G1 X34.553 Y161.967 E4.8566
G1 X33.672 Y162.332 E4.9048
G1 X32.913 Y162.913 E4.9531
G1 X32.432 Y163.540 E4.9930
G1 X32.212 Y163.465 E5.0047
G1 X32.212 Y69.535 E9.7495
G1 X32.432 Y69.460 E9.7613
G1 X32.913 Y70.087 E9.8012
G1 X33.672 Y70.668 E9.8495
G1 X34.553 Y71.033 E9.8976
G1 X35.500 Y71.158 E9.9459
G1 X36.447 Y71.033 E9.9941
G1 X37.328 Y70.668 E10.0423
G1 X37.907 Y70.224 E10.0792
G1 X38.627 Y138.961 F2400
G1 X38.627 Y163.493
G1 X38.884 Y163.493
G1 X38.892 Y164.213
G92 E0.0000
G1 X205.213 Y164.213 E8.4015 F900
G1 X205.213 Y64.213 E13.4529
G1 X207.478 Y64.213 E13.5673
G1 X207.552 Y64.434 E13.5791
G1 X206.917 Y64.908 E13.6192
G1 X206.332 Y65.672 E13.6677
G1 X205.967 Y66.553 E13.7159
G1 X205.842 Y67.500 E13.7642
G1 X205.967 Y68.447 E13.8124
G1 X206.332 Y69.328 E13.8606
G1 X206.913 Y70.087 E13.9089
G1 X207.672 Y70.668 E13.9572
G1 X208.553 Y71.033 E14.0054
G1 X209.500 Y71.158 E14.0536
G1 X210.447 Y71.033 E14.1018
G1 X211.328 Y70.668 E14.1500
G1 X212.087 Y70.087 E14.1983
G1 X212.668 Y69.328 E14.2466
G1 X213.033 Y68.447 E14.2948
G1 X213.158 Y67.500 E14.3430
G1 X213.033 Y66.553 E14.3913
G1 X212.668 Y65.672 E14.4394
G1 X212.087 Y64.913 E14.4877
G1 X211.460 Y64.432 E14.5276
G1 X211.535 Y64.213 E14.5394
G1 X224.787 Y64.213 E15.2088
G1 X224.787 Y141.123 E19.0939
G1 X224.519 Y141.170 E19.1076
G1 X224.122 Y140.071 E19.1667
G1 X223.280 Y138.698 E19.2480
G1 X222.176 Y137.526 E19.3293
G1 X220.859 Y136.602 E19.4106
G1 X219.382 Y135.962 E19.4919
G1 X217.805 Y135.636 E19.5733
G1 X216.195 Y135.636 E19.6546
G1 X214.618 Y135.962 E19.7359
G1 X213.141 Y136.602 E19.8172
G1 X211.824 Y137.526 E19.8985
G1 X210.720 Y138.698 E19.9799
G1 X209.878 Y140.071 E20.0612
G1 X209.331 Y141.584 E20.1425
G1 X209.102 Y143.177 E20.2238
G1 X209.200 Y144.784 E20.3051
G1 X209.623 Y146.338 E20.3864
G1 X210.350 Y147.773 E20.4677
G1 X211.100 Y148.714 E20.5285
G1 X211.100 Y156.400 E20.9168
G1 X214.400 Y156.400 E21.0835
G1 X214.400 Y148.787 E21.4680
G1 X217.000 Y146.187 E21.6538
G1 X219.600 Y148.787 E21.8395
G1 X219.600 Y156.400 E22.2241
G1 X222.900 Y156.400 E22.3908
G1 X222.900 Y148.714 E22.7790
G1 X223.650 Y147.773 E22.8398
G1 X224.377 Y146.338 E22.9211
G1 X224.506 Y145.863 E22.9459
G1 X224.787 Y145.901 E22.9603
G1 X224.787 Y168.787 E24.1164
G1 X211.535 Y168.787 E24.7858
G1 X211.460 Y168.568 E24.7975
G1 X212.087 Y168.087 E24.8374
G1 X212.668 Y167.328 E24.8857
G1 X213.033 Y166.447 E24.9339
G1 X213.158 Y165.500 E24.9822
G1 X213.033 Y164.553 E25.0304
G1 X212.668 Y163.672 E25.0786
G1 X212.087 Y162.913 E25.1269
G1 X211.328 Y162.332 E25.1751
G1 X210.447 Y161.967 E25.2233
G1 X209.500 Y161.842 E25.2716
G1 X208.553 Y161.967 E25.3198
G1 X207.672 Y162.332 E25.3680
G1 X206.913 Y162.913 E25.4163
G1 X206.332 Y163.672 E25.4646
G1 X205.967 Y164.553 E25.5128
G1 X205.842 Y165.500 E25.5610
G1 X205.967 Y166.447 E25.6092
G1 X206.332 Y167.328 E25.6574
G1 X206.913 Y168.087 E25.7057
G1 X207.540 Y168.568 E25.7456
G1 X207.465 Y168.787 E25.7573
G1 X37.535 Y168.787 E34.3412
G1 X37.460 Y168.568 E34.3529
G1 X38.087 Y168.087 E34.3928
G1 X38.668 Y167.328 E34.4411
G1 X39.033 Y166.447 E34.4893
G1 X39.158 Y165.500 E34.5375
G1 X39.033 Y164.553 E34.5858
G1 X38.892 Y164.213 E34.6044
G1 X38.309 Y164.687 F2400
G1 X38.331 Y164.741
G1 X38.432 Y165.500
G1 X38.331 Y166.259
G1 X38.039 Y166.966
G1 X37.573 Y167.573
G1 X36.966 Y168.039
G1 X36.259 Y168.331
G1 X35.500 Y168.432
G1 X34.741 Y168.331
G1 X34.137 Y168.082
G1 X33.540 Y168.568
G92 E0.0000
G1 X33.465 Y168.787 E0.0117 F900
G1 X32.212 Y168.787 E0.0750
G1 X32.212 Y167.535 E0.1383
G1 X32.432 Y167.460 E0.1500
G1 X32.913 Y168.087 E0.1899
G1 X33.540 Y168.568 E0.2298
G92 E0.0000
G1 E-5.0000 F3000
G1 X34.999 Y168.365 F2400
G1 X35.500 Y168.432
G1 X36.259 Y168.331
G1 X36.769 Y168.120
G1 X70.189 Y163.493
G1 X204.493 Y163.493
G1 X204.493 Y144.894
G1 X211.918 Y143.866
G1 E0.0000 F3000
G92 E0.0000
G1 X211.961 Y142.753 E0.0563 F900
G1 X212.295 Y141.481 E0.1227
G1 X214.313 Y143.500 E0.2669
G1 X212.337 Y145.476 E0.4081
G1 X212.119 Y144.961 E0.4363
G1 X211.918 Y143.866 E0.4925
G1 X213.360 Y141.528 F2400
G1 X212.856 Y141.025
G1 X214.525 Y139.356
G1 X214.633 Y139.464
G1 X215.021 Y138.835
G92 E0.0000
G1 X215.356 Y138.678 E0.0187 F900
G1 X216.443 Y138.436 E0.0749
G1 X217.557 Y138.436 E0.1312
G1 X218.644 Y138.678 E0.1874
G1 X218.979 Y138.835 E0.2061
G1 X217.000 Y140.813 E0.3474
G1 X215.021 Y138.835 E0.4888
G92 E0.0000
G1 E-5.0000 F3000
G1 X219.687 Y143.500 F2400
G1 E0.0000 F3000
G92 E0.0000
G1 X221.705 Y141.481 E0.1442 F900
G1 X222.039 Y142.753 E0.2106
G1 X222.082 Y143.866 E0.2669
G1 X221.881 Y144.961 E0.3231
G1 X221.663 Y145.476 E0.3514
G1 X219.687 Y143.500 E0.4925
G1 X219.178 Y143.500 F2400
G92 E0.0000
G1 X221.767 Y140.910 E0.1850 F900
G1 X222.095 Y141.546 E0.2211
G1 X222.398 Y142.700 E0.2814
G1 X222.443 Y143.892 E0.3416
G1 X222.228 Y145.065 E0.4019
G1 X221.786 Y146.109 E0.4591
G1 X219.178 Y143.500 E0.6455
G92 E0.0000
G1 E-5.0000 F3000
G1 X217.000 Y141.322 F2400
G1 E0.0000 F3000
G92 E0.0000
G1 X214.404 Y138.726 E0.1855 F900
G1 X215.239 Y138.335 E0.2320
G1 X216.403 Y138.076 E0.2923
G1 X217.597 Y138.076 E0.3526
G1 X218.761 Y138.335 E0.4128
G1 X219.596 Y138.726 E0.4594
G1 X217.000 Y141.322 E0.6449
G92 E0.0000
G1 E-5.0000 F3000
G1 X214.822 Y143.500 F2400
G1 E0.0000 F3000
G92 E0.0000
G1 X212.214 Y146.109 E0.1863 F900
G1 X211.772 Y145.065 E0.2436
G1 X211.557 Y143.892 E0.3038
G1 X211.602 Y142.700 E0.3641
G1 X211.905 Y141.546 E0.4243
G1 X212.233 Y140.910 E0.4605
G1 X214.822 Y143.500 E0.6455
G1 X213.238 Y141.406 F2400
G1 X212.856 Y141.025
G1 X212.909 Y140.972
G1 X212.690 Y140.682
G92 E0.0000
G1 X212.461 Y140.474 E0.0156 F900
G1 X213.215 Y139.569 E0.0751
G1 X213.913 Y139.031 E0.1196
G1 X214.113 Y139.259 E0.1350
G1 X212.690 Y140.682 E0.2367
G1 X213.324 Y140.557 F2400
G1 X214.525 Y139.356
G1 X215.329 Y140.160
G1 X219.887 Y139.259
G92 E0.0000
G1 X220.087 Y139.031 E0.0153 F900
G1 X220.785 Y139.569 E0.0599
G1 X221.539 Y140.474 E0.1193
G1 X221.310 Y140.682 E0.1350
G1 X219.887 Y139.259 E0.2367
G92 E0.0000
G1 E-5.0000 F3000
G1 X219.694 Y139.575 F2400
G1 X221.144 Y141.025
G1 X218.669 Y143.500
G1 X221.144 Y145.975
G1 X219.475 Y147.644
G1 X217.000 Y145.169
G1 X215.133 Y147.036
G1 X204.852 Y163.852
G1 E0.0000 F3000
G92 E0.0000
G1 X204.852 Y63.852 E5.0514 F900
G1 X225.148 Y63.852 E6.0766
G1 X225.148 Y169.148 E11.3954
G1 X31.852 Y169.148 E21.1595
G1 X31.852 Y63.852 E26.4783
G1 X38.267 Y63.852 E26.8024
G1 X38.267 Y65.379 E26.8795
G1 X38.048 Y65.453 E26.8912
G1 X37.830 Y65.170 E26.9093
G1 X37.147 Y64.646 E26.9527
G1 X36.353 Y64.318 E26.9962
G1 X35.500 Y64.205 E27.0396
G1 X34.647 Y64.318 E27.0831
G1 X33.853 Y64.646 E27.1265
G1 X33.170 Y65.170 E27.1700
G1 X32.646 Y65.853 E27.2134
G1 X32.318 Y66.647 E27.2568
G1 X32.205 Y67.500 E27.3003
G1 X32.318 Y68.353 E27.3438
G1 X32.646 Y69.147 E27.3872
G1 X33.170 Y69.830 E27.4306
G1 X33.853 Y70.354 E27.4741
G1 X34.647 Y70.682 E27.5175
G1 X35.500 Y70.795 E27.5610
G1 X36.353 Y70.682 E27.6044
G1 X37.147 Y70.354 E27.6479
G1 X37.830 Y69.830 E27.6913
G1 X38.048 Y69.547 E27.7094
G1 X38.267 Y69.621 E27.7211
G1 X38.267 Y163.379 E32.4572
G1 X38.048 Y163.453 E32.4689
G1 X37.830 Y163.170 E32.4870
G1 X37.147 Y162.646 E32.5304
G1 X36.353 Y162.318 E32.5738
G1 X35.500 Y162.205 E32.6173
G1 X34.647 Y162.318 E32.6608
G1 X33.853 Y162.646 E32.7042
G1 X33.170 Y163.170 E32.7476
G1 X32.646 Y163.853 E32.7911
G1 X32.318 Y164.647 E32.8345
G1 X32.205 Y165.500 E32.8780
G1 X32.318 Y166.353 E32.9214
G1 X32.646 Y167.147 E32.9649
G1 X33.170 Y167.830 E33.0083
G1 X33.853 Y168.354 E33.0518
G1 X34.647 Y168.682 E33.0952
G1 X35.500 Y168.795 E33.1387
G1 X36.353 Y168.682 E33.1821
G1 X37.147 Y168.354 E33.2255
G1 X37.830 Y167.830 E33.2690
G1 X38.354 Y167.147 E33.3125
G1 X38.682 Y166.353 E33.3559
G1 X38.795 Y165.500 E33.3994
G1 X38.682 Y164.647 E33.4428
G1 X38.354 Y163.852 E33.4863
G1 X204.852 Y163.852 E41.8967
; feature outer perimeter
G1 X206.813 Y164.391 F2400
G1 X206.961 Y164.034
G1 X207.427 Y163.427
G1 X208.034 Y162.961
G1 X208.741 Y162.669
G1 X209.500 Y162.568
G1 X210.259 Y162.669
G1 X210.966 Y162.961
G1 X211.573 Y163.427
G1 X212.039 Y164.034
G1 X212.331 Y164.741
G1 X212.432 Y165.500
G1 X212.376 Y165.921
G1 X225.425 Y169.507
G92 E0.0000
G1 X31.575 Y169.507 E9.7922 F600
G1 X31.492 Y169.425 E9.7980
G1 X31.492 Y63.575 E15.1449
G1 X31.575 Y63.492 E15.1508
G1 X225.425 Y63.492 E24.9430
G1 X225.507 Y63.575 E24.9488
G1 X225.507 Y169.425 E30.2958
G1 X225.425 Y169.507 E30.3016
; feature inner perimeter
G1 X212.682 Y166.353 F2400
G92 E0.0000
G1 X212.795 Y165.500 E0.0435 F900
