; G-Code generated by Simplify3D(R) Version 4.1.2
; Dec 2, 2020 at 8:08:20 PM
; Settings Summary
;   processName,Process1
;   applyToModels,satern rocket top mount v2
;   profileName,NORMAL (modified)
;   profileVersion,2020-11-20 15:29:24
;   baseProfile,Wanhao Duplicator 5S Mini
;   printMaterial,PLA
;   printQuality,0.25
;   printExtruders,
;   extruderName,Primary Extruder
;   extruderToolheadNumber,0
;   extruderDiameter,0.3
;   extruderAutoWidth,1
;   extruderWidth,0.36
;   extrusionMultiplier,0.87
;   extruderUseRetract,1
;   extruderRetractionDistance,7.5
;   extruderExtraRestartDistance,0
;   extruderRetractionZLift,0
;   extruderRetractionSpeed,3000
;   extruderUseCoasting,1
;   extruderCoastingDistance,3
;   extruderUseWipe,0
;   extruderWipeDistance,5
;   primaryExtruder,0
;   layerHeight,0.25
;   topSolidLayers,3
;   bottomSolidLayers,3
;   perimeterOutlines,4
;   printPerimetersInsideOut,1
;   startPointOption,3
;   startPointOriginX,0
;   startPointOriginY,0
;   sequentialIslands,0
;   spiralVaseMode,0
;   firstLayerHeightPercentage,150
;   firstLayerWidthPercentage,100
;   firstLayerUnderspeed,0.5
;   useRaft,0
;   raftExtruder,0
;   raftTopLayers,3
;   raftBaseLayers,2
;   raftOffset,3
;   raftSeparationDistance,0.14
;   raftTopInfill,100
;   aboveRaftSpeedMultiplier,0.3
;   useSkirt,1
;   skirtExtruder,0
;   skirtLayers,2
;   skirtOutlines,2
;   skirtOffset,4
;   usePrimePillar,0
;   primePillarExtruder,999
;   primePillarWidth,12
;   primePillarLocation,7
;   primePillarSpeedMultiplier,1
;   useOozeShield,0
;   oozeShieldExtruder,999
;   oozeShieldOffset,2
;   oozeShieldOutlines,1
;   oozeShieldSidewallShape,1
;   oozeShieldSidewallAngle,30
;   oozeShieldSpeedMultiplier,1
;   infillExtruder,0
;   internalInfillPattern,Triangular
;   externalInfillPattern,Rectilinear
;   infillPercentage,40
;   outlineOverlapPercentage,15
;   infillExtrusionWidthPercentage,150
;   minInfillLength,5
;   infillLayerInterval,1
;   internalInfillAngles,0,60,-60
;   overlapInternalInfillAngles,1
;   externalInfillAngles,45,-45
;   generateSupport,0
;   supportExtruder,0
;   supportInfillPercentage,40
;   supportExtraInflation,1
;   supportBaseLayers,0
;   denseSupportExtruder,0
;   denseSupportLayers,0
;   denseSupportInfillPercentage,70
;   supportLayerInterval,1
;   supportHorizontalPartOffset,1
;   supportUpperSeparationLayers,1
;   supportLowerSeparationLayers,1
;   supportType,0
;   supportGridSpacing,4
;   maxOverhangAngle,45
;   supportAngles,0
;   temperatureName,Primary Extruder
;   temperatureNumber,0
;   temperatureSetpointCount,2
;   temperatureSetpointLayers,1,5
;   temperatureSetpointTemperatures,220,210
;   temperatureStabilizeAtStartup,1
;   temperatureHeatedBed,0
;   fanLayers,1,2
;   fanSpeeds,100,100
;   blipFanToFullPower,0
;   adjustSpeedForCooling,1
;   minSpeedLayerTime,7
;   minCoolingSpeedSlowdown,20
;   increaseFanForCooling,0
;   minFanLayerTime,45
;   maxCoolingFanSpeed,100
;   increaseFanForBridging,0
;   bridgingFanSpeed,100
;   use5D,1
;   relativeEdistances,0
;   allowEaxisZeroing,1
;   independentExtruderAxes,0
;   includeM10123,0
;   stickySupport,1
;   applyToolheadOffsets,0
;   gcodeXoffset,0
;   gcodeYoffset,0
;   gcodeZoffset,0
;   overrideMachineDefinition,0
;   machineTypeOverride,0
;   strokeXoverride,305
;   strokeYoverride,205
;   strokeZoverride,205
;   originOffsetXoverride,0
;   originOffsetYoverride,0
;   originOffsetZoverride,0
;   homeXdirOverride,-1
;   homeYdirOverride,-1
;   homeZdirOverride,-1
;   flipXoverride,1
;   flipYoverride,-1
;   flipZoverride,1
;   toolheadOffsets,0,0|0,0|0,0|0,0|0,0|0,0
;   overrideFirmwareConfiguration,1
;   firmwareTypeOverride,RepRap (Marlin/Repetier/Sprinter)
;   GPXconfigOverride,r2
;   baudRateOverride,115200
;   overridePrinterModels,1
;   printerModelsOverride
;   startingGcode,G28 ; home all axes,G1 Z 2 ; set height for prime line,G92 E0 ; zero extruder,G1 X150 E30 F400 ; prime line
;   layerChangeGcode,
;   retractionGcode,
;   toolChangeGcode,
;   endingGcode,G28 X0 ; home X axis,M104 S0 ; turn off extruder,M84 ; disable motors
;   exportFileFormat,gcode
;   celebration,0
;   celebrationSong,Random Song
;   postProcessing,
;   defaultSpeed,2400
;   outlineUnderspeed,0.5
;   solidInfillUnderspeed,0.8
;   supportUnderspeed,0.8
;   rapidXYspeed,2400
;   rapidZspeed,900
;   minBridgingArea,50
;   bridgingExtraInflation,0
;   bridgingExtrusionMultiplier,1
;   bridgingSpeedMultiplier,1
;   useFixedBridgingAngle,0
;   fixedBridgingAngle,0
;   applyBridgingToPerimeters,0
;   filamentDiameters,1.75|3|3|3|3|3
;   filamentPricesPerKg,46|46|46|46|46|46
;   filamentDensities,1.25|1.25|1.25|1.25|1.25|1.25
;   useMinPrintHeight,0
;   minPrintHeight,0
;   useMaxPrintHeight,0
;   maxPrintHeight,0
;   useDiaphragm,0
;   diaphragmLayerInterval,20
;   robustSlicing,1
;   mergeAllIntoSolid,0
;   onlyRetractWhenCrossingOutline,1
;   retractBetweenLayers,1
;   useRetractionMinTravel,1
;   retractionMinTravel,3
;   retractWhileWiping,0
;   onlyWipeOutlines,1
;   avoidCrossingOutline,1
;   maxMovementDetourFactor,3
;   toolChangeRetractionDistance,12
;   toolChangeExtraRestartDistance,-0.5
;   toolChangeRetractionSpeed,600
;   externalThinWallType,0
;   internalThinWallType,2
;   thinWallAllowedOverlapPercentage,10
;   singleExtrusionMinLength,1
;   singleExtrusionMinPrintingWidthPercentage,50
;   singleExtrusionMaxPrintingWidthPercentage,200
;   singleExtrusionEndpointExtension,0
;   horizontalSizeCompensation,0
G90
M82
M106 S255
M104 S220 T0
M109 S220 T0
G28 ; home all axes
G1 Z 2 ; set height for prime line
G92 E0 ; zero extruder
G1 X150 E30 F400 ; prime line
; process Process1
; layer 1, Z = 0.375
T0
G92 E0.0000
G1 E-7.5000 F3000
; feature skirt
; tool H0.375 W0.360
G1 Z0.375 F900
G1 X106.815 Y98.744 F2400
G1 E0.0000 F3000
G92 E0.0000
G1 X109.474 Y96.085 E0.1837 F1200
G1 X147.526 Y96.085 E2.0417
G1 X150.185 Y98.744 E2.2253
G1 X150.185 Y134.256 E3.9593
G1 X147.526 Y136.915 E4.1430
G1 X109.474 Y136.915 E6.0010
G1 X106.815 Y134.256 E6.1847
G1 X106.815 Y98.744 E7.9187
G1 X107.175 Y98.894 F2400
G92 E0.0000
G1 X109.624 Y96.445 E0.1691 F1200
G1 X147.376 Y96.445 E2.0126
G1 X149.825 Y98.894 E2.1817
G1 X149.825 Y134.106 E3.9011
G1 X147.376 Y136.555 E4.0702
G1 X109.624 Y136.555 E5.9137
G1 X107.175 Y134.106 E6.0827
G1 X107.175 Y98.894 E7.8022
G92 E0.0000
G1 E-7.5000 F3000
; feature inner perimeter
G1 X111.535 Y100.805 F2400
G1 X111.535 Y101.291
G1 X112.615 Y101.885
G1 E0.0000 F3000
G92 E0.0000
G1 X144.385 Y101.885 E1.5513 F900
G1 X144.385 Y131.115 E2.9786
G1 X112.619 Y131.115 E4.5298
G1 X112.616 Y104.885 E5.8106
G1 X112.615 Y101.885 F900
G1 X112.255 Y101.525 F2400
G92 E0.0000
G1 X144.745 Y101.525 E1.5865 F900
G1 X144.745 Y131.475 E3.0489
G1 X112.259 Y131.475 E4.6352
G1 X112.256 Y104.525 E5.9512
G1 X112.255 Y101.525 F900
G1 X111.895 Y101.165 F2400
G92 E0.0000
G1 X145.105 Y101.165 E1.6216 F900
G1 X145.105 Y131.835 E3.1193
G1 X111.899 Y131.835 E4.7407
G1 X111.895 Y104.165 E6.0918
G1 X111.895 Y101.165 F900
; feature outer perimeter
G1 X111.535 Y100.805 F2400
G92 E0.0000
G1 X145.465 Y100.805 E1.6568 F600
G1 X145.465 Y132.195 E3.1896
G1 X111.539 Y132.195 E4.8462
G1 X111.535 Y103.805 E6.2325
G1 X111.535 Y100.805 F600
; feature inner perimeter
G1 X123.892 Y112.332 F2400
G92 E0.0000
G1 X123.624 Y112.649 E0.0203 F900
G1 X123.377 Y112.983 E0.0406
G1 X123.154 Y113.333 E0.0608
G1 X122.954 Y113.698 E0.0811
G1 X122.779 Y114.074 E0.1014
G1 X122.630 Y114.462 E0.1217
G1 X122.507 Y114.858 E0.1419
G1 X122.411 Y115.262 E0.1622
G1 X122.342 Y115.672 E0.1825
G1 X122.300 Y116.085 E0.2028
G1 X122.286 Y116.501 E0.2231
G1 X122.301 Y116.926 E0.2439
G1 X122.342 Y117.328 E0.2636
G1 X122.411 Y117.738 E0.2839
G1 X122.507 Y118.142 E0.3042
G1 X122.630 Y118.538 E0.3244
G1 X122.779 Y118.926 E0.3447
G1 X122.954 Y119.302 E0.3650
G1 X123.154 Y119.667 E0.3853
G1 X123.377 Y120.017 E0.4055
G1 X123.624 Y120.351 E0.4258
G1 X123.892 Y120.668 E0.4461
G1 X124.180 Y120.967 E0.4664
G1 X124.488 Y121.245 E0.4866
G1 X124.814 Y121.502 E0.5069
G1 X125.157 Y121.737 E0.5272
G1 X125.514 Y121.949 E0.5475
G1 X125.885 Y122.136 E0.5678
G1 X126.267 Y122.299 E0.5880
G1 X126.659 Y122.435 E0.6083
G1 X127.060 Y122.544 E0.6286
G1 X127.467 Y122.627 E0.6489
G1 X127.878 Y122.682 E0.6691
G1 X128.292 Y122.710 E0.6894
G1 X128.708 Y122.710 E0.7097
G1 X129.122 Y122.682 E0.7300
G1 X129.533 Y122.627 E0.7502
G1 X129.940 Y122.544 E0.7705
G1 X130.341 Y122.435 E0.7908
G1 X130.733 Y122.299 E0.8111
G1 X131.116 Y122.136 E0.8314
G1 X131.486 Y121.949 E0.8516
G1 X131.843 Y121.737 E0.8719
G1 X132.186 Y121.502 E0.8922
G1 X132.512 Y121.245 E0.9125
G1 X132.820 Y120.966 E0.9328
G1 X133.108 Y120.668 E0.9530
G1 X133.377 Y120.351 E0.9733
G1 X133.623 Y120.017 E0.9936
G1 X133.846 Y119.667 E1.0139
G1 X134.046 Y119.302 E1.0341
G1 X134.221 Y118.926 E1.0544
G1 X134.370 Y118.538 E1.0747
G1 X134.493 Y118.142 E1.0950
G1 X134.589 Y117.738 E1.1152
G1 X134.658 Y117.328 E1.1355
G1 X134.700 Y116.915 E1.1558
G1 X134.714 Y116.500 E1.1761
G1 X134.700 Y116.085 E1.1964
G1 X134.658 Y115.672 E1.2166
G1 X134.589 Y115.262 E1.2369
G1 X134.493 Y114.858 E1.2572
G1 X134.370 Y114.462 E1.2775
G1 X134.221 Y114.074 E1.2977
G1 X134.046 Y113.698 E1.3180
G1 X133.846 Y113.333 E1.3383
G1 X133.623 Y112.983 E1.3586
G1 X133.377 Y112.649 E1.3788
G1 X133.108 Y112.332 E1.3991
G1 X132.820 Y112.033 E1.4194
G1 X132.512 Y111.755 E1.4397
G1 X132.186 Y111.498 E1.4600
G1 X131.843 Y111.263 E1.4802
G1 X131.486 Y111.051 E1.5005
G1 X131.116 Y110.864 E1.5208
G1 X130.733 Y110.701 E1.5411
G1 X130.341 Y110.565 E1.5613
G1 X129.940 Y110.456 E1.5816
G1 X129.533 Y110.373 E1.6019
G1 X129.122 Y110.318 E1.6222
G1 X128.708 Y110.290 E1.6425
G1 X128.292 Y110.290 E1.6627
G1 X127.878 Y110.318 E1.6830
G1 X127.467 Y110.373 E1.7033
G1 X127.060 Y110.456 E1.7236
G1 X126.659 Y110.565 E1.7438
G1 X126.355 Y110.671 E1.7596
G1 X126.267 Y110.701 F900
G1 X125.885 Y110.864
G1 X125.514 Y111.051
G1 X125.157 Y111.263
G1 X124.814 Y111.498
G1 X124.488 Y111.755
G1 X124.180 Y112.033
G1 X123.892 Y112.332
G1 X124.159 Y112.574 F2400
G92 E0.0000
G1 X123.906 Y112.872 E0.0191 F900
G1 X123.674 Y113.187 E0.0382
G1 X123.464 Y113.517 E0.0573
G1 X123.276 Y113.860 E0.0764
G1 X123.111 Y114.215 E0.0955
G1 X122.970 Y114.580 E0.1146
G1 X122.855 Y114.953 E0.1337
G1 X122.764 Y115.334 E0.1528
G1 X122.699 Y115.720 E0.1719
G1 X122.660 Y116.109 E0.1910
G1 X122.646 Y116.501 E0.2102
G1 X122.661 Y116.902 E0.2298
G1 X122.699 Y117.280 E0.2483
G1 X122.764 Y117.666 E0.2674
G1 X122.855 Y118.047 E0.2865
G1 X122.970 Y118.420 E0.3056
G1 X123.111 Y118.785 E0.3247
G1 X123.276 Y119.140 E0.3438
G1 X123.464 Y119.483 E0.3629
G1 X123.674 Y119.813 E0.3820
G1 X123.906 Y120.128 E0.4011
G1 X124.159 Y120.426 E0.4202
G1 X124.431 Y120.708 E0.4393
G1 X124.721 Y120.970 E0.4584
G1 X125.028 Y121.212 E0.4775
G1 X125.350 Y121.434 E0.4966
G1 X125.687 Y121.633 E0.5157
G1 X126.036 Y121.810 E0.5349
G1 X126.396 Y121.962 E0.5539
G1 X126.766 Y122.091 E0.5730
G1 X127.143 Y122.194 E0.5922
G1 X127.526 Y122.272 E0.6113
G1 X127.914 Y122.324 E0.6304
G1 X128.304 Y122.350 E0.6495
G1 X128.696 Y122.350 E0.6686
G1 X129.086 Y122.324 E0.6877
G1 X129.474 Y122.272 E0.7068
G1 X129.857 Y122.194 E0.7259
G1 X130.234 Y122.091 E0.7450
G1 X130.604 Y121.962 E0.7641
G1 X130.964 Y121.810 E0.7832
G1 X131.313 Y121.633 E0.8023
G1 X131.650 Y121.434 E0.8214
G1 X131.972 Y121.213 E0.8405
G1 X132.279 Y120.970 E0.8596
G1 X132.569 Y120.708 E0.8787
G1 X132.841 Y120.426 E0.8978
G1 X133.094 Y120.128 E0.9169
G1 X133.326 Y119.813 E0.9360
G1 X133.536 Y119.483 E0.9551
G1 X133.724 Y119.140 E0.9742
G1 X133.889 Y118.785 E0.9933
G1 X134.030 Y118.420 E1.0124
G1 X134.145 Y118.046 E1.0315
G1 X134.236 Y117.666 E1.0506
G1 X134.301 Y117.280 E1.0697
G1 X134.340 Y116.891 E1.0888
G1 X134.353 Y116.500 E1.1079
G1 X134.340 Y116.109 E1.1270
G1 X134.301 Y115.720 E1.1461
G1 X134.236 Y115.334 E1.1652
G1 X134.145 Y114.953 E1.1843
G1 X134.030 Y114.580 E1.2034
G1 X133.889 Y114.215 E1.2225
G1 X133.724 Y113.860 E1.2416
G1 X133.536 Y113.517 E1.2607
G1 X133.326 Y113.187 E1.2798
G1 X133.094 Y112.872 E1.2989
G1 X132.841 Y112.573 E1.3180
G1 X132.569 Y112.292 E1.3371
G1 X132.279 Y112.030 E1.3562
G1 X131.972 Y111.787 E1.3753
G1 X131.650 Y111.566 E1.3944
G1 X131.313 Y111.367 E1.4135
G1 X130.964 Y111.190 E1.4326
G1 X130.604 Y111.038 E1.4517
G1 X130.234 Y110.909 E1.4708
G1 X129.857 Y110.806 E1.4899
G1 X129.474 Y110.728 E1.5090
G1 X129.086 Y110.676 E1.5281
G1 X128.696 Y110.650 E1.5472
G1 X128.304 Y110.650 E1.5663
G1 X127.914 Y110.676 E1.5854
G1 X127.526 Y110.728 E1.6045
G1 X127.143 Y110.806 E1.6236
G1 X126.766 Y110.909 E1.6428
G1 X126.643 Y110.952 E1.6491
G1 X126.396 Y111.038 F900
G1 X126.036 Y111.190
G1 X125.687 Y111.367
G1 X125.350 Y111.566
G1 X125.028 Y111.788
G1 X124.721 Y112.030
G1 X124.431 Y112.292
G1 X124.159 Y112.574
G1 X124.426 Y112.815 F2400
G92 E0.0000
G1 X124.189 Y113.095 E0.0179 F900
G1 X123.971 Y113.391 E0.0358
G1 X123.774 Y113.701 E0.0538
G1 X123.597 Y114.022 E0.0717
G1 X123.443 Y114.355 E0.0896
G1 X123.311 Y114.698 E0.1076
G1 X123.202 Y115.049 E0.1255
G1 X123.117 Y115.406 E0.1434
G1 X123.056 Y115.768 E0.1613
G1 X123.019 Y116.133 E0.1793
G1 X123.007 Y116.501 E0.1972
G1 X123.020 Y116.878 E0.2156
G1 X123.056 Y117.232 E0.2330
G1 X123.117 Y117.594 E0.2510
G1 X123.202 Y117.951 E0.2689
G1 X123.311 Y118.302 E0.2868
G1 X123.443 Y118.645 E0.3047
G1 X123.597 Y118.978 E0.3227
G1 X123.774 Y119.299 E0.3406
G1 X123.971 Y119.609 E0.3585
G1 X124.189 Y119.904 E0.3765
G1 X124.426 Y120.185 E0.3944
G1 X124.681 Y120.449 E0.4123
G1 X124.953 Y120.695 E0.4302
G1 X125.242 Y120.923 E0.4482
G1 X125.544 Y121.130 E0.4661
G1 X125.860 Y121.317 E0.4840
G1 X126.188 Y121.483 E0.5019
G1 X126.526 Y121.626 E0.5199
G1 X126.872 Y121.747 E0.5378
G1 X127.227 Y121.844 E0.5557
G1 X127.586 Y121.917 E0.5736
G1 X127.950 Y121.966 E0.5916
G1 X128.316 Y121.990 E0.6095
G1 X128.684 Y121.990 E0.6274
G1 X129.050 Y121.966 E0.6453
G1 X129.414 Y121.917 E0.6633
G1 X129.773 Y121.844 E0.6812
G1 X130.128 Y121.747 E0.6991
G1 X130.474 Y121.626 E0.7170
G1 X130.812 Y121.483 E0.7350
G1 X131.140 Y121.317 E0.7529
G1 X131.456 Y121.130 E0.7708
G1 X131.758 Y120.923 E0.7888
G1 X132.047 Y120.695 E0.8067
G1 X132.319 Y120.449 E0.8246
G1 X132.574 Y120.185 E0.8425
G1 X132.811 Y119.904 E0.8605
G1 X133.029 Y119.609 E0.8784
G1 X133.226 Y119.299 E0.8963
G1 X133.403 Y118.977 E0.9142
G1 X133.557 Y118.645 E0.9322
G1 X133.689 Y118.302 E0.9501
G1 X133.798 Y117.951 E0.9680
G1 X133.883 Y117.594 E0.9859
G1 X133.944 Y117.232 E1.0039
G1 X133.981 Y116.867 E1.0218
G1 X133.993 Y116.500 E1.0397
G1 X133.981 Y116.133 E1.0576
G1 X133.944 Y115.768 E1.0756
G1 X133.883 Y115.406 E1.0935
G1 X133.798 Y115.049 E1.1114
G1 X133.689 Y114.698 E1.1294
G1 X133.557 Y114.355 E1.1473
G1 X133.403 Y114.023 E1.1652
G1 X133.226 Y113.701 E1.1831
G1 X133.029 Y113.391 E1.2011
G1 X132.811 Y113.096 E1.2190
G1 X132.574 Y112.815 E1.2369
G1 X132.319 Y112.551 E1.2548
G1 X132.047 Y112.305 E1.2728
G1 X131.758 Y112.077 E1.2907
G1 X131.456 Y111.870 E1.3086
G1 X131.140 Y111.683 E1.3265
G1 X130.812 Y111.517 E1.3445
G1 X130.474 Y111.374 E1.3624
G1 X130.128 Y111.253 E1.3803
G1 X129.773 Y111.156 E1.3983
G1 X129.414 Y111.083 E1.4162
G1 X129.050 Y111.034 E1.4341
G1 X128.684 Y111.010 E1.4520
G1 X128.316 Y111.010 E1.4700
G1 X127.950 Y111.034 E1.4879
G1 X127.586 Y111.083 E1.5058
G1 X127.227 Y111.156 E1.5237
G1 X126.933 Y111.237 E1.5386
G1 X126.872 Y111.253 F900
G1 X126.526 Y111.374
G1 X126.188 Y111.517
G1 X125.860 Y111.683
G1 X125.544 Y111.870
G1 X125.242 Y112.077
G1 X124.953 Y112.305
G1 X124.681 Y112.551
G1 X124.426 Y112.815
; feature outer perimeter
G1 X124.693 Y113.057 F2400
G92 E0.0000
G1 X124.472 Y113.319 E0.0168 F600
G1 X124.268 Y113.595 E0.0335
G1 X124.083 Y113.884 E0.0503
G1 X123.919 Y114.185 E0.0670
G1 X123.774 Y114.496 E0.0838
G1 X123.651 Y114.816 E0.1005
G1 X123.549 Y115.144 E0.1173
G1 X123.470 Y115.478 E0.1340
G1 X123.413 Y115.816 E0.1508
G1 X123.378 Y116.157 E0.1675
G1 X123.367 Y116.500 E0.1843
G1 X123.379 Y116.853 E0.2015
G1 X123.413 Y117.184 E0.2178
G1 X123.470 Y117.522 E0.2345
G1 X123.549 Y117.856 E0.2513
G1 X123.651 Y118.184 E0.2680
