; G-Code generated by Simplify3D(R) Version 4.1.2
; Dec 15, 2020 at 4:01:26 PM
; Settings Summary
;   processName,Process1
;   applyToModels,Stringing_Test
;   profileName,HIGH DETAIL
;   profileVersion,2020-12-15 16:01:08
;   baseProfile,Wanhao Duplicator 5S Mini
;   printMaterial,PLA
;   printQuality,0.15
;   printExtruders,
;   extruderName,Primary Extruder
;   extruderToolheadNumber,0
;   extruderDiameter,0.3
;   extruderAutoWidth,0
;   extruderWidth,0.3
;   extrusionMultiplier,0.9
;   extruderUseRetract,1
;   extruderRetractionDistance,5
;   extruderExtraRestartDistance,0
;   extruderRetractionZLift,0
;   extruderRetractionSpeed,3000
;   extruderUseCoasting,0
;   extruderCoastingDistance,2
;   extruderUseWipe,0
;   extruderWipeDistance,5
;   primaryExtruder,0
;   layerHeight,0.15
;   topSolidLayers,3
;   bottomSolidLayers,3
;   perimeterOutlines,3
;   printPerimetersInsideOut,1
;   startPointOption,3
;   startPointOriginX,0
;   startPointOriginY,0
;   sequentialIslands,0
;   spiralVaseMode,0
;   firstLayerHeightPercentage,150
;   firstLayerWidthPercentage,100
;   firstLayerUnderspeed,0.5
;   useRaft,0
;   raftExtruder,0
;   raftTopLayers,3
;   raftBaseLayers,2
;   raftOffset,3
;   raftSeparationDistance,0.14
;   raftTopInfill,100
;   aboveRaftSpeedMultiplier,0.3
;   useSkirt,1
;   skirtExtruder,0
;   skirtLayers,1
;   skirtOutlines,2
;   skirtOffset,4
;   usePrimePillar,0
;   primePillarExtruder,999
;   primePillarWidth,12
;   primePillarLocation,7
;   primePillarSpeedMultiplier,1
;   useOozeShield,0
;   oozeShieldExtruder,999
;   oozeShieldOffset,2
;   oozeShieldOutlines,1
;   oozeShieldSidewallShape,1
;   oozeShieldSidewallAngle,30
;   oozeShieldSpeedMultiplier,1
;   infillExtruder,0
;   internalInfillPattern,Triangular
;   externalInfillPattern,Rectilinear
;   infillPercentage,35
;   outlineOverlapPercentage,15
;   infillExtrusionWidthPercentage,150
;   minInfillLength,5
;   infillLayerInterval,2
;   internalInfillAngles,0,60,-60
;   overlapInternalInfillAngles,1
;   externalInfillAngles,45,-45
;   generateSupport,0
;   supportExtruder,0
;   supportInfillPercentage,30
;   supportExtraInflation,1
;   supportBaseLayers,0
;   denseSupportExtruder,0
;   denseSupportLayers,0
;   denseSupportInfillPercentage,70
;   supportLayerInterval,2
;   supportHorizontalPartOffset,1
;   supportUpperSeparationLayers,1
;   supportLowerSeparationLayers,1
;   supportType,0
;   supportGridSpacing,4
;   maxOverhangAngle,45
;   supportAngles,0
;   temperatureName,Primary Extruder
;   temperatureNumber,0
;   temperatureSetpointCount,2
;   temperatureSetpointLayers,1,5
;   temperatureSetpointTemperatures,220,210
;   temperatureStabilizeAtStartup,1
;   temperatureHeatedBed,0
;   fanLayers,1,2
;   fanSpeeds,100,100
;   blipFanToFullPower,0
;   adjustSpeedForCooling,1
;   minSpeedLayerTime,7
;   minCoolingSpeedSlowdown,20
;   increaseFanForCooling,0
;   minFanLayerTime,45
;   maxCoolingFanSpeed,100
;   increaseFanForBridging,0
;   bridgingFanSpeed,100
;   use5D,1
;   relativeEdistances,0
;   allowEaxisZeroing,1
;   independentExtruderAxes,0
;   includeM10123,0
;   stickySupport,1
;   applyToolheadOffsets,0
;   gcodeXoffset,0
;   gcodeYoffset,0
;   gcodeZoffset,0
;   overrideMachineDefinition,0
;   machineTypeOverride,0
;   strokeXoverride,305
;   strokeYoverride,205
;   strokeZoverride,205
;   originOffsetXoverride,0
;   originOffsetYoverride,0
;   originOffsetZoverride,0
;   homeXdirOverride,-1
;   homeYdirOverride,-1
;   homeZdirOverride,-1
;   flipXoverride,1
;   flipYoverride,-1
;   flipZoverride,1
;   toolheadOffsets,0,0|0,0|0,0|0,0|0,0|0,0
;   overrideFirmwareConfiguration,1
;   firmwareTypeOverride,RepRap (Marlin/Repetier/Sprinter)
;   GPXconfigOverride,r2
;   baudRateOverride,115200
;   overridePrinterModels,1
;   printerModelsOverride
;   startingGcode,G28 ; home all axes,G1 Z2  ; set height for prime line,G92 E0 ; zero extruder,G1 X150 E30 F400 ; prime line
;   layerChangeGcode,
;   retractionGcode,
;   toolChangeGcode,
;   endingGcode,G28 X0 ; home X axis,M104 S0 ; turn off extruder,M84 ; disable motors
;   exportFileFormat,gcode
;   celebration,0
;   celebrationSong,Random Song
;   postProcessing,
;   defaultSpeed,1800
;   outlineUnderspeed,0.5
;   solidInfillUnderspeed,0.8
;   supportUnderspeed,0.8
;   rapidXYspeed,2400
;   rapidZspeed,600
;   minBridgingArea,50
;   bridgingExtraInflation,0
;   bridgingExtrusionMultiplier,1
;   bridgingSpeedMultiplier,1
;   useFixedBridgingAngle,0
;   fixedBridgingAngle,0
;   applyBridgingToPerimeters,0
;   filamentDiameters,1.75|3|3|3|3|3
;   filamentPricesPerKg,46|46|46|46|46|46
;   filamentDensities,1.25|1.25|1.25|1.25|1.25|1.25
;   useMinPrintHeight,0
;   minPrintHeight,0
;   useMaxPrintHeight,0
;   maxPrintHeight,0
;   useDiaphragm,0
;   diaphragmLayerInterval,20
;   robustSlicing,1
;   mergeAllIntoSolid,0
;   onlyRetractWhenCrossingOutline,1
;   retractBetweenLayers,0
;   useRetractionMinTravel,1
;   retractionMinTravel,3
;   retractWhileWiping,0
;   onlyWipeOutlines,1
;   avoidCrossingOutline,1
;   maxMovementDetourFactor,3
;   toolChangeRetractionDistance,12
;   toolChangeExtraRestartDistance,-0.5
;   toolChangeRetractionSpeed,600
;   externalThinWallType,0
;   internalThinWallType,2
;   thinWallAllowedOverlapPercentage,10
;   singleExtrusionMinLength,1
;   singleExtrusionMinPrintingWidthPercentage,50
;   singleExtrusionMaxPrintingWidthPercentage,200
;   singleExtrusionEndpointExtension,0.2
;   horizontalSizeCompensation,0
G90
M82
M106 S255
M104 S220 T0
M109 S220 T0
G28 ; home all axes
G1 Z2  ; set height for prime line
G92 E0 ; zero extruder
G1 X150 E30 F400 ; prime line
; process Process1
; layer 1, Z = 0.225
T0
G92 E0.0000
G1 E-5.0000 F3000
; feature skirt
; tool H0.225 W0.300
G1 Z0.225 F600
G1 X114.050 Y94.657 F2400
G1 E0.0000 F3000
G92 E0.0000
G1 X116.657 Y92.050 E0.0931 F900
G1 X140.343 Y92.050 E0.6914
G1 X142.950 Y94.657 E0.7845
G1 X142.950 Y138.343 E1.8879
G1 X140.343 Y140.950 E1.9810
G1 X116.657 Y140.950 E2.5792
G1 X114.050 Y138.343 E2.6723
G1 X114.050 Y94.657 E3.7757
G1 X114.350 Y94.781 F2400
G92 E0.0000
G1 X116.781 Y92.350 E0.0868 F900
G1 X140.219 Y92.350 E0.6788
G1 X142.650 Y94.781 E0.7656
G1 X142.650 Y138.219 E1.8627
G1 X140.219 Y140.650 E1.9496
G1 X116.781 Y140.650 E2.5415
G1 X114.350 Y138.219 E2.6284
G1 X114.350 Y94.781 E3.7255
G92 E0.0000
G1 E-5.0000 F3000
; feature inner perimeter
G1 X118.650 Y96.650 F2400
G1 X118.650 Y96.948
G1 X119.250 Y97.250
G1 E0.0000 F3000
G92 E0.0000
G1 X137.750 Y97.250 E0.4673 F675
G1 X137.750 Y135.750 E1.4396
G1 X119.250 Y135.750 E1.9069
G1 X119.250 Y97.250 E2.8793
G1 X118.950 Y96.950 F2400
G92 E0.0000
G1 X138.050 Y96.950 E0.4824 F675
G1 X138.050 Y136.050 E1.4700
G1 X118.950 Y136.050 E1.9524
G1 X118.950 Y96.950 E2.9399
; feature outer perimeter
G1 X118.650 Y96.650 F2400
G92 E0.0000
G1 X138.350 Y96.650 E0.4976 F450
G1 X138.350 Y136.350 E1.5003
G1 X118.650 Y136.350 E1.9978
G1 X118.650 Y96.650 E3.0005
; feature solid layer
G1 X137.082 Y97.505 F2400
G92 E0.0000
G1 X137.495 Y97.918 E0.0147 F720
G1 X137.495 Y98.342 E0.0255
G1 X136.658 Y97.505 E0.0554
G1 X136.234 Y97.505 E0.0661
G1 X137.495 Y98.766 E0.1111
G1 X137.495 Y99.191 E0.1218
G1 X135.809 Y97.505 E0.1821
G1 X135.385 Y97.505 E0.1928
G1 X137.495 Y99.615 E0.2681
G1 X137.495 Y100.039 E0.2788
G1 X134.961 Y97.505 E0.3694
G1 X134.537 Y97.505 E0.3801
G1 X137.495 Y100.463 E0.4857
G1 X137.495 Y100.888 E0.4965
G1 X134.112 Y97.505 E0.6173
G1 X133.688 Y97.505 E0.6280
G1 X137.495 Y101.312 E0.7640
G1 X137.495 Y101.736 E0.7747
G1 X133.264 Y97.505 E0.9258
G1 X132.840 Y97.505 E0.9365
G1 X137.495 Y102.160 E1.1028
G1 X137.495 Y102.585 E1.1136
G1 X132.415 Y97.505 E1.2950
G1 X131.991 Y97.505 E1.3057
G1 X137.495 Y103.009 E1.5023
G1 X137.495 Y103.433 E1.5130
G1 X131.567 Y97.505 E1.7248
G1 X131.142 Y97.505 E1.7355
G1 X137.495 Y103.858 E1.9624
G1 X137.495 Y104.282 E1.9731
G1 X130.718 Y97.505 E2.2152
G1 X130.294 Y97.505 E2.2259
G1 X137.495 Y104.706 E2.4831
G1 X137.495 Y105.130 E2.4938
G1 X129.870 Y97.505 E2.7662
G1 X129.445 Y97.505 E2.7769
G1 X137.495 Y105.555 E3.0644
G1 X137.495 Y105.979 E3.0751
G1 X129.021 Y97.505 E3.3778
G1 X128.597 Y97.505 E3.3885
G1 X137.495 Y106.403 E3.7063
G1 X137.495 Y106.827 E3.7171
G1 X128.173 Y97.505 E4.0500
G1 X127.748 Y97.505 E4.0608
G1 X137.495 Y107.252 E4.4089
G1 X137.495 Y107.676 E4.4196
G1 X127.324 Y97.505 E4.7829
G1 X126.900 Y97.505 E4.7936
G1 X137.495 Y108.100 E5.1721
G1 X137.495 Y108.524 E5.1828
G1 X126.476 Y97.505 E5.5764
G1 X126.051 Y97.505 E5.5871
G1 X137.495 Y108.949 E5.9958
G1 X137.495 Y109.373 E6.0066
G1 X125.627 Y97.505 E6.4305
G1 X125.203 Y97.505 E6.4412
G1 X137.495 Y109.797 E6.8802
G1 X137.495 Y110.221 E6.8910
G1 X124.779 Y97.505 E7.3452
G1 X124.354 Y97.505 E7.3559
G1 X137.495 Y110.646 E7.8253
G1 X137.495 Y111.070 E7.8360
G1 X123.930 Y97.505 E8.3205
G1 X123.506 Y97.505 E8.3312
G1 X137.495 Y111.494 E8.8309
G1 X137.495 Y111.919 E8.8416
G1 X123.081 Y97.505 E9.3564
G1 X122.657 Y97.505 E9.3672
G1 X137.495 Y112.343 E9.8971
G1 X137.495 Y112.767 E9.9079
G1 X122.233 Y97.505 E10.4530
G1 X121.809 Y97.505 E10.4637
G1 X137.495 Y113.191 E11.0240
G1 X137.495 Y113.616 E11.0347
G1 X121.384 Y97.505 E11.6102
G1 X120.960 Y97.505 E11.6209
G1 X137.495 Y114.040 E12.2115
G1 X137.495 Y114.464 E12.2222
G1 X120.536 Y97.505 E12.8280
G1 X120.112 Y97.505 E12.8387
G1 X137.495 Y114.888 E13.4596
G1 X137.495 Y115.313 E13.4703
G1 X119.687 Y97.505 E14.1064
G1 X119.505 Y97.505 E14.1110
G1 X119.505 Y97.747 E14.1171
G1 X137.495 Y115.737 E14.7597
G1 X137.495 Y116.161 E14.7704
G1 X119.505 Y98.171 E15.4130
G1 X119.505 Y98.595 E15.4237
G1 X137.495 Y116.585 E16.0663
G1 X137.495 Y117.010 E16.0770
G1 X119.505 Y99.020 E16.7196
G1 X119.505 Y99.444 E16.7303
G1 X137.495 Y117.434 E17.3728
G1 X137.495 Y117.858 E17.3836
G1 X119.505 Y99.868 E18.0261
G1 X119.505 Y100.292 E18.0369
G1 X137.495 Y118.282 E18.6794
G1 X137.495 Y118.707 E18.6901
G1 X119.505 Y100.717 E19.3327
G1 X119.505 Y101.141 E19.3434
G1 X137.495 Y119.131 E19.9860
G1 X137.495 Y119.555 E19.9967
G1 X119.505 Y101.565 E20.6393
G1 X119.505 Y101.990 E20.6500
G1 X137.495 Y119.980 E21.2926
G1 X137.495 Y120.404 E21.3033
G1 X119.505 Y102.414 E21.9459
G1 X119.505 Y102.838 E21.9566
G1 X137.495 Y120.828 E22.5992
G1 X137.495 Y121.252 E22.6099
G1 X119.505 Y103.262 E23.2525
G1 X119.505 Y103.687 E23.2632
G1 X137.495 Y121.677 E23.9058
G1 X137.495 Y122.101 E23.9165
G1 X119.505 Y104.111 E24.5591
G1 X119.505 Y104.535 E24.5698
G1 X137.495 Y122.525 E25.2124
G1 X137.495 Y122.949 E25.2231
G1 X119.505 Y104.959 E25.8657
G1 X119.505 Y105.384 E25.8764
G1 X137.495 Y123.374 E26.5190
G1 X137.495 Y123.798 E26.5297
G1 X119.505 Y105.808 E27.1723
G1 X119.505 Y106.232 E27.1830
G1 X137.495 Y124.222 E27.8256
G1 X137.495 Y124.646 E27.8363
G1 X119.505 Y106.656 E28.4789
G1 X119.505 Y107.081 E28.4896
G1 X137.495 Y125.071 E29.1321
G1 X137.495 Y125.495 E29.1429
G1 X119.505 Y107.505 E29.7854
G1 X119.505 Y107.929 E29.7962
G1 X137.495 Y125.919 E30.4387
G1 X137.495 Y126.344 E30.4495
G1 X119.505 Y108.354 E31.0920
G1 X119.505 Y108.778 E31.1027
G1 X137.495 Y126.768 E31.7453
G1 X137.495 Y127.192 E31.7560
G1 X119.505 Y109.202 E32.3986
G1 X119.505 Y109.626 E32.4093
G1 X137.495 Y127.616 E33.0519
G1 X137.495 Y128.041 E33.0626
G1 X119.505 Y110.051 E33.7052
G1 X119.505 Y110.475 E33.7159
G1 X137.495 Y128.465 E34.3585
G1 X137.495 Y128.889 E34.3692
G1 X119.505 Y110.899 E35.0118
G1 X119.505 Y111.323 E35.0225
G1 X137.495 Y129.313 E35.6651
G1 X137.495 Y129.738 E35.6758
G1 X119.505 Y111.748 E36.3184
G1 X119.505 Y112.172 E36.3291
G1 X137.495 Y130.162 E36.9717
G1 X137.495 Y130.586 E36.9824
G1 X119.505 Y112.596 E37.6250
G1 X119.505 Y113.020 E37.6357
G1 X137.495 Y131.010 E38.2783
G1 X137.495 Y131.435 E38.2890
G1 X119.505 Y113.445 E38.9316
G1 X119.505 Y113.869 E38.9423
G1 X137.495 Y131.859 E39.5849
G1 X137.495 Y132.283 E39.5956
G1 X119.505 Y114.293 E40.2382
G1 X119.505 Y114.717 E40.2489
G1 X137.495 Y132.707 E40.8914
G1 X137.495 Y133.132 E40.9022
G1 X119.505 Y115.142 E41.5447
G1 X119.505 Y115.566 E41.5555
G1 X137.495 Y133.556 E42.1980
G1 X137.495 Y133.980 E42.2088
G1 X119.505 Y115.990 E42.8513
G1 X119.505 Y116.415 E42.8620
G1 X137.495 Y134.405 E43.5046
G1 X137.495 Y134.829 E43.5153
G1 X119.505 Y116.839 E44.1579
G1 X119.505 Y117.263 E44.1686
G1 X137.495 Y135.253 E44.8112
G1 X137.495 Y135.495 E44.8173
G1 X137.313 Y135.495 E44.8219
G1 X119.505 Y117.687 E45.4580
G1 X119.505 Y118.112 E45.4687
G1 X136.888 Y135.495 E46.0896
G1 X136.464 Y135.495 E46.1003
G1 X119.505 Y118.536 E46.7061
G1 X119.505 Y118.960 E46.7168
G1 X136.040 Y135.495 E47.3074
G1 X135.616 Y135.495 E47.3181
G1 X119.505 Y119.384 E47.8936
G1 X119.505 Y119.809 E47.9043
G1 X135.191 Y135.495 E48.4646
G1 X134.767 Y135.495 E48.4753
G1 X119.505 Y120.233 E49.0205
G1 X119.505 Y120.657 E49.0312
G1 X134.343 Y135.495 E49.5612
G1 X133.919 Y135.495 E49.5719
G1 X119.505 Y121.081 E50.0867
G1 X119.505 Y121.506 E50.0974
G1 X133.494 Y135.495 E50.5971
G1 X133.070 Y135.495 E50.6078
G1 X119.505 Y121.930 E51.0923
G1 X119.505 Y122.354 E51.1031
G1 X132.646 Y135.495 E51.5724
G1 X132.222 Y135.495 E51.5831
G1 X119.505 Y122.778 E52.0374
G1 X119.505 Y123.203 E52.0481
G1 X131.797 Y135.495 E52.4871
G1 X131.373 Y135.495 E52.4979
G1 X119.505 Y123.627 E52.9218
G1 X119.505 Y124.051 E52.9325
G1 X130.949 Y135.495 E53.3412
G1 X130.524 Y135.495 E53.3519
G1 X119.505 Y124.476 E53.7455
G1 X119.505 Y124.900 E53.7563
G1 X130.100 Y135.495 E54.1347
G1 X129.676 Y135.495 E54.1454
G1 X119.505 Y125.324 E54.5087
G1 X119.505 Y125.748 E54.5194
G1 X129.252 Y135.495 E54.8676
G1 X128.827 Y135.495 E54.8783
G1 X119.505 Y126.173 E55.2113
G1 X119.505 Y126.597 E55.2220
G1 X128.403 Y135.495 E55.5398
G1 X127.979 Y135.495 E55.5505
G1 X119.505 Y127.021 E55.8532
G1 X119.505 Y127.445 E55.8639
G1 X127.555 Y135.495 E56.1514
G1 X127.130 Y135.495 E56.1622
G1 X119.505 Y127.870 E56.4345
G1 X119.505 Y128.294 E56.4452
G1 X126.706 Y135.495 E56.7024
G1 X126.282 Y135.495 E56.7132
G1 X119.505 Y128.718 E56.9552
G1 X119.505 Y129.142 E56.9659
G1 X125.858 Y135.495 E57.1928
G1 X125.433 Y135.495 E57.2036
G1 X119.505 Y129.567 E57.4153
G1 X119.505 Y129.991 E57.4260
G1 X125.009 Y135.495 E57.6226
G1 X124.585 Y135.495 E57.6333
G1 X119.505 Y130.415 E57.8148
G1 X119.505 Y130.840 E57.8255
G1 X124.160 Y135.495 E57.9918
G1 X123.736 Y135.495 E58.0025
G1 X119.505 Y131.264 E58.1536
G1 X119.505 Y131.688 E58.1643
G1 X123.312 Y135.495 E58.3003
G1 X122.888 Y135.495 E58.3110
G1 X119.505 Y132.112 E58.4319
G1 X119.505 Y132.537 E58.4426
G1 X122.463 Y135.495 E58.5483
G1 X122.039 Y135.495 E58.5590
G1 X119.505 Y132.961 E58.6495
G1 X119.505 Y133.385 E58.6602
G1 X121.615 Y135.495 E58.7356
G1 X121.191 Y135.495 E58.7463
G1 X119.505 Y133.809 E58.8065
G1 X119.505 Y134.234 E58.8172
G1 X120.766 Y135.495 E58.8623
G1 X120.342 Y135.495 E58.8730
G1 X119.505 Y134.658 E58.9029
G1 X119.505 Y135.082 E58.9136
G1 X119.918 Y135.495 E58.9283
; layer 2, Z = 0.375
; feature inner perimeter
; tool H0.150 W0.300
G1 Z0.375 F600
G1 X119.250 Y97.250 F2400
G92 E0.0000
G1 X137.750 Y97.250 E0.3115 F1350
G1 X137.750 Y135.750 E0.9598
G1 X119.250 Y135.750 E1.2713
G1 X119.250 Y97.250 E1.9195
G1 X118.950 Y96.950 F2400
G92 E0.0000
G1 X138.050 Y96.950 E0.3216 F1350
G1 X138.050 Y136.050 E0.9800
G1 X118.950 Y136.050 E1.3016
G1 X118.950 Y96.950 E1.9599
; feature outer perimeter
G1 X118.650 Y96.650 F2400
G92 E0.0000
G1 X138.350 Y96.650 E0.3317 F900
G1 X138.350 Y136.350 E1.0002
G1 X118.650 Y136.350 E1.3319
G1 X118.650 Y96.650 E2.0003
; feature solid layer
G1 X119.505 Y97.918 F2400
G92 E0.0000
G1 X119.918 Y97.505 E0.0098 F1440
G1 X120.342 Y97.505 E0.0170
G1 X119.505 Y98.342 E0.0369
G1 X119.505 Y98.766 E0.0441
G1 X120.766 Y97.505 E0.0741
G1 X121.191 Y97.505 E0.0812
G1 X119.505 Y99.191 E0.1214
G1 X119.505 Y99.615 E0.1285
G1 X121.615 Y97.505 E0.1788
G1 X122.039 Y97.505 E0.1859
G1 X119.505 Y100.039 E0.2462
G1 X119.505 Y100.463 E0.2534
G1 X122.463 Y97.505 E0.3238
G1 X122.888 Y97.505 E0.3310
G1 X119.505 Y100.888 E0.4115
G1 X119.505 Y101.312 E0.4187
G1 X123.312 Y97.505 E0.5093
G1 X123.736 Y97.505 E0.5165
G1 X119.505 Y101.736 E0.6172
G1 X119.505 Y102.161 E0.6244
G1 X124.161 Y97.505 E0.7352
