; G-Code generated by Simplify3D(R) Version 4.1.2
; Jan 30, 2021 at 4:29:29 PM
; Settings Summary
;   processName,Process1
;   applyToModels,telepromter to monitor adaptor v1
;   profileName,NORMAL
;   profileVersion,2020-12-15 15:32:42
;   baseProfile,Wanhao Duplicator 5S Mini
;   printMaterial,PLA
;   printQuality,0.25
;   printExtruders,
;   extruderName,Primary Extruder
;   extruderToolheadNumber,0
;   extruderDiameter,0.3
;   extruderAutoWidth,1
;   extruderWidth,0.36
;   extrusionMultiplier,0.9
;   extruderUseRetract,1
;   extruderRetractionDistance,5
;   extruderExtraRestartDistance,0
;   extruderRetractionZLift,0
;   extruderRetractionSpeed,3000
;   extruderUseCoasting,0
;   extruderCoastingDistance,1.5
;   extruderUseWipe,0
;   extruderWipeDistance,5
;   primaryExtruder,0
;   layerHeight,0.25
;   topSolidLayers,3
;   bottomSolidLayers,3
;   perimeterOutlines,3
;   printPerimetersInsideOut,1
;   startPointOption,3
;   startPointOriginX,0
;   startPointOriginY,0
;   sequentialIslands,0
;   spiralVaseMode,0
;   firstLayerHeightPercentage,150
;   firstLayerWidthPercentage,100
;   firstLayerUnderspeed,0.5
;   useRaft,0
;   raftExtruder,0
;   raftTopLayers,3
;   raftBaseLayers,2
;   raftOffset,3
;   raftSeparationDistance,0.14
;   raftTopInfill,100
;   aboveRaftSpeedMultiplier,0.3
;   useSkirt,1
;   skirtExtruder,0
;   skirtLayers,2
;   skirtOutlines,2
;   skirtOffset,4
;   usePrimePillar,0
;   primePillarExtruder,999
;   primePillarWidth,12
;   primePillarLocation,7
;   primePillarSpeedMultiplier,1
;   useOozeShield,0
;   oozeShieldExtruder,999
;   oozeShieldOffset,2
;   oozeShieldOutlines,1
;   oozeShieldSidewallShape,1
;   oozeShieldSidewallAngle,30
;   oozeShieldSpeedMultiplier,1
;   infillExtruder,0
;   internalInfillPattern,Triangular
;   externalInfillPattern,Rectilinear
;   infillPercentage,30
;   outlineOverlapPercentage,15
;   infillExtrusionWidthPercentage,150
;   minInfillLength,5
;   infillLayerInterval,1
;   internalInfillAngles,0,60,-60
;   overlapInternalInfillAngles,1
;   externalInfillAngles,45,-45
;   generateSupport,0
;   supportExtruder,0
;   supportInfillPercentage,40
;   supportExtraInflation,1
;   supportBaseLayers,0
;   denseSupportExtruder,0
;   denseSupportLayers,0
;   denseSupportInfillPercentage,70
;   supportLayerInterval,1
;   supportHorizontalPartOffset,1
;   supportUpperSeparationLayers,1
;   supportLowerSeparationLayers,1
;   supportType,0
;   supportGridSpacing,4
;   maxOverhangAngle,45
;   supportAngles,0
;   temperatureName,Primary Extruder
;   temperatureNumber,0
;   temperatureSetpointCount,2
;   temperatureSetpointLayers,1,5
;   temperatureSetpointTemperatures,220,210
;   temperatureStabilizeAtStartup,1
;   temperatureHeatedBed,0
;   fanLayers,1,2
;   fanSpeeds,100,100
;   blipFanToFullPower,0
;   adjustSpeedForCooling,1
;   minSpeedLayerTime,7
;   minCoolingSpeedSlowdown,20
;   increaseFanForCooling,0
;   minFanLayerTime,45
;   maxCoolingFanSpeed,100
;   increaseFanForBridging,0
;   bridgingFanSpeed,100
;   use5D,1
;   relativeEdistances,0
;   allowEaxisZeroing,1
;   independentExtruderAxes,0
;   includeM10123,0
;   stickySupport,1
;   applyToolheadOffsets,0
;   gcodeXoffset,0
;   gcodeYoffset,0
;   gcodeZoffset,0
;   overrideMachineDefinition,0
;   machineTypeOverride,0
;   strokeXoverride,305
;   strokeYoverride,205
;   strokeZoverride,205
;   originOffsetXoverride,0
;   originOffsetYoverride,0
;   originOffsetZoverride,0
;   homeXdirOverride,-1
;   homeYdirOverride,-1
;   homeZdirOverride,-1
;   flipXoverride,1
;   flipYoverride,-1
;   flipZoverride,1
;   toolheadOffsets,0,0|0,0|0,0|0,0|0,0|0,0
;   overrideFirmwareConfiguration,1
;   firmwareTypeOverride,RepRap (Marlin/Repetier/Sprinter)
;   GPXconfigOverride,r2
;   baudRateOverride,115200
;   overridePrinterModels,1
;   printerModelsOverride
;   startingGcode,G28 ; home all axes,G1 Z 2 ; set height for prime line,G92 E0 ; zero extruder,G1 X150 E30 F400 ; prime line
;   layerChangeGcode,
;   retractionGcode,
;   toolChangeGcode,
;   endingGcode,G28 X0 ; home X axis,M104 S0 ; turn off extruder,M84 ; disable motors
;   exportFileFormat,gcode
;   celebration,0
;   celebrationSong,Random Song
;   postProcessing,
;   defaultSpeed,2400
;   outlineUnderspeed,0.5
;   solidInfillUnderspeed,0.8
;   supportUnderspeed,0.8
;   rapidXYspeed,2400
;   rapidZspeed,900
;   minBridgingArea,50
;   bridgingExtraInflation,0
;   bridgingExtrusionMultiplier,1
;   bridgingSpeedMultiplier,1
;   useFixedBridgingAngle,0
;   fixedBridgingAngle,0
;   applyBridgingToPerimeters,0
;   filamentDiameters,1.75|3|3|3|3|3
;   filamentPricesPerKg,46|46|46|46|46|46
;   filamentDensities,1.25|1.25|1.25|1.25|1.25|1.25
;   useMinPrintHeight,0
;   minPrintHeight,0
;   useMaxPrintHeight,0
;   maxPrintHeight,0
;   useDiaphragm,0
;   diaphragmLayerInterval,20
;   robustSlicing,1
;   mergeAllIntoSolid,0
;   onlyRetractWhenCrossingOutline,1
;   retractBetweenLayers,1
;   useRetractionMinTravel,1
;   retractionMinTravel,3
;   retractWhileWiping,0
;   onlyWipeOutlines,1
;   avoidCrossingOutline,1
;   maxMovementDetourFactor,3
;   toolChangeRetractionDistance,12
;   toolChangeExtraRestartDistance,-0.5
;   toolChangeRetractionSpeed,600
;   externalThinWallType,0
;   internalThinWallType,2
;   thinWallAllowedOverlapPercentage,10
;   singleExtrusionMinLength,1
;   singleExtrusionMinPrintingWidthPercentage,50
;   singleExtrusionMaxPrintingWidthPercentage,200
;   singleExtrusionEndpointExtension,0
;   horizontalSizeCompensation,0
G90
M82
M106 S255
M104 S220 T0
M109 S220 T0
G28 ; home all axes
G1 Z 2 ; set height for prime line
G92 E0 ; zero extruder
G1 X150 E30 F400 ; prime line
; process Process1
; layer 1, Z = 0.375
T0
G92 E0.0000
G1 E-5.0000 F3000
; feature skirt
; tool H0.375 W0.360
G1 Z0.375 F900
G1 X93.973 Y66.943 F2400
G1 E0.0000 F3000
G92 E0.0000
G1 X94.708 Y65.984 E0.0610 F1200
G1 X95.129 Y65.563 E0.0911
G1 X96.127 Y64.797 E0.1547
G1 X96.643 Y64.500 E0.1847
G1 X97.805 Y64.018 E0.2483
G1 X98.380 Y63.864 E0.2783
G1 X99.480 Y63.719 E0.3344
G1 X99.776 Y63.700 E0.3494
G1 X157.224 Y63.700 E3.2513
G1 X157.520 Y63.719 E3.2663
G1 X158.571 Y63.858 E3.3198
G1 X159.052 Y63.976 E3.3449
G1 X159.887 Y64.280 E3.3898
G1 X160.247 Y64.447 E3.4098
G1 X161.016 Y64.891 E3.4547
G1 X161.416 Y65.185 E3.4797
G1 X162.307 Y66.001 E3.5408
G1 X162.690 Y66.457 E3.5708
G1 X163.313 Y67.434 E3.6294
G1 X163.496 Y67.786 E3.6494
G1 X163.713 Y68.311 E3.6781
G1 X163.809 Y68.593 E3.6931
G1 X164.013 Y69.355 E3.7330
G1 X164.082 Y69.746 E3.7530
G1 X164.146 Y70.483 E3.7904
G1 X164.155 Y70.681 E3.8004
G1 X164.155 Y162.319 E8.4294
G1 X164.146 Y162.517 E8.4394
G1 X164.082 Y163.254 E8.4768
G1 X164.013 Y163.645 E8.4968
G1 X163.783 Y164.503 E8.5417
G1 X163.603 Y164.965 E8.5668
G1 X163.045 Y166.037 E8.6278
G1 X162.704 Y166.525 E8.6579
G1 X161.888 Y167.416 E8.7189
G1 X161.515 Y167.743 E8.7440
G1 X160.746 Y168.281 E8.7914
G1 X160.311 Y168.519 E8.8164
G1 X159.195 Y168.982 E8.8775
G1 X158.620 Y169.136 E8.9075
G1 X157.520 Y169.281 E8.9636
G1 X157.224 Y169.300 E8.9786
G1 X99.776 Y169.300 E11.8804
G1 X99.480 Y169.281 E11.8955
G1 X98.429 Y169.142 E11.9490
G1 X97.948 Y169.024 E11.9740
G1 X97.112 Y168.720 E12.0189
G1 X96.753 Y168.553 E12.0390
G1 X96.026 Y168.133 E12.0813
G1 X95.702 Y167.906 E12.1014
G1 X95.059 Y167.367 E12.1438
G1 X94.778 Y167.086 E12.1638
G1 X94.239 Y166.443 E12.2062
G1 X94.012 Y166.119 E12.2262
G1 X93.592 Y165.392 E12.2686
G1 X93.425 Y165.032 E12.2886
G1 X93.122 Y164.202 E12.3332
G1 X93.006 Y163.732 E12.3577
G1 X92.867 Y162.717 E12.4095
G1 X92.847 Y162.409 E12.4251
G1 X92.847 Y162.398 E12.4256
G1 X92.846 Y162.384 E12.4263
G1 X92.845 Y70.681 E17.0586
G1 X92.854 Y70.483 E17.0686
G1 X92.918 Y69.746 E17.1060
G1 X92.987 Y69.355 E17.1260
G1 X93.204 Y68.545 E17.1684
G1 X93.340 Y68.172 E17.1884
G1 X93.715 Y67.367 E17.2333
G1 X93.973 Y66.943 E17.2584
G1 X94.270 Y67.146 F2400
G92 E0.0000
G1 X94.980 Y66.222 E0.0589 F1200
G1 X95.367 Y65.834 E0.0865
G1 X96.328 Y65.097 E0.1477
G1 X96.802 Y64.823 E0.1754
G1 X97.921 Y64.360 E0.2366
G1 X98.450 Y64.218 E0.2642
G1 X99.515 Y64.078 E0.3185
G1 X99.788 Y64.060 E0.3323
G1 X157.212 Y64.060 E3.2330
G1 X157.485 Y64.078 E3.2468
G1 X158.504 Y64.212 E3.2988
G1 X158.948 Y64.321 E3.3218
G1 X159.750 Y64.612 E3.3649
G1 X160.080 Y64.767 E3.3834
G1 X160.819 Y65.193 E3.4265
G1 X161.188 Y65.463 E3.4495
G1 X162.047 Y66.251 E3.5084
G1 X162.399 Y66.670 E3.5361
G1 X163.000 Y67.615 E3.5926
G1 X163.169 Y67.938 E3.6111
G1 X163.376 Y68.438 E3.6384
G1 X163.464 Y68.697 E3.6522
G1 X163.661 Y69.433 E3.6907
G1 X163.725 Y69.793 E3.7091
G1 X163.787 Y70.507 E3.7453
G1 X163.795 Y70.689 E3.7546
G1 X163.795 Y162.311 E8.3828
G1 X163.787 Y162.493 E8.3920
G1 X163.725 Y163.207 E8.4282
G1 X163.661 Y163.567 E8.4466
G1 X163.440 Y164.391 E8.4897
G1 X163.275 Y164.816 E8.5128
G1 X162.737 Y165.850 E8.5716
G1 X162.423 Y166.299 E8.5993
G1 X161.635 Y167.158 E8.6582
G1 X161.292 Y167.459 E8.6812
G1 X160.556 Y167.975 E8.7266
G1 X160.155 Y168.194 E8.7497
G1 X159.079 Y168.640 E8.8086
G1 X158.550 Y168.782 E8.8362
G1 X157.485 Y168.922 E8.8905
G1 X157.212 Y168.940 E8.9043
G1 X99.788 Y168.940 E11.8050
G1 X99.515 Y168.922 E11.8188
G1 X98.496 Y168.788 E11.8708
G1 X98.052 Y168.679 E11.8938
G1 X97.250 Y168.388 E11.9369
G1 X96.920 Y168.233 E11.9554
G1 X96.220 Y167.829 E11.9962
G1 X95.921 Y167.620 E12.0146
G1 X95.302 Y167.101 E12.0554
G1 X95.044 Y166.843 E12.0738
G1 X94.525 Y166.224 E12.1146
G1 X94.316 Y165.925 E12.1331
G1 X93.912 Y165.225 E12.1739
G1 X93.757 Y164.895 E12.1923
G1 X93.467 Y164.097 E12.2352
G1 X93.360 Y163.664 E12.2577
G1 X93.226 Y162.680 E12.3079
G1 X93.207 Y162.397 E12.3222
G1 X93.207 Y162.386 E12.3228
G1 X93.206 Y162.372 E12.3235
G1 X93.205 Y70.689 E16.9548
G1 X93.213 Y70.507 E16.9640
G1 X93.275 Y69.793 E17.0002
G1 X93.339 Y69.433 E17.0186
G1 X93.548 Y68.653 E17.0594
G1 X93.673 Y68.310 E17.0778
G1 X94.033 Y67.537 E17.1210
G1 X94.270 Y67.146 E17.1440
G92 E0.0000
G1 E-5.0000 F3000
; feature inner perimeter
G1 X98.572 Y69.856 F2400
G1 E0.0000 F3000
G92 E0.0000
G1 X98.780 Y69.608 E0.0164 F900
G1 X98.857 Y69.538 E0.0216
G1 X99.123 Y69.351 E0.0380
G1 X99.215 Y69.304 E0.0433
G1 X99.501 Y69.199 E0.0587
G1 X99.802 Y69.146 E0.0741
G1 X99.945 Y69.140 E0.0813
G1 X157.055 Y69.140 E2.9662
G1 X157.198 Y69.146 E2.9734
G1 X157.499 Y69.199 E2.9888
G1 X157.767 Y69.297 E3.0032
G1 X158.031 Y69.449 E3.0186
G1 X158.113 Y69.512 E3.0239
G1 X158.343 Y69.742 E3.0403
G1 X158.406 Y69.824 E3.0455
G1 X158.568 Y70.106 E3.0619
G1 X158.608 Y70.201 E3.0672
G1 X158.687 Y70.496 E3.0826
G1 X158.715 Y70.819 E3.0990
G1 X158.715 Y74.355 E3.2775
G1 X158.400 Y74.112 E3.2976
G1 X158.123 Y73.932 E3.3143
G1 X157.833 Y73.775 E3.3310
G1 X157.531 Y73.641 E3.3476
G1 X157.220 Y73.531 E3.3643
G1 X156.901 Y73.447 E3.3810
G1 X156.576 Y73.388 E3.3977
G1 X156.248 Y73.355 E3.4143
G1 X155.917 Y73.349 E3.4310
G1 X155.588 Y73.369 E3.4477
G1 X155.261 Y73.414 E3.4644
G1 X154.939 Y73.486 E3.4811
G1 X154.623 Y73.583 E3.4977
G1 X154.316 Y73.705 E3.5144
G1 X154.004 Y73.858 E3.5320
G1 X153.481 Y74.199 E3.5635
G1 X153.214 Y74.422 E3.5811
G1 X152.978 Y74.653 E3.5978
G1 X152.761 Y74.902 E3.6145
G1 X152.565 Y75.168 E3.6311
G1 X152.391 Y75.448 E3.6478
G1 X152.239 Y75.741 E3.6645
G1 X152.111 Y76.045 E3.6812
G1 X152.008 Y76.359 E3.6978
G1 X151.930 Y76.680 E3.7145
G1 X151.878 Y77.006 E3.7312
G1 X151.851 Y77.335 E3.7479
G1 X151.851 Y77.665 E3.7645
G1 X151.878 Y77.994 E3.7812
G1 X151.930 Y78.320 E3.7979
G1 X152.008 Y78.641 E3.8146
G1 X152.111 Y78.954 E3.8312
G1 X152.239 Y79.259 E3.8479
G1 X152.391 Y79.552 E3.8646
G1 X152.565 Y79.832 E3.8813
G1 X152.761 Y80.098 E3.8979
G1 X152.978 Y80.347 E3.9146
G1 X153.214 Y80.578 E3.9313
G1 X153.467 Y80.790 E3.9480
G1 X153.736 Y80.981 E3.9647
G1 X154.020 Y81.149 E3.9813
G1 X154.316 Y81.295 E3.9980
G1 X154.623 Y81.417 E4.0147
G1 X154.939 Y81.514 E4.0314
G1 X155.261 Y81.586 E4.0480
G1 X155.588 Y81.631 E4.0647
G1 X155.917 Y81.651 E4.0814
G1 X156.248 Y81.645 E4.0981
G1 X156.576 Y81.612 E4.1147
G1 X156.901 Y81.553 E4.1314
G1 X157.220 Y81.469 E4.1481
G1 X157.531 Y81.359 E4.1648
G1 X157.833 Y81.225 E4.1814
G1 X158.124 Y81.068 E4.1981
G1 X158.400 Y80.888 E4.2148
G1 X158.715 Y80.645 E4.2349
G1 X158.715 Y152.355 E7.8572
G1 X158.400 Y152.112 E7.8772
G1 X158.123 Y151.932 E7.8939
G1 X157.833 Y151.775 E7.9106
G1 X157.531 Y151.641 E7.9273
G1 X157.220 Y151.531 E7.9439
G1 X156.901 Y151.447 E7.9606
G1 X156.576 Y151.388 E7.9773
G1 X156.248 Y151.355 E7.9940
G1 X155.917 Y151.349 E8.0106
G1 X155.588 Y151.369 E8.0273
G1 X155.261 Y151.414 E8.0440
G1 X154.939 Y151.486 E8.0607
G1 X154.623 Y151.583 E8.0773
G1 X154.316 Y151.705 E8.0940
G1 X154.020 Y151.851 E8.1107
G1 X153.736 Y152.019 E8.1274
G1 X153.467 Y152.210 E8.1441
G1 X153.214 Y152.422 E8.1607
G1 X152.978 Y152.653 E8.1774
G1 X152.761 Y152.902 E8.1941
G1 X152.565 Y153.168 E8.2108
G1 X152.391 Y153.448 E8.2274
G1 X152.239 Y153.741 E8.2441
G1 X152.111 Y154.045 E8.2608
G1 X152.008 Y154.359 E8.2775
G1 X151.930 Y154.680 E8.2941
G1 X151.878 Y155.006 E8.3108
G1 X151.851 Y155.335 E8.3275
G1 X151.851 Y155.665 E8.3442
G1 X151.878 Y155.994 E8.3608
G1 X151.930 Y156.320 E8.3775
G1 X152.008 Y156.641 E8.3942
G1 X152.111 Y156.954 E8.4109
G1 X152.239 Y157.259 E8.4275
G1 X152.391 Y157.552 E8.4442
G1 X152.565 Y157.832 E8.4609
G1 X152.761 Y158.098 E8.4776
G1 X152.978 Y158.347 E8.4943
G1 X153.214 Y158.578 E8.5109
G1 X153.467 Y158.790 E8.5276
G1 X153.736 Y158.981 E8.5443
G1 X154.020 Y159.149 E8.5610
G1 X154.316 Y159.295 E8.5776
G1 X154.623 Y159.417 E8.5943
G1 X154.939 Y159.514 E8.6110
G1 X155.261 Y159.586 E8.6277
G1 X155.588 Y159.631 E8.6443
G1 X155.917 Y159.651 E8.6610
G1 X156.248 Y159.645 E8.6777
G1 X156.576 Y159.612 E8.6944
G1 X156.901 Y159.553 E8.7110
G1 X157.220 Y159.469 E8.7277
G1 X157.531 Y159.359 E8.7444
G1 X157.833 Y159.225 E8.7611
G1 X158.124 Y159.068 E8.7778
G1 X158.400 Y158.888 E8.7944
G1 X158.715 Y158.645 E8.8145
G1 X158.715 Y162.181 E8.9931
G1 X158.687 Y162.504 E9.0095
G1 X158.608 Y162.799 E9.0249
G1 X158.568 Y162.895 E9.0301
G1 X158.406 Y163.176 E9.0465
G1 X158.343 Y163.258 E9.0518
G1 X158.127 Y163.474 E9.0672
G1 X157.893 Y163.637 E9.0816
G1 X157.617 Y163.766 E9.0970
G1 X157.518 Y163.797 E9.1022
G1 X157.198 Y163.854 E9.1186
G1 X157.055 Y163.860 E9.1259
G1 X99.945 Y163.860 E12.0107
G1 X99.802 Y163.854 E12.0180
G1 X99.501 Y163.801 E12.0334
G1 X99.233 Y163.703 E12.0478
G1 X98.986 Y163.561 E12.0622
G1 X98.768 Y163.377 E12.0766
G1 X98.584 Y163.159 E12.0910
G1 X98.442 Y162.912 E12.1054
G1 X98.337 Y162.625 E12.1208
G1 X98.315 Y162.523 E12.1261
G1 X98.286 Y162.193 E12.1428
G1 X98.286 Y158.661 E12.3212
G1 X98.736 Y158.981 E12.3491
G1 X99.020 Y159.149 E12.3658
G1 X99.316 Y159.295 E12.3825
G1 X99.623 Y159.417 E12.3992
G1 X99.939 Y159.514 E12.4159
G1 X100.261 Y159.586 E12.4325
G1 X100.588 Y159.631 E12.4492
G1 X100.917 Y159.651 E12.4659
G1 X101.247 Y159.645 E12.4826
G1 X101.576 Y159.612 E12.4992
G1 X101.901 Y159.553 E12.5159
G1 X102.220 Y159.469 E12.5326
G1 X102.532 Y159.359 E12.5493
G1 X102.833 Y159.225 E12.5659
G1 X103.123 Y159.068 E12.5826
G1 X103.400 Y158.888 E12.5993
G1 X103.662 Y158.686 E12.6160
G1 X103.907 Y158.465 E12.6326
G1 X104.133 Y158.225 E12.6493
G1 X104.339 Y157.967 E12.6660
G1 X104.525 Y157.694 E12.6827
G1 X104.688 Y157.407 E12.6993
G1 X104.828 Y157.108 E12.7160
G1 X104.944 Y156.799 E12.7327
G1 X105.034 Y156.481 E12.7494
G1 X105.100 Y156.158 E12.7660
G1 X105.139 Y155.830 E12.7827
G1 X105.152 Y155.500 E12.7994
G1 X105.139 Y155.170 E12.8161
G1 X105.100 Y154.842 E12.8328
G1 X105.034 Y154.519 E12.8494
G1 X104.944 Y154.201 E12.8661
G1 X104.828 Y153.892 E12.8828
G1 X104.688 Y153.593 E12.8995
G1 X104.525 Y153.306 E12.9161
G1 X104.339 Y153.033 E12.9328
G1 X104.133 Y152.775 E12.9495
G1 X103.907 Y152.535 E12.9662
G1 X103.662 Y152.314 E12.9828
G1 X103.400 Y152.112 E12.9995
G1 X103.123 Y151.932 E13.0162
G1 X102.833 Y151.775 E13.0329
G1 X102.531 Y151.641 E13.0495
G1 X102.220 Y151.531 E13.0662
G1 X101.901 Y151.447 E13.0829
G1 X101.576 Y151.388 E13.0996
G1 X101.247 Y151.355 E13.1162
G1 X100.917 Y151.349 E13.1329
G1 X100.588 Y151.369 E13.1496
G1 X100.261 Y151.414 E13.1663
G1 X99.939 Y151.486 E13.1830
G1 X99.623 Y151.583 E13.1996
