; G-Code generated by Simplify3D(R) Version 4.1.2
; Apr 3, 2021 at 11:50:29 PM
; Settings Summary
;   processName,Process1
;   applyToModels,TOOL HOLDER v5
;   profileName,NORMAL (modified)
;   profileVersion,2020-12-15 15:32:42
;   baseProfile,Wanhao Duplicator 5S Mini
;   printMaterial,PLA
;   printQuality,0.2
;   printExtruders,
;   extruderName,Primary Extruder
;   extruderToolheadNumber,0
;   extruderDiameter,0.3
;   extruderAutoWidth,1
;   extruderWidth,0.36
;   extrusionMultiplier,0.9
;   extruderUseRetract,1
;   extruderRetractionDistance,5
;   extruderExtraRestartDistance,0
;   extruderRetractionZLift,0
;   extruderRetractionSpeed,3000
;   extruderUseCoasting,0
;   extruderCoastingDistance,1.5
;   extruderUseWipe,0
;   extruderWipeDistance,5
;   primaryExtruder,0
;   layerHeight,0.2
;   topSolidLayers,3
;   bottomSolidLayers,3
;   perimeterOutlines,4
;   printPerimetersInsideOut,1
;   startPointOption,3
;   startPointOriginX,0
;   startPointOriginY,0
;   sequentialIslands,0
;   spiralVaseMode,0
;   firstLayerHeightPercentage,150
;   firstLayerWidthPercentage,100
;   firstLayerUnderspeed,0.5
;   useRaft,0
;   raftExtruder,0
;   raftTopLayers,3
;   raftBaseLayers,2
;   raftOffset,3
;   raftSeparationDistance,0.14
;   raftTopInfill,100
;   aboveRaftSpeedMultiplier,0.3
;   useSkirt,1
;   skirtExtruder,0
;   skirtLayers,2
;   skirtOutlines,2
;   skirtOffset,4
;   usePrimePillar,0
;   primePillarExtruder,999
;   primePillarWidth,12
;   primePillarLocation,7
;   primePillarSpeedMultiplier,1
;   useOozeShield,0
;   oozeShieldExtruder,999
;   oozeShieldOffset,2
;   oozeShieldOutlines,1
;   oozeShieldSidewallShape,1
;   oozeShieldSidewallAngle,30
;   oozeShieldSpeedMultiplier,1
;   infillExtruder,0
;   internalInfillPattern,Triangular
;   externalInfillPattern,Rectilinear
;   infillPercentage,30
;   outlineOverlapPercentage,15
;   infillExtrusionWidthPercentage,150
;   minInfillLength,5
;   infillLayerInterval,1
;   internalInfillAngles,0,60,-60
;   overlapInternalInfillAngles,1
;   externalInfillAngles,45,-45
;   generateSupport,1
;   supportExtruder,0
;   supportInfillPercentage,40
;   supportExtraInflation,1
;   supportBaseLayers,0
;   denseSupportExtruder,0
;   denseSupportLayers,0
;   denseSupportInfillPercentage,70
;   supportLayerInterval,1
;   supportHorizontalPartOffset,1
;   supportUpperSeparationLayers,1
;   supportLowerSeparationLayers,1
;   supportType,0
;   supportGridSpacing,4
;   maxOverhangAngle,45
;   supportAngles,0
;   temperatureName,Primary Extruder
;   temperatureNumber,0
;   temperatureSetpointCount,2
;   temperatureSetpointLayers,1,5
;   temperatureSetpointTemperatures,220,210
;   temperatureStabilizeAtStartup,1
;   temperatureHeatedBed,0
;   fanLayers,1,2
;   fanSpeeds,100,100
;   blipFanToFullPower,0
;   adjustSpeedForCooling,1
;   minSpeedLayerTime,7
;   minCoolingSpeedSlowdown,20
;   increaseFanForCooling,0
;   minFanLayerTime,45
;   maxCoolingFanSpeed,100
;   increaseFanForBridging,0
;   bridgingFanSpeed,100
;   use5D,1
;   relativeEdistances,0
;   allowEaxisZeroing,1
;   independentExtruderAxes,0
;   includeM10123,0
;   stickySupport,1
;   applyToolheadOffsets,0
;   gcodeXoffset,0
;   gcodeYoffset,0
;   gcodeZoffset,0
;   overrideMachineDefinition,0
;   machineTypeOverride,0
;   strokeXoverride,305
;   strokeYoverride,205
;   strokeZoverride,205
;   originOffsetXoverride,0
;   originOffsetYoverride,0
;   originOffsetZoverride,0
;   homeXdirOverride,-1
;   homeYdirOverride,-1
;   homeZdirOverride,-1
;   flipXoverride,1
;   flipYoverride,-1
;   flipZoverride,1
;   toolheadOffsets,0,0|0,0|0,0|0,0|0,0|0,0
;   overrideFirmwareConfiguration,1
;   firmwareTypeOverride,RepRap (Marlin/Repetier/Sprinter)
;   GPXconfigOverride,r2
;   baudRateOverride,115200
;   overridePrinterModels,1
;   printerModelsOverride
;   startingGcode,G28 ; home all axes,G1 Z 2 ; set height for prime line,G92 E0 ; zero extruder,G1 X150 E30 F400 ; prime line
;   layerChangeGcode,
;   retractionGcode,
;   toolChangeGcode,
;   endingGcode,G28 X0 ; home X axis,M104 S0 ; turn off extruder,M84 ; disable motors
;   exportFileFormat,gcode
;   celebration,0
;   celebrationSong,Random Song
;   postProcessing,
;   defaultSpeed,2400
;   outlineUnderspeed,0.5
;   solidInfillUnderspeed,0.8
;   supportUnderspeed,0.8
;   rapidXYspeed,2400
;   rapidZspeed,900
;   minBridgingArea,50
;   bridgingExtraInflation,0
;   bridgingExtrusionMultiplier,1
;   bridgingSpeedMultiplier,1
;   useFixedBridgingAngle,0
;   fixedBridgingAngle,0
;   applyBridgingToPerimeters,0
;   filamentDiameters,1.75|3|3|3|3|3
;   filamentPricesPerKg,46|46|46|46|46|46
;   filamentDensities,1.25|1.25|1.25|1.25|1.25|1.25
;   useMinPrintHeight,0
;   minPrintHeight,0
;   useMaxPrintHeight,0
;   maxPrintHeight,0
;   useDiaphragm,0
;   diaphragmLayerInterval,20
;   robustSlicing,1
;   mergeAllIntoSolid,0
;   onlyRetractWhenCrossingOutline,1
;   retractBetweenLayers,1
;   useRetractionMinTravel,1
;   retractionMinTravel,3
;   retractWhileWiping,0
;   onlyWipeOutlines,1
;   avoidCrossingOutline,1
;   maxMovementDetourFactor,3
;   toolChangeRetractionDistance,12
;   toolChangeExtraRestartDistance,-0.5
;   toolChangeRetractionSpeed,600
;   externalThinWallType,0
;   internalThinWallType,2
;   thinWallAllowedOverlapPercentage,10
;   singleExtrusionMinLength,1
;   singleExtrusionMinPrintingWidthPercentage,50
;   singleExtrusionMaxPrintingWidthPercentage,200
;   singleExtrusionEndpointExtension,0
;   horizontalSizeCompensation,0
G90
M82
M106 S255
M104 S220 T0
M109 S220 T0
G28 ; home all axes
G1 Z 2 ; set height for prime line
G92 E0 ; zero extruder
G1 X150 E30 F400 ; prime line
; process Process1
; layer 1, Z = 0.300
T0
G92 E0.0000
G1 E-5.0000 F3000
; feature skirt
; tool H0.300 W0.360
G1 Z0.300 F900
G1 X104.740 Y83.399 F2400
G1 E0.0000 F3000
G92 E0.0000
G1 X107.399 Y80.740 E0.1520 F1200
G1 X125.601 Y80.740 E0.8875
G1 X126.500 Y81.639 E0.9389
G1 X127.399 Y80.740 E0.9903
G1 X145.601 Y80.740 E1.7258
G1 X148.260 Y83.399 E1.8778
G1 X148.260 Y109.600 E2.9366
G1 X145.601 Y112.260 E3.0886
G1 X144.260 Y112.260 E3.1428
G1 X144.260 Y128.464 E3.7976
G1 X158.321 Y128.464 E4.3658
G1 X160.980 Y131.124 E4.5178
G1 X160.980 Y150.125 E5.2857
G1 X158.321 Y152.784 E5.4377
G1 X98.679 Y152.784 E7.8478
G1 X96.020 Y150.125 E7.9998
G1 X96.020 Y131.124 E8.7677
G1 X98.679 Y128.464 E8.9197
G1 X108.740 Y128.464 E9.3262
G1 X108.740 Y112.260 E9.9811
G1 X107.399 Y112.260 E10.0352
G1 X104.740 Y109.600 E10.1872
G1 X104.740 Y83.399 E11.2460
G1 X105.100 Y83.549 F2400
G92 E0.0000
G1 X107.549 Y81.100 E0.1399 F1200
G1 X125.451 Y81.100 E0.8634
G1 X126.500 Y82.149 E0.9233
G1 X127.549 Y81.100 E0.9833
G1 X145.451 Y81.100 E1.7067
G1 X147.900 Y83.549 E1.8467
G1 X147.900 Y109.451 E2.8934
G1 X145.451 Y111.900 E3.0334
G1 X143.900 Y111.900 E3.0961
G1 X143.900 Y128.824 E3.7800
G1 X158.171 Y128.824 E4.3567
G1 X160.620 Y131.273 E4.4967
G1 X160.620 Y149.976 E5.2525
G1 X158.171 Y152.424 E5.3924
G1 X98.829 Y152.424 E7.7905
G1 X96.380 Y149.976 E7.9304
G1 X96.380 Y131.273 E8.6862
G1 X98.829 Y128.824 E8.8262
G1 X109.100 Y128.824 E9.2413
G1 X109.100 Y111.900 E9.9252
G1 X107.549 Y111.900 E9.9879
G1 X105.100 Y109.451 E10.1278
G1 X105.100 Y83.549 E11.1746
G92 E0.0000
G1 E-5.0000 F3000
; feature inner perimeter
G1 X119.790 Y115.404 F2400
G1 X120.353 Y115.404
G1 X120.870 Y116.484
G1 E0.0000 F3000
G92 E0.0000
G1 X131.050 Y116.484 E0.4114 F900
G1 X131.050 Y134.264 E1.1299
G1 X155.180 Y134.264 E2.1050
G1 X155.180 Y146.984 E2.6190
G1 X101.820 Y146.984 E4.7754
G1 X101.820 Y134.264 E5.2894
G1 X120.870 Y134.264 E6.0592
G1 X120.870 Y116.484 E6.7777
G1 X120.510 Y116.124 F2400
G92 E0.0000
G1 X131.410 Y116.124 E0.4405 F900
G1 X131.410 Y133.904 E1.1590
G1 X155.540 Y133.904 E2.1341
G1 X155.540 Y147.344 E2.6772
G1 X101.460 Y147.344 E4.8627
G1 X101.460 Y133.904 E5.4058
G1 X120.510 Y133.904 E6.1756
G1 X120.510 Y116.124 E6.8941
G1 X120.150 Y115.764 F2400
G92 E0.0000
G1 X131.770 Y115.764 E0.4696 F900
G1 X131.770 Y133.544 E1.1881
G1 X155.900 Y133.544 E2.1632
G1 X155.900 Y147.704 E2.7354
G1 X101.100 Y147.704 E4.9500
G1 X101.100 Y133.544 E5.5222
G1 X120.150 Y133.544 E6.2920
G1 X120.150 Y115.764 E7.0105
; feature outer perimeter
G1 X119.790 Y115.404 F2400
G92 E0.0000
G1 X132.130 Y115.404 E0.4987 F600
G1 X132.130 Y133.184 E1.2172
G1 X156.260 Y133.184 E2.1923
G1 X156.260 Y148.064 E2.7936
G1 X100.740 Y148.064 E5.0372
G1 X100.740 Y133.184 E5.6386
G1 X119.790 Y133.184 E6.4084
G1 X119.790 Y115.404 E7.1269
; feature solid layer
G1 X121.176 Y125.468 F2400
G92 E0.0000
G1 X142.387 Y146.678 E1.2122 F960
G1 X141.878 Y146.678 E1.2328
G1 X121.176 Y125.977 E2.4158
G1 X121.176 Y126.486 E2.4364
G1 X141.368 Y146.678 E3.5904
G1 X140.859 Y146.678 E3.6110
G1 X121.176 Y126.995 E4.7359
G1 X121.176 Y127.504 E4.7565
G1 X140.350 Y146.678 E5.8523
G1 X139.841 Y146.678 E5.8728
G1 X121.176 Y128.013 E6.9395
G1 X121.176 Y128.522 E6.9601
G1 X139.332 Y146.678 E7.9977
G1 X138.823 Y146.678 E8.0183
G1 X121.176 Y129.032 E9.0268
G1 X121.176 Y129.541 E9.0474
G1 X138.314 Y146.678 E10.0268
G1 X137.805 Y146.678 E10.0474
G1 X121.176 Y130.050 E10.9977
G1 X121.176 Y130.559 E11.0183
G1 X137.295 Y146.678 E11.9395
G1 X136.786 Y146.678 E11.9601
G1 X121.176 Y131.068 E12.8522
G1 X121.176 Y131.577 E12.8728
G1 X136.277 Y146.678 E13.7358
G1 X135.768 Y146.678 E13.7564
G1 X121.176 Y132.086 E14.5903
G1 X121.176 Y132.595 E14.6109
G1 X135.259 Y146.678 E15.4157
G1 X134.750 Y146.678 E15.4363
G1 X121.176 Y133.104 E16.2121
G1 X121.176 Y133.614 E16.2326
G1 X134.241 Y146.678 E16.9793
G1 X133.732 Y146.678 E16.9999
G1 X121.176 Y134.123 E17.7174
G1 X121.176 Y134.570 E17.7355
G1 X121.115 Y134.570 E17.7380
G1 X133.223 Y146.678 E18.4300
G1 X132.713 Y146.678 E18.4505
G1 X120.605 Y134.570 E19.1425
G1 X120.096 Y134.570 E19.1631
G1 X132.204 Y146.678 E19.8550
G1 X131.695 Y146.678 E19.8756
G1 X119.587 Y134.570 E20.5676
G1 X119.078 Y134.570 E20.5882
G1 X131.186 Y146.678 E21.2801
G1 X130.677 Y146.678 E21.3007
G1 X118.569 Y134.570 E21.9927
G1 X118.060 Y134.570 E22.0132
G1 X130.168 Y146.678 E22.7052
G1 X129.659 Y146.678 E22.7258
G1 X117.551 Y134.570 E23.4178
G1 X117.042 Y134.570 E23.4383
G1 X129.150 Y146.678 E24.1303
G1 X128.640 Y146.678 E24.1509
G1 X116.532 Y134.570 E24.8429
G1 X116.023 Y134.570 E24.8634
G1 X128.131 Y146.678 E25.5554
G1 X127.622 Y146.678 E25.5760
G1 X115.514 Y134.570 E26.2679
G1 X115.005 Y134.570 E26.2885
G1 X127.113 Y146.678 E26.9805
G1 X126.604 Y146.678 E27.0011
G1 X114.496 Y134.570 E27.6930
G1 X113.987 Y134.570 E27.7136
G1 X126.095 Y146.678 E28.4056
G1 X125.586 Y146.678 E28.4261
G1 X113.478 Y134.570 E29.1181
G1 X112.969 Y134.570 E29.1387
G1 X125.077 Y146.678 E29.8307
G1 X124.568 Y146.678 E29.8512
G1 X112.460 Y134.570 E30.5432
G1 X111.950 Y134.570 E30.5638
G1 X124.058 Y146.678 E31.2557
G1 X123.549 Y146.678 E31.2763
G1 X111.441 Y134.570 E31.9683
G1 X110.932 Y134.570 E31.9889
G1 X123.040 Y146.678 E32.6808
G1 X122.531 Y146.678 E32.7014
G1 X110.423 Y134.570 E33.3934
G1 X109.914 Y134.570 E33.4140
G1 X122.022 Y146.678 E34.1059
G1 X121.513 Y146.678 E34.1265
G1 X109.405 Y134.570 E34.8185
G1 X108.896 Y134.570 E34.8390
G1 X121.004 Y146.678 E35.5310
G1 X120.495 Y146.678 E35.5516
G1 X108.387 Y134.570 E36.2436
G1 X107.878 Y134.570 E36.2641
G1 X119.985 Y146.678 E36.9561
G1 X119.476 Y146.678 E36.9767
G1 X107.368 Y134.570 E37.6686
G1 X106.859 Y134.570 E37.6892
G1 X118.967 Y146.678 E38.3812
G1 X118.458 Y146.678 E38.4018
G1 X106.350 Y134.570 E39.0937
G1 X105.841 Y134.570 E39.1143
G1 X117.949 Y146.678 E39.8063
G1 X117.440 Y146.678 E39.8269
G1 X105.332 Y134.570 E40.5188
G1 X104.823 Y134.570 E40.5394
G1 X116.931 Y146.678 E41.2314
G1 X116.422 Y146.678 E41.2519
G1 X104.314 Y134.570 E41.9439
G1 X103.805 Y134.570 E41.9645
G1 X115.913 Y146.678 E42.6565
G1 X115.403 Y146.678 E42.6770
G1 X103.295 Y134.570 E43.3690
G1 X102.786 Y134.570 E43.3896
G1 X114.894 Y146.678 E44.0815
G1 X114.385 Y146.678 E44.1021
G1 X102.277 Y134.570 E44.7941
G1 X102.126 Y134.570 E44.8002
G1 X102.126 Y134.928 E44.8147
G1 X113.876 Y146.678 E45.4862
G1 X113.367 Y146.678 E45.5068
G1 X102.126 Y135.437 E46.1492
G1 X102.126 Y135.946 E46.1697
G1 X112.858 Y146.678 E46.7831
G1 X112.349 Y146.678 E46.8036
G1 X102.126 Y136.456 E47.3879
G1 X102.126 Y136.965 E47.4084
G1 X111.840 Y146.678 E47.9636
G1 X111.331 Y146.678 E47.9842
G1 X102.126 Y137.474 E48.5102
G1 X102.126 Y137.983 E48.5308
G1 X110.821 Y146.678 E49.0277
G1 X110.312 Y146.678 E49.0483
G1 X102.126 Y138.492 E49.5161
G1 X102.126 Y139.001 E49.5367
G1 X109.803 Y146.678 E49.9754
G1 X109.294 Y146.678 E49.9960
G1 X102.126 Y139.510 E50.4057
G1 X102.126 Y140.019 E50.4262
G1 X108.785 Y146.678 E50.8068
G1 X108.276 Y146.678 E50.8274
G1 X102.126 Y140.529 E51.1788
G1 X102.126 Y141.038 E51.1994
G1 X107.767 Y146.678 E51.5218
G1 X107.258 Y146.678 E51.5424
G1 X102.126 Y141.547 E51.8356
G1 X102.126 Y142.056 E51.8562
G1 X106.748 Y146.678 E52.1204
G1 X106.239 Y146.678 E52.1409
G1 X102.126 Y142.565 E52.3760
G1 X102.126 Y143.074 E52.3966
G1 X105.730 Y146.678 E52.6026
G1 X105.221 Y146.678 E52.6232
G1 X102.126 Y143.583 E52.8000
G1 X102.126 Y144.092 E52.8206
G1 X104.712 Y146.678 E52.9684
G1 X104.203 Y146.678 E52.9890
G1 X102.126 Y144.601 E53.1077
G1 X102.126 Y145.111 E53.1282
G1 X103.694 Y146.678 E53.2178
G1 X103.185 Y146.678 E53.2384
G1 X102.126 Y145.620 E53.2989
G1 X102.126 Y146.129 E53.3195
G1 X102.676 Y146.678 E53.3509
G1 X102.166 Y146.678 E53.3715
G1 X102.126 Y146.638 E53.3738
G1 X114.833 Y133.184 F2400
G1 X119.790 Y133.184
G1 X119.790 Y127.936
G1 X130.318 Y116.790
G92 E0.0000
G1 X130.744 Y117.217 E0.0244 F960
G1 X130.744 Y117.726 E0.0449
G1 X129.809 Y116.790 E0.0984
G1 X129.299 Y116.790 E0.1190
G1 X130.744 Y118.235 E0.2015
G1 X130.744 Y118.744 E0.2221
G1 X128.790 Y116.790 E0.3337
G1 X128.281 Y116.790 E0.3543
G1 X130.744 Y119.253 E0.4951
G1 X130.744 Y119.762 E0.5156
G1 X127.772 Y116.790 E0.6855
G1 X127.263 Y116.790 E0.7060
G1 X130.744 Y120.271 E0.9050
G1 X130.744 Y120.780 E0.9256
G1 X126.754 Y116.790 E1.1536
G1 X126.245 Y116.790 E1.1742
G1 X130.744 Y121.290 E1.4313
G1 X130.744 Y121.799 E1.4519
G1 X125.736 Y116.790 E1.7381
G1 X125.227 Y116.790 E1.7587
G1 X130.744 Y122.308 E2.0740
G1 X130.744 Y122.817 E2.0946
G1 X124.717 Y116.790 E2.4390
G1 X124.208 Y116.790 E2.4596
G1 X130.744 Y123.326 E2.8331
G1 X130.744 Y123.835 E2.8536
G1 X123.699 Y116.790 E3.2562
G1 X123.190 Y116.790 E3.2768
G1 X130.744 Y124.344 E3.7085
G1 X130.744 Y124.853 E3.7291
G1 X122.681 Y116.790 E4.1899
G1 X122.172 Y116.790 E4.2105
G1 X130.744 Y125.362 E4.7004
G1 X130.744 Y125.872 E4.7209
G1 X121.663 Y116.790 E5.2399
G1 X121.176 Y116.790 E5.2596
G1 X121.176 Y116.813 E5.2605
G1 X130.744 Y126.381 E5.8073
G1 X130.744 Y126.890 E5.8279
G1 X121.176 Y117.322 E6.3747
G1 X121.176 Y117.831 E6.3953
G1 X130.744 Y127.399 E6.9421
G1 X130.744 Y127.908 E6.9627
G1 X121.176 Y118.340 E7.5095
G1 X121.176 Y118.849 E7.5300
G1 X130.744 Y128.417 E8.0769
G1 X130.744 Y128.926 E8.0974
G1 X121.176 Y119.358 E8.6442
G1 X121.176 Y119.867 E8.6648
G1 X130.744 Y129.435 E9.2116
G1 X130.744 Y129.945 E9.2322
G1 X121.176 Y120.377 E9.7790
G1 X121.176 Y120.886 E9.7996
G1 X130.744 Y130.454 E10.3464
G1 X130.744 Y130.963 E10.3670
G1 X121.176 Y121.395 E10.9138
G1 X121.176 Y121.904 E10.9343
G1 X130.744 Y131.472 E11.4812
G1 X130.744 Y131.981 E11.5017
G1 X121.176 Y122.413 E12.0485
G1 X121.176 Y122.922 E12.0691
G1 X130.744 Y132.490 E12.6159
G1 X130.744 Y132.999 E12.6365
G1 X121.176 Y123.431 E13.1833
G1 X121.176 Y123.940 E13.2039
G1 X130.744 Y133.508 E13.7507
G1 X130.744 Y134.017 E13.7713
G1 X121.176 Y124.449 E14.3181
G1 X121.176 Y124.959 E14.3386
G1 X130.744 Y134.527 E14.8855
G1 X130.744 Y134.570 E14.8872
G1 X130.788 Y134.570 E14.8890
G1 X142.896 Y146.678 E15.5810
G1 X143.405 Y146.678 E15.6015
G1 X131.297 Y134.570 E16.2935
G1 X131.806 Y134.570 E16.3141
G1 X143.914 Y146.678 E17.0060
G1 X144.423 Y146.678 E17.0266
G1 X132.315 Y134.570 E17.7186
G1 X132.824 Y134.570 E17.7392
G1 X144.932 Y146.678 E18.4311
G1 X145.441 Y146.678 E18.4517
G1 X133.333 Y134.570 E19.1437
G1 X133.842 Y134.570 E19.1643
G1 X145.950 Y146.678 E19.8562
G1 X146.460 Y146.678 E19.8768
G1 X134.352 Y134.570 E20.5688
G1 X134.861 Y134.570 E20.5893
