; G-Code generated by Simplify3D(R) Version 4.1.2
; Nov 29, 2020 at 5:09:09 PM
; Settings Summary
;   processName,Process1
;   applyToModels,Untitled v0
;   profileName,NORMAL (modified)
;   profileVersion,2020-11-20 15:29:24
;   baseProfile,Wanhao Duplicator 5S Mini
;   printMaterial,PLA
;   printQuality,0.25
;   printExtruders,
;   extruderName,Primary Extruder
;   extruderToolheadNumber,0
;   extruderDiameter,0.3
;   extruderAutoWidth,1
;   extruderWidth,0.36
;   extrusionMultiplier,0.87
;   extruderUseRetract,1
;   extruderRetractionDistance,7.5
;   extruderExtraRestartDistance,0
;   extruderRetractionZLift,0
;   extruderRetractionSpeed,3000
;   extruderUseCoasting,1
;   extruderCoastingDistance,3
;   extruderUseWipe,0
;   extruderWipeDistance,5
;   primaryExtruder,0
;   layerHeight,0.25
;   topSolidLayers,3
;   bottomSolidLayers,3
;   perimeterOutlines,3
;   printPerimetersInsideOut,1
;   startPointOption,3
;   startPointOriginX,0
;   startPointOriginY,0
;   sequentialIslands,0
;   spiralVaseMode,0
;   firstLayerHeightPercentage,150
;   firstLayerWidthPercentage,100
;   firstLayerUnderspeed,0.5
;   useRaft,0
;   raftExtruder,0
;   raftTopLayers,3
;   raftBaseLayers,2
;   raftOffset,3
;   raftSeparationDistance,0.14
;   raftTopInfill,100
;   aboveRaftSpeedMultiplier,0.3
;   useSkirt,1
;   skirtExtruder,0
;   skirtLayers,2
;   skirtOutlines,2
;   skirtOffset,4
;   usePrimePillar,0
;   primePillarExtruder,999
;   primePillarWidth,12
;   primePillarLocation,7
;   primePillarSpeedMultiplier,1
;   useOozeShield,0
;   oozeShieldExtruder,999
;   oozeShieldOffset,2
;   oozeShieldOutlines,1
;   oozeShieldSidewallShape,1
;   oozeShieldSidewallAngle,30
;   oozeShieldSpeedMultiplier,1
;   infillExtruder,0
;   internalInfillPattern,Triangular
;   externalInfillPattern,Rectilinear
;   infillPercentage,40
;   outlineOverlapPercentage,15
;   infillExtrusionWidthPercentage,150
;   minInfillLength,5
;   infillLayerInterval,1
;   internalInfillAngles,0,60,-60
;   overlapInternalInfillAngles,1
;   externalInfillAngles,45,-45
;   generateSupport,0
;   supportExtruder,0
;   supportInfillPercentage,40
;   supportExtraInflation,1
;   supportBaseLayers,0
;   denseSupportExtruder,0
;   denseSupportLayers,0
;   denseSupportInfillPercentage,70
;   supportLayerInterval,1
;   supportHorizontalPartOffset,1
;   supportUpperSeparationLayers,1
;   supportLowerSeparationLayers,1
;   supportType,0
;   supportGridSpacing,4
;   maxOverhangAngle,45
;   supportAngles,0
;   temperatureName,Primary Extruder
;   temperatureNumber,0
;   temperatureSetpointCount,2
;   temperatureSetpointLayers,1,5
;   temperatureSetpointTemperatures,220,210
;   temperatureStabilizeAtStartup,1
;   temperatureHeatedBed,0
;   fanLayers,1,2
;   fanSpeeds,100,100
;   blipFanToFullPower,0
;   adjustSpeedForCooling,1
;   minSpeedLayerTime,7
;   minCoolingSpeedSlowdown,20
;   increaseFanForCooling,0
;   minFanLayerTime,45
;   maxCoolingFanSpeed,100
;   increaseFanForBridging,0
;   bridgingFanSpeed,100
;   use5D,1
;   relativeEdistances,0
;   allowEaxisZeroing,1
;   independentExtruderAxes,0
;   includeM10123,0
;   stickySupport,1
;   applyToolheadOffsets,0
;   gcodeXoffset,0
;   gcodeYoffset,0
;   gcodeZoffset,0
;   overrideMachineDefinition,0
;   machineTypeOverride,0
;   strokeXoverride,305
;   strokeYoverride,205
;   strokeZoverride,205
;   originOffsetXoverride,0
;   originOffsetYoverride,0
;   originOffsetZoverride,0
;   homeXdirOverride,-1
;   homeYdirOverride,-1
;   homeZdirOverride,-1
;   flipXoverride,1
;   flipYoverride,-1
;   flipZoverride,1
;   toolheadOffsets,0,0|0,0|0,0|0,0|0,0|0,0
;   overrideFirmwareConfiguration,1
;   firmwareTypeOverride,RepRap (Marlin/Repetier/Sprinter)
;   GPXconfigOverride,r2
;   baudRateOverride,115200
;   overridePrinterModels,1
;   printerModelsOverride
;   startingGcode,G28 ; home all axes,G1 Z 2 ; set height for prime line,G92 E0 ; zero extruder,G1 X150 E30 F400 ; prime line
;   layerChangeGcode,
;   retractionGcode,
;   toolChangeGcode,
;   endingGcode,G28 X0 ; home X axis,M104 S0 ; turn off extruder,M84 ; disable motors
;   exportFileFormat,gcode
;   celebration,0
;   celebrationSong,Random Song
;   postProcessing,
;   defaultSpeed,2400
;   outlineUnderspeed,0.5
;   solidInfillUnderspeed,0.8
;   supportUnderspeed,0.8
;   rapidXYspeed,2400
;   rapidZspeed,900
;   minBridgingArea,50
;   bridgingExtraInflation,0
;   bridgingExtrusionMultiplier,1
;   bridgingSpeedMultiplier,1
;   useFixedBridgingAngle,0
;   fixedBridgingAngle,0
;   applyBridgingToPerimeters,0
;   filamentDiameters,1.75|3|3|3|3|3
;   filamentPricesPerKg,46|46|46|46|46|46
;   filamentDensities,1.25|1.25|1.25|1.25|1.25|1.25
;   useMinPrintHeight,0
;   minPrintHeight,0
;   useMaxPrintHeight,0
;   maxPrintHeight,0
;   useDiaphragm,0
;   diaphragmLayerInterval,20
;   robustSlicing,1
;   mergeAllIntoSolid,0
;   onlyRetractWhenCrossingOutline,1
;   retractBetweenLayers,1
;   useRetractionMinTravel,1
;   retractionMinTravel,3
;   retractWhileWiping,0
;   onlyWipeOutlines,1
;   avoidCrossingOutline,1
;   maxMovementDetourFactor,3
;   toolChangeRetractionDistance,12
;   toolChangeExtraRestartDistance,-0.5
;   toolChangeRetractionSpeed,600
;   externalThinWallType,0
;   internalThinWallType,2
;   thinWallAllowedOverlapPercentage,10
;   singleExtrusionMinLength,1
;   singleExtrusionMinPrintingWidthPercentage,50
;   singleExtrusionMaxPrintingWidthPercentage,200
;   singleExtrusionEndpointExtension,0
;   horizontalSizeCompensation,0
G90
M82
M106 S255
M104 S220 T0
M109 S220 T0
G28 ; home all axes
G1 Z 2 ; set height for prime line
G92 E0 ; zero extruder
G1 X150 E30 F400 ; prime line
; process Process1
; layer 1, Z = 0.375
T0
G92 E0.0000
G1 E-7.5000 F3000
; feature skirt
; tool H0.375 W0.360
G1 Z0.375 F900
G1 X121.770 Y110.106 F2400
G1 E0.0000 F3000
G92 E0.0000
G1 X121.934 Y109.939 E0.0114 F1200
G1 X122.464 Y109.448 E0.0467
G1 X122.644 Y109.298 E0.0582
G1 X123.245 Y108.846 E0.0949
G1 X123.490 Y108.686 E0.1092
G1 X124.382 Y108.181 E0.1592
G1 X124.646 Y108.054 E0.1735
G1 X125.343 Y107.771 E0.2102
G1 X125.564 Y107.694 E0.2217
G1 X126.257 Y107.492 E0.2569
G1 X126.484 Y107.439 E0.2683
G1 X127.191 Y107.310 E0.3034
G1 X127.422 Y107.280 E0.3148
G1 X128.142 Y107.224 E0.3500
G1 X128.376 Y107.218 E0.3615
G1 X129.098 Y107.237 E0.3968
G1 X129.332 Y107.255 E0.4082
G1 X130.048 Y107.347 E0.4435
G1 X130.278 Y107.389 E0.4549
G1 X131.006 Y107.561 E0.4914
G1 X131.285 Y107.646 E0.5056
G1 X132.248 Y108.009 E0.5559
G1 X132.516 Y108.130 E0.5702
G1 X133.180 Y108.483 E0.6070
G1 X133.381 Y108.604 E0.6184
G1 X133.980 Y109.007 E0.6537
G1 X134.166 Y109.147 E0.6651
G1 X134.718 Y109.607 E0.7001
G1 X134.889 Y109.766 E0.7115
G1 X135.393 Y110.283 E0.7468
G1 X135.548 Y110.459 E0.7582
G1 X135.996 Y111.025 E0.7935
G1 X136.132 Y111.216 E0.8049
G1 X136.520 Y111.826 E0.8402
G1 X136.635 Y112.030 E0.8517
G1 X136.958 Y112.676 E0.8869
G1 X137.052 Y112.890 E0.8983
G1 X137.316 Y113.589 E0.9349
G1 X137.401 Y113.869 E0.9491
G1 X137.638 Y114.870 E0.9994
G1 X137.687 Y115.160 E1.0137
G1 X137.764 Y115.909 E1.0505
G1 X137.776 Y116.142 E1.0619
G1 X137.776 Y116.865 E1.0972
G1 X137.763 Y117.097 E1.1085
G1 X137.690 Y117.812 E1.1436
G1 X137.654 Y118.042 E1.1550
G1 X137.506 Y118.749 E1.1903
G1 X137.447 Y118.976 E1.2017
G1 X137.227 Y119.664 E1.2370
G1 X137.144 Y119.883 E1.2484
G1 X136.855 Y120.545 E1.2837
G1 X136.750 Y120.755 E1.2951
G1 X136.394 Y121.383 E1.3304
G1 X136.269 Y121.580 E1.3418
G1 X135.836 Y122.190 E1.3783
G1 X135.652 Y122.417 E1.3926
G1 X134.953 Y123.172 E1.4428
G1 X134.741 Y123.373 E1.4571
G1 X134.166 Y123.853 E1.4936
G1 X133.980 Y123.993 E1.5050
G1 X133.381 Y124.396 E1.5403
G1 X133.180 Y124.517 E1.5517
G1 X132.542 Y124.856 E1.5870
G1 X132.330 Y124.956 E1.5984
G1 X131.661 Y125.228 E1.6337
G1 X131.440 Y125.305 E1.6452
G1 X130.746 Y125.507 E1.6804
G1 X130.519 Y125.561 E1.6919
G1 X129.783 Y125.695 E1.7284
G1 X129.493 Y125.729 E1.7426
G1 X128.465 Y125.782 E1.7929
G1 X128.172 Y125.778 E1.8072
G1 X127.422 Y125.720 E1.8439
G1 X127.191 Y125.690 E1.8553
G1 X126.484 Y125.561 E1.8904
G1 X126.257 Y125.508 E1.9018
G1 X125.564 Y125.306 E1.9371
G1 X125.343 Y125.229 E1.9485
G1 X124.645 Y124.946 E1.9852
G1 X124.381 Y124.818 E1.9996
G1 X123.486 Y124.311 E2.0498
G1 X123.241 Y124.151 E2.0641
G1 X122.643 Y123.702 E2.1006
G1 X122.464 Y123.552 E2.1120
G1 X121.934 Y123.061 E2.1473
G1 X121.770 Y122.894 E2.1587
G1 X121.293 Y122.351 E2.1940
G1 X121.148 Y122.167 E2.2054
G1 X120.729 Y121.578 E2.2407
G1 X120.604 Y121.381 E2.2522
G1 X120.248 Y120.752 E2.2874
G1 X120.144 Y120.543 E2.2988
G1 X119.857 Y119.885 E2.3339
G1 X119.774 Y119.667 E2.3453
G1 X119.554 Y118.979 E2.3805
G1 X119.495 Y118.753 E2.3920
G1 X119.347 Y118.045 E2.4273
G1 X119.310 Y117.812 E2.4388
G1 X119.236 Y117.090 E2.4742
G1 X119.224 Y116.857 E2.4856
G1 X119.224 Y116.143 E2.5205
G1 X119.236 Y115.910 E2.5318
G1 X119.310 Y115.188 E2.5673
G1 X119.347 Y114.955 E2.5788
G1 X119.495 Y114.247 E2.6141
G1 X119.554 Y114.021 E2.6256
G1 X119.774 Y113.332 E2.6609
G1 X119.857 Y113.113 E2.6723
G1 X120.147 Y112.452 E2.7075
G1 X120.251 Y112.243 E2.7189
G1 X120.604 Y111.618 E2.7540
G1 X120.730 Y111.422 E2.7654
G1 X121.148 Y110.833 E2.8007
G1 X121.293 Y110.649 E2.8121
G1 X121.770 Y110.106 E2.8474
G1 X122.035 Y110.351 F2400
G92 E0.0000
G1 X122.185 Y110.196 E0.0105 F1200
G1 X122.702 Y109.718 E0.0449
G1 X122.867 Y109.580 E0.0554
G1 X123.452 Y109.141 E0.0911
G1 X123.677 Y108.994 E0.1043
G1 X124.550 Y108.500 E0.1532
G1 X124.792 Y108.383 E0.1664
G1 X125.469 Y108.108 E0.2021
G1 X125.673 Y108.037 E0.2126
G1 X126.349 Y107.841 E0.2470
G1 X126.558 Y107.791 E0.2574
G1 X127.246 Y107.666 E0.2916
G1 X127.459 Y107.638 E0.3021
G1 X128.161 Y107.584 E0.3365
G1 X128.376 Y107.578 E0.3470
G1 X129.080 Y107.596 E0.3814
G1 X129.295 Y107.613 E0.3919
G1 X129.993 Y107.703 E0.4263
G1 X130.205 Y107.742 E0.4368
G1 X130.912 Y107.908 E0.4723
G1 X131.169 Y107.987 E0.4854
G1 X132.111 Y108.341 E0.5345
G1 X132.357 Y108.453 E0.5477
G1 X133.003 Y108.797 E0.5834
G1 X133.187 Y108.908 E0.5940
G1 X133.771 Y109.301 E0.6283
G1 X133.943 Y109.430 E0.6388
G1 X134.480 Y109.878 E0.6730
G1 X134.638 Y110.024 E0.6835
G1 X135.129 Y110.528 E0.7178
G1 X135.271 Y110.689 E0.7283
G1 X135.708 Y111.241 E0.7627
G1 X135.833 Y111.417 E0.7732
G1 X136.211 Y112.011 E0.8076
G1 X136.317 Y112.199 E0.8182
G1 X136.632 Y112.828 E0.8525
G1 X136.718 Y113.025 E0.8630
G1 X136.975 Y113.706 E0.8985
G1 X137.053 Y113.963 E0.9117
G1 X137.285 Y114.942 E0.9608
G1 X137.330 Y115.208 E0.9740
G1 X137.405 Y115.936 E1.0097
G1 X137.416 Y116.151 E1.0202
G1 X137.416 Y116.855 E1.0546
G1 X137.404 Y117.069 E1.0651
G1 X137.332 Y117.765 E1.0992
G1 X137.299 Y117.978 E1.1097
G1 X137.156 Y118.667 E1.1441
G1 X137.101 Y118.875 E1.1546
G1 X136.887 Y119.546 E1.1890
G1 X136.811 Y119.747 E1.1995
G1 X136.529 Y120.393 E1.2339
G1 X136.432 Y120.585 E1.2444
G1 X136.086 Y121.198 E1.2788
G1 X135.970 Y121.379 E1.2893
G1 X135.549 Y121.972 E1.3248
G1 X135.379 Y122.181 E1.3379
G1 X134.697 Y122.919 E1.3870
G1 X134.501 Y123.104 E1.4002
G1 X133.943 Y123.570 E1.4357
G1 X133.771 Y123.699 E1.4462
G1 X133.187 Y124.092 E1.4805
G1 X133.003 Y124.203 E1.4911
G1 X132.381 Y124.534 E1.5254
G1 X132.186 Y124.626 E1.5360
G1 X131.534 Y124.891 E1.5703
G1 X131.330 Y124.962 E1.5809
G1 X130.654 Y125.159 E1.6152
G1 X130.445 Y125.208 E1.6257
G1 X129.730 Y125.339 E1.6612
G1 X129.463 Y125.370 E1.6744
G1 X128.458 Y125.422 E1.7235
G1 X128.188 Y125.418 E1.7367
G1 X127.459 Y125.362 E1.7724
G1 X127.246 Y125.334 E1.7829
G1 X126.558 Y125.209 E1.8171
G1 X126.349 Y125.159 E1.8275
G1 X125.673 Y124.963 E1.8619
G1 X125.469 Y124.892 E1.8724
G1 X124.792 Y124.617 E1.9081
G1 X124.548 Y124.499 E1.9214
G1 X123.673 Y124.003 E1.9705
G1 X123.448 Y123.856 E1.9836
G1 X122.867 Y123.420 E2.0191
G1 X122.702 Y123.282 E2.0296
G1 X122.185 Y122.804 E2.0640
G1 X122.035 Y122.649 E2.0745
G1 X121.570 Y122.120 E2.1089
G1 X121.436 Y121.951 E2.1194
G1 X121.028 Y121.377 E2.1538
G1 X120.913 Y121.195 E2.1643
G1 X120.566 Y120.583 E2.1987
G1 X120.470 Y120.391 E2.2091
G1 X120.190 Y119.750 E2.2433
G1 X120.114 Y119.549 E2.2538
G1 X119.900 Y118.878 E2.2882
G1 X119.845 Y118.670 E2.2987
G1 X119.701 Y117.980 E2.3331
G1 X119.668 Y117.766 E2.3437
G1 X119.595 Y117.062 E2.3782
G1 X119.584 Y116.848 E2.3887
G1 X119.584 Y116.152 E2.4227
G1 X119.595 Y115.938 E2.4331
G1 X119.668 Y115.234 E2.4677
G1 X119.701 Y115.020 E2.4783
G1 X119.845 Y114.330 E2.5127
G1 X119.900 Y114.122 E2.5232
G1 X120.115 Y113.451 E2.5576
G1 X120.191 Y113.249 E2.5681
G1 X120.473 Y112.605 E2.6025
G1 X120.569 Y112.413 E2.6130
G1 X120.913 Y111.804 E2.6471
G1 X121.028 Y111.623 E2.6576
G1 X121.436 Y111.049 E2.6920
G1 X121.570 Y110.880 E2.7025
G1 X122.035 Y110.351 E2.7369
G92 E0.0000
G1 E-7.5000 F3000
; feature inner perimeter
G1 X125.835 Y114.188 F2400
G1 E0.0000 F3000
G92 E0.0000
G1 X126.096 Y113.917 E0.0184 F900
G1 X126.385 Y113.676 E0.0368
G1 X126.698 Y113.466 E0.0552
G1 X127.038 Y113.289 E0.0739
G1 X127.265 Y113.195 E0.0859
G1 X127.633 Y113.080 E0.1047
G1 X128.002 Y113.007 E0.1230
G1 X128.380 Y112.974 E0.1416
G1 X128.685 Y112.977 E0.1565
G1 X128.935 Y112.998 E0.1687
G1 X129.311 Y113.066 E0.1874
G1 X129.673 Y113.172 E0.2058
G1 X130.021 Y113.316 E0.2242
G1 X130.351 Y113.497 E0.2426
G1 X130.667 Y113.716 E0.2613
G1 X130.855 Y113.873 E0.2733
G1 X131.127 Y114.145 E0.2921
G1 X131.365 Y114.440 E0.3106
G1 X131.531 Y114.695 E0.3255
G1 X131.653 Y114.916 E0.3378
G1 X131.805 Y115.266 E0.3564
G1 X131.918 Y115.625 E0.3748
G1 X131.992 Y115.995 E0.3932
G1 X132.026 Y116.377 E0.4120
G1 X132.026 Y116.623 E0.4239
G1 X131.992 Y117.005 E0.4427
G1 X131.918 Y117.375 E0.4611
G1 X131.805 Y117.737 E0.4796
G1 X131.685 Y118.017 E0.4945
G1 X131.569 Y118.241 E0.5068
G1 X131.363 Y118.562 E0.5254
G1 X131.127 Y118.855 E0.5438
G1 X130.855 Y119.127 E0.5626
G1 X130.667 Y119.284 E0.5746
G1 X130.351 Y119.503 E0.5933
G1 X130.021 Y119.684 E0.6117
G1 X129.673 Y119.828 E0.6301
G1 X129.306 Y119.935 E0.6488
G1 X129.059 Y119.983 E0.6610
G1 X128.756 Y120.019 E0.6759
G1 X128.377 Y120.026 E0.6945
G1 X127.994 Y119.992 E0.7132
G1 X127.753 Y119.948 E0.7252
G1 X127.382 Y119.846 E0.7440
G1 X127.032 Y119.708 E0.7624
G1 X126.696 Y119.532 E0.7809
G1 X126.441 Y119.365 E0.7958
G1 X126.242 Y119.211 E0.8080
G1 X125.962 Y118.951 E0.8267
G1 X125.715 Y118.667 E0.8451
G1 X125.500 Y118.357 E0.8635
G1 X125.316 Y118.020 E0.8822
G1 X125.218 Y117.795 E0.8942
G1 X125.097 Y117.431 E0.9130
G1 X125.017 Y117.063 E0.9314
G1 X125.008 Y116.978 E0.9355
G1 X124.977 Y116.688 F900
G1 X124.977 Y116.312
G1 X125.018 Y115.931
G1 X125.067 Y115.685
G1 X125.150 Y115.393
G1 X125.292 Y115.032
G1 X125.402 Y114.812
G1 X125.604 Y114.485
G1 X125.835 Y114.188
G1 X125.563 Y113.952 F2400
G92 E0.0000
G1 X125.851 Y113.653 E0.0203 F900
G1 X126.169 Y113.387 E0.0405
G1 X126.514 Y113.156 E0.0608
G1 X126.886 Y112.962 E0.0813
G1 X127.143 Y112.856 E0.0948
G1 X127.544 Y112.731 E0.1154
G1 X127.951 Y112.650 E0.1356
G1 X128.366 Y112.614 E0.1560
G1 X128.702 Y112.617 E0.1724
G1 X128.982 Y112.641 E0.1861
G1 X129.394 Y112.715 E0.2066
G1 X129.792 Y112.832 E0.2268
G1 X130.176 Y112.991 E0.2471
G1 X130.540 Y113.190 E0.2674
G1 X130.885 Y113.429 E0.2878
G1 X131.099 Y113.607 E0.3014
G1 X131.395 Y113.904 E0.3219
G1 X131.657 Y114.229 E0.3423
G1 X131.840 Y114.510 E0.3587
G1 X131.976 Y114.756 E0.3724
G1 X132.143 Y115.140 E0.3928
G1 X132.267 Y115.536 E0.4131
G1 X132.348 Y115.943 E0.4334
G1 X132.386 Y116.361 E0.4539
G1 X132.386 Y116.639 E0.4674
G1 X132.348 Y117.057 E0.4879
G1 X132.267 Y117.464 E0.5082
G1 X132.143 Y117.862 E0.5285
G1 X132.010 Y118.171 E0.5450
G1 X131.881 Y118.421 E0.5587
G1 X131.655 Y118.773 E0.5791
G1 X131.395 Y119.096 E0.5994
G1 X131.099 Y119.393 E0.6199
G1 X130.885 Y119.571 E0.6335
G1 X130.540 Y119.810 E0.6540
G1 X130.176 Y120.009 E0.6742
G1 X129.792 Y120.168 E0.6945
G1 X129.391 Y120.285 E0.7149
G1 X129.115 Y120.339 E0.7287
G1 X128.781 Y120.379 E0.7451
G1 X128.364 Y120.386 E0.7654
G1 X127.946 Y120.349 E0.7859
G1 X127.673 Y120.300 E0.7995
G1 X127.268 Y120.188 E0.8200
G1 X126.882 Y120.036 E0.8402
G1 X126.513 Y119.843 E0.8606
G1 X126.232 Y119.658 E0.8770
G1 X126.009 Y119.486 E0.8907
G1 X125.703 Y119.201 E0.9112
