; G-Code generated by Simplify3D(R) Version 4.1.2
; Apr 3, 2021 at 11:09:53 AM
; Settings Summary
;   processName,Process1
;   applyToModels,Untitled v5
;   profileName,NORMAL
;   profileVersion,2020-12-15 15:32:42
;   baseProfile,Wanhao Duplicator 5S Mini
;   printMaterial,PLA
;   printQuality,0.2
;   printExtruders,
;   extruderName,Primary Extruder
;   extruderToolheadNumber,0
;   extruderDiameter,0.3
;   extruderAutoWidth,1
;   extruderWidth,0.36
;   extrusionMultiplier,0.9
;   extruderUseRetract,1
;   extruderRetractionDistance,5
;   extruderExtraRestartDistance,0
;   extruderRetractionZLift,0
;   extruderRetractionSpeed,3000
;   extruderUseCoasting,0
;   extruderCoastingDistance,1.5
;   extruderUseWipe,0
;   extruderWipeDistance,5
;   primaryExtruder,0
;   layerHeight,0.2
;   topSolidLayers,3
;   bottomSolidLayers,3
;   perimeterOutlines,3
;   printPerimetersInsideOut,1
;   startPointOption,3
;   startPointOriginX,0
;   startPointOriginY,0
;   sequentialIslands,0
;   spiralVaseMode,0
;   firstLayerHeightPercentage,150
;   firstLayerWidthPercentage,100
;   firstLayerUnderspeed,0.5
;   useRaft,0
;   raftExtruder,0
;   raftTopLayers,3
;   raftBaseLayers,2
;   raftOffset,3
;   raftSeparationDistance,0.14
;   raftTopInfill,100
;   aboveRaftSpeedMultiplier,0.3
;   useSkirt,1
;   skirtExtruder,0
;   skirtLayers,2
;   skirtOutlines,2
;   skirtOffset,4
;   usePrimePillar,0
;   primePillarExtruder,999
;   primePillarWidth,12
;   primePillarLocation,7
;   primePillarSpeedMultiplier,1
;   useOozeShield,0
;   oozeShieldExtruder,999
;   oozeShieldOffset,2
;   oozeShieldOutlines,1
;   oozeShieldSidewallShape,1
;   oozeShieldSidewallAngle,30
;   oozeShieldSpeedMultiplier,1
;   infillExtruder,0
;   internalInfillPattern,Triangular
;   externalInfillPattern,Rectilinear
;   infillPercentage,30
;   outlineOverlapPercentage,15
;   infillExtrusionWidthPercentage,150
;   minInfillLength,5
;   infillLayerInterval,1
;   internalInfillAngles,0,60,-60
;   overlapInternalInfillAngles,1
;   externalInfillAngles,45,-45
;   generateSupport,0
;   supportExtruder,0
;   supportInfillPercentage,40
;   supportExtraInflation,1
;   supportBaseLayers,0
;   denseSupportExtruder,0
;   denseSupportLayers,0
;   denseSupportInfillPercentage,70
;   supportLayerInterval,1
;   supportHorizontalPartOffset,1
;   supportUpperSeparationLayers,1
;   supportLowerSeparationLayers,1
;   supportType,0
;   supportGridSpacing,4
;   maxOverhangAngle,45
;   supportAngles,0
;   temperatureName,Primary Extruder
;   temperatureNumber,0
;   temperatureSetpointCount,2
;   temperatureSetpointLayers,1,5
;   temperatureSetpointTemperatures,220,210
;   temperatureStabilizeAtStartup,1
;   temperatureHeatedBed,0
;   fanLayers,1,2
;   fanSpeeds,100,100
;   blipFanToFullPower,0
;   adjustSpeedForCooling,1
;   minSpeedLayerTime,7
;   minCoolingSpeedSlowdown,20
;   increaseFanForCooling,0
;   minFanLayerTime,45
;   maxCoolingFanSpeed,100
;   increaseFanForBridging,0
;   bridgingFanSpeed,100
;   use5D,1
;   relativeEdistances,0
;   allowEaxisZeroing,1
;   independentExtruderAxes,0
;   includeM10123,0
;   stickySupport,1
;   applyToolheadOffsets,0
;   gcodeXoffset,0
;   gcodeYoffset,0
;   gcodeZoffset,0
;   overrideMachineDefinition,0
;   machineTypeOverride,0
;   strokeXoverride,305
;   strokeYoverride,205
;   strokeZoverride,205
;   originOffsetXoverride,0
;   originOffsetYoverride,0
;   originOffsetZoverride,0
;   homeXdirOverride,-1
;   homeYdirOverride,-1
;   homeZdirOverride,-1
;   flipXoverride,1
;   flipYoverride,-1
;   flipZoverride,1
;   toolheadOffsets,0,0|0,0|0,0|0,0|0,0|0,0
;   overrideFirmwareConfiguration,1
;   firmwareTypeOverride,RepRap (Marlin/Repetier/Sprinter)
;   GPXconfigOverride,r2
;   baudRateOverride,115200
;   overridePrinterModels,1
;   printerModelsOverride
;   startingGcode,G28 ; home all axes,G1 Z 2 ; set height for prime line,G92 E0 ; zero extruder,G1 X150 E30 F400 ; prime line
;   layerChangeGcode,
;   retractionGcode,
;   toolChangeGcode,
;   endingGcode,G28 X0 ; home X axis,M104 S0 ; turn off extruder,M84 ; disable motors
;   exportFileFormat,gcode
;   celebration,0
;   celebrationSong,Random Song
;   postProcessing,
;   defaultSpeed,2400
;   outlineUnderspeed,0.5
;   solidInfillUnderspeed,0.8
;   supportUnderspeed,0.8
;   rapidXYspeed,2400
;   rapidZspeed,900
;   minBridgingArea,50
;   bridgingExtraInflation,0
;   bridgingExtrusionMultiplier,1
;   bridgingSpeedMultiplier,1
;   useFixedBridgingAngle,0
;   fixedBridgingAngle,0
;   applyBridgingToPerimeters,0
;   filamentDiameters,1.75|3|3|3|3|3
;   filamentPricesPerKg,46|46|46|46|46|46
;   filamentDensities,1.25|1.25|1.25|1.25|1.25|1.25
;   useMinPrintHeight,0
;   minPrintHeight,0
;   useMaxPrintHeight,0
;   maxPrintHeight,0
;   useDiaphragm,0
;   diaphragmLayerInterval,20
;   robustSlicing,1
;   mergeAllIntoSolid,0
;   onlyRetractWhenCrossingOutline,1
;   retractBetweenLayers,1
;   useRetractionMinTravel,1
;   retractionMinTravel,3
;   retractWhileWiping,0
;   onlyWipeOutlines,1
;   avoidCrossingOutline,1
;   maxMovementDetourFactor,3
;   toolChangeRetractionDistance,12
;   toolChangeExtraRestartDistance,-0.5
;   toolChangeRetractionSpeed,600
;   externalThinWallType,0
;   internalThinWallType,2
;   thinWallAllowedOverlapPercentage,10
;   singleExtrusionMinLength,1
;   singleExtrusionMinPrintingWidthPercentage,50
;   singleExtrusionMaxPrintingWidthPercentage,200
;   singleExtrusionEndpointExtension,0
;   horizontalSizeCompensation,0
G90
M82
M106 S255
M104 S220 T0
M109 S220 T0
G28 ; home all axes
G1 Z 2 ; set height for prime line
G92 E0 ; zero extruder
G1 X150 E30 F400 ; prime line
; process Process1
; layer 1, Z = 0.300
T0
G92 E0.0000
G1 E-5.0000 F3000
; feature skirt
; tool H0.300 W0.360
G1 Z0.300 F900
G1 X91.575 Y76.519 F2400
G1 E0.0000 F3000
G92 E0.0000
G1 X94.234 Y73.860 E0.1520 F1200
G1 X161.496 Y73.860 E2.8701
G1 X164.155 Y76.519 E3.0221
G1 X164.155 Y87.901 E3.4820
G1 X161.496 Y90.560 E3.6340
G1 X108.275 Y90.560 E5.7847
G1 X108.275 Y156.481 E8.4486
G1 X105.616 Y159.140 E8.6006
G1 X94.234 Y159.140 E9.0605
G1 X91.575 Y156.481 E9.2125
G1 X91.575 Y76.519 E12.4438
G1 X91.935 Y76.669 F2400
G92 E0.0000
G1 X94.384 Y74.220 E0.1399 F1200
G1 X161.346 Y74.220 E2.8460
G1 X163.795 Y76.669 E2.9859
G1 X163.795 Y87.751 E3.4338
G1 X161.346 Y90.200 E3.5737
G1 X107.915 Y90.200 E5.7329
G1 X107.915 Y156.331 E8.4054
G1 X105.466 Y158.780 E8.5453
G1 X94.384 Y158.780 E8.9932
G1 X91.935 Y156.331 E9.1331
G1 X91.935 Y76.669 E12.3524
G92 E0.0000
G1 E-5.0000 F3000
; feature inner perimeter
G1 X96.295 Y78.580 F2400
G1 X96.295 Y78.927
G1 X97.015 Y79.300
G1 E0.0000 F3000
G92 E0.0000
G1 X158.715 Y79.300 E2.4934 F900
G1 X158.715 Y85.120 E2.7286
G1 X102.835 Y85.120 E4.9867
G1 X102.835 Y153.700 E7.7581
G1 X97.015 Y153.700 E7.9933
G1 X97.015 Y79.300 E10.9999
G1 X96.655 Y78.940 F2400
G92 E0.0000
G1 X159.075 Y78.940 E2.5225 F900
G1 X159.075 Y85.480 E2.7867
G1 X103.195 Y85.480 E5.0449
G1 X103.195 Y154.060 E7.8163
G1 X96.655 Y154.060 E8.0806
G1 X96.655 Y78.940 E11.1163
; feature outer perimeter
G1 X96.295 Y78.580 F2400
G92 E0.0000
G1 X159.435 Y78.580 E2.5516 F600
G1 X159.435 Y85.840 E2.8449
G1 X103.555 Y85.840 E5.1031
G1 X103.555 Y154.420 E7.8745
G1 X96.295 Y154.420 E8.1679
G1 X96.295 Y78.580 E11.2327
; feature solid layer
G1 X158.300 Y79.606 F2400
G92 E0.0000
G1 X158.409 Y79.715 E0.0062 F960
G1 X158.409 Y80.224 E0.0268
G1 X157.791 Y79.606 E0.0621
G1 X157.282 Y79.606 E0.0827
G1 X158.409 Y80.733 E0.1471
G1 X158.409 Y81.242 E0.1676
G1 X156.773 Y79.606 E0.2611
G1 X156.264 Y79.606 E0.2817
G1 X158.409 Y81.751 E0.4043
G1 X158.409 Y82.260 E0.4249
G1 X155.755 Y79.606 E0.5766
G1 X155.246 Y79.606 E0.5971
G1 X158.409 Y82.769 E0.7779
G1 X158.409 Y83.278 E0.7985
G1 X154.737 Y79.606 E1.0084
G1 X154.227 Y79.606 E1.0290
G1 X158.409 Y83.788 E1.2679
G1 X158.409 Y84.297 E1.2885
G1 X153.718 Y79.606 E1.5566
G1 X153.209 Y79.606 E1.5772
G1 X158.409 Y84.806 E1.8743
G1 X158.409 Y84.814 E1.8747
G1 X157.908 Y84.814 E1.8949
G1 X152.700 Y79.606 E2.1925
G1 X152.191 Y79.606 E2.2131
G1 X157.399 Y84.814 E2.5108
G1 X156.890 Y84.814 E2.5313
G1 X151.682 Y79.606 E2.8290
G1 X151.173 Y79.606 E2.8495
G1 X156.381 Y84.814 E3.1472
G1 X155.872 Y84.814 E3.1677
G1 X150.664 Y79.606 E3.4654
G1 X150.154 Y79.606 E3.4860
G1 X155.362 Y84.814 E3.7836
G1 X154.853 Y84.814 E3.8042
G1 X149.645 Y79.606 E4.1018
G1 X149.136 Y79.606 E4.1224
G1 X154.344 Y84.814 E4.4200
G1 X153.835 Y84.814 E4.4406
G1 X148.627 Y79.606 E4.7382
G1 X148.118 Y79.606 E4.7588
G1 X153.326 Y84.814 E5.0564
G1 X152.817 Y84.814 E5.0770
G1 X147.609 Y79.606 E5.3747
G1 X147.100 Y79.606 E5.3952
G1 X152.308 Y84.814 E5.6929
G1 X151.799 Y84.814 E5.7134
G1 X146.591 Y79.606 E6.0111
G1 X146.082 Y79.606 E6.0316
G1 X151.290 Y84.814 E6.3293
G1 X150.780 Y84.814 E6.3499
G1 X145.572 Y79.606 E6.6475
G1 X145.063 Y79.606 E6.6681
G1 X150.271 Y84.814 E6.9657
G1 X149.762 Y84.814 E6.9863
G1 X144.554 Y79.606 E7.2839
G1 X144.045 Y79.606 E7.3045
G1 X149.253 Y84.814 E7.6021
G1 X148.744 Y84.814 E7.6227
G1 X143.536 Y79.606 E7.9203
G1 X143.027 Y79.606 E7.9409
G1 X148.235 Y84.814 E8.2386
G1 X147.726 Y84.814 E8.2591
G1 X142.518 Y79.606 E8.5568
G1 X142.009 Y79.606 E8.5773
G1 X147.217 Y84.814 E8.8750
G1 X146.707 Y84.814 E8.8955
G1 X141.499 Y79.606 E9.1932
G1 X140.990 Y79.606 E9.2138
G1 X146.198 Y84.814 E9.5114
G1 X145.689 Y84.814 E9.5320
G1 X140.481 Y79.606 E9.8296
G1 X139.972 Y79.606 E9.8502
G1 X145.180 Y84.814 E10.1478
G1 X144.671 Y84.814 E10.1684
G1 X139.463 Y79.606 E10.4660
G1 X138.954 Y79.606 E10.4866
G1 X144.162 Y84.814 E10.7842
G1 X143.653 Y84.814 E10.8048
G1 X138.445 Y79.606 E11.1024
G1 X137.936 Y79.606 E11.1230
G1 X143.144 Y84.814 E11.4207
G1 X142.635 Y84.814 E11.4412
G1 X137.427 Y79.606 E11.7389
G1 X136.917 Y79.606 E11.7594
G1 X142.125 Y84.814 E12.0571
G1 X141.616 Y84.814 E12.0777
G1 X136.408 Y79.606 E12.3753
G1 X135.899 Y79.606 E12.3959
G1 X141.107 Y84.814 E12.6935
G1 X140.598 Y84.814 E12.7141
G1 X135.390 Y79.606 E13.0117
G1 X134.881 Y79.606 E13.0323
G1 X140.089 Y84.814 E13.3299
G1 X139.580 Y84.814 E13.3505
G1 X134.372 Y79.606 E13.6481
G1 X133.863 Y79.606 E13.6687
G1 X139.071 Y84.814 E13.9663
G1 X138.562 Y84.814 E13.9869
G1 X133.354 Y79.606 E14.2846
G1 X132.844 Y79.606 E14.3051
G1 X138.052 Y84.814 E14.6028
G1 X137.543 Y84.814 E14.6233
G1 X132.335 Y79.606 E14.9210
G1 X131.826 Y79.606 E14.9416
G1 X137.034 Y84.814 E15.2392
G1 X136.525 Y84.814 E15.2598
G1 X131.317 Y79.606 E15.5574
G1 X130.808 Y79.606 E15.5780
G1 X136.016 Y84.814 E15.8756
G1 X135.507 Y84.814 E15.8962
G1 X130.299 Y79.606 E16.1938
G1 X129.790 Y79.606 E16.2144
G1 X134.998 Y84.814 E16.5120
G1 X134.489 Y84.814 E16.5326
G1 X129.281 Y79.606 E16.8302
G1 X128.772 Y79.606 E16.8508
G1 X133.980 Y84.814 E17.1485
G1 X133.470 Y84.814 E17.1690
G1 X128.262 Y79.606 E17.4667
G1 X127.753 Y79.606 E17.4872
G1 X132.961 Y84.814 E17.7849
G1 X132.452 Y84.814 E17.8054
G1 X127.244 Y79.606 E18.1031
G1 X126.735 Y79.606 E18.1237
G1 X131.943 Y84.814 E18.4213
G1 X131.434 Y84.814 E18.4419
G1 X126.226 Y79.606 E18.7395
G1 X125.717 Y79.606 E18.7601
G1 X130.925 Y84.814 E19.0577
G1 X130.416 Y84.814 E19.0783
G1 X125.208 Y79.606 E19.3759
G1 X124.699 Y79.606 E19.3965
G1 X129.907 Y84.814 E19.6941
G1 X129.397 Y84.814 E19.7147
G1 X124.189 Y79.606 E20.0123
G1 X123.680 Y79.606 E20.0329
G1 X128.888 Y84.814 E20.3306
G1 X128.379 Y84.814 E20.3511
G1 X123.171 Y79.606 E20.6488
G1 X122.662 Y79.606 E20.6693
G1 X127.870 Y84.814 E20.9670
G1 X127.361 Y84.814 E20.9876
G1 X122.153 Y79.606 E21.2852
G1 X121.644 Y79.606 E21.3058
G1 X126.852 Y84.814 E21.6034
G1 X126.343 Y84.814 E21.6240
G1 X121.135 Y79.606 E21.9216
G1 X120.626 Y79.606 E21.9422
G1 X125.834 Y84.814 E22.2398
G1 X125.325 Y84.814 E22.2604
G1 X120.117 Y79.606 E22.5580
G1 X119.607 Y79.606 E22.5786
G1 X124.815 Y84.814 E22.8762
G1 X124.306 Y84.814 E22.8968
G1 X119.098 Y79.606 E23.1944
G1 X118.589 Y79.606 E23.2150
G1 X123.797 Y84.814 E23.5127
G1 X123.288 Y84.814 E23.5332
G1 X118.080 Y79.606 E23.8309
G1 X117.571 Y79.606 E23.8514
G1 X122.779 Y84.814 E24.1491
G1 X122.270 Y84.814 E24.1697
G1 X117.062 Y79.606 E24.4673
G1 X116.553 Y79.606 E24.4879
G1 X121.761 Y84.814 E24.7855
G1 X121.252 Y84.814 E24.8061
G1 X116.044 Y79.606 E25.1037
G1 X115.535 Y79.606 E25.1243
G1 X120.743 Y84.814 E25.4219
G1 X120.233 Y84.814 E25.4425
G1 X115.025 Y79.606 E25.7401
G1 X114.516 Y79.606 E25.7607
G1 X119.724 Y84.814 E26.0583
G1 X119.215 Y84.814 E26.0789
G1 X114.007 Y79.606 E26.3766
G1 X113.498 Y79.606 E26.3971
G1 X118.706 Y84.814 E26.6948
G1 X118.197 Y84.814 E26.7153
G1 X112.989 Y79.606 E27.0130
G1 X112.480 Y79.606 E27.0335
G1 X117.688 Y84.814 E27.3312
G1 X117.179 Y84.814 E27.3518
G1 X111.971 Y79.606 E27.6494
G1 X111.462 Y79.606 E27.6700
G1 X116.670 Y84.814 E27.9676
G1 X116.160 Y84.814 E27.9882
G1 X110.952 Y79.606 E28.2858
G1 X110.443 Y79.606 E28.3064
G1 X115.651 Y84.814 E28.6040
G1 X115.142 Y84.814 E28.6246
G1 X109.934 Y79.606 E28.9222
G1 X109.425 Y79.606 E28.9428
G1 X114.633 Y84.814 E29.2404
G1 X114.124 Y84.814 E29.2610
G1 X108.916 Y79.606 E29.5587
G1 X108.407 Y79.606 E29.5792
G1 X113.615 Y84.814 E29.8769
G1 X113.106 Y84.814 E29.8974
G1 X107.898 Y79.606 E30.1951
G1 X107.389 Y79.606 E30.2156
G1 X112.597 Y84.814 E30.5133
G1 X112.088 Y84.814 E30.5339
G1 X106.880 Y79.606 E30.8315
G1 X106.370 Y79.606 E30.8521
G1 X111.578 Y84.814 E31.1497
G1 X111.069 Y84.814 E31.1703
G1 X105.861 Y79.606 E31.4679
G1 X105.352 Y79.606 E31.4885
G1 X110.560 Y84.814 E31.7861
G1 X110.051 Y84.814 E31.8067
G1 X104.843 Y79.606 E32.1043
G1 X104.334 Y79.606 E32.1249
G1 X109.542 Y84.814 E32.4225
G1 X109.033 Y84.814 E32.4431
G1 X103.825 Y79.606 E32.7408
G1 X103.316 Y79.606 E32.7613
G1 X108.524 Y84.814 E33.0590
G1 X108.015 Y84.814 E33.0795
G1 X102.807 Y79.606 E33.3772
G1 X102.297 Y79.606 E33.3978
G1 X107.505 Y84.814 E33.6954
G1 X106.996 Y84.814 E33.7160
G1 X101.788 Y79.606 E34.0136
G1 X101.279 Y79.606 E34.0342
G1 X106.487 Y84.814 E34.3318
G1 X105.978 Y84.814 E34.3524
G1 X100.770 Y79.606 E34.6500
G1 X100.261 Y79.606 E34.6706
G1 X105.469 Y84.814 E34.9682
G1 X104.960 Y84.814 E34.9888
G1 X99.752 Y79.606 E35.2864
G1 X99.243 Y79.606 E35.3070
G1 X104.451 Y84.814 E35.6046
G1 X103.942 Y84.814 E35.6252
G1 X98.734 Y79.606 E35.9229
G1 X98.225 Y79.606 E35.9434
G1 X103.433 Y84.814 E36.2411
G1 X102.923 Y84.814 E36.2616
G1 X97.715 Y79.606 E36.5593
G1 X97.321 Y79.606 E36.5752
G1 X97.321 Y79.721 E36.5799
G1 X102.529 Y84.929 E36.8775
G1 X102.529 Y85.438 E36.8981
G1 X97.321 Y80.230 E37.1957
G1 X97.321 Y80.739 E37.2163
G1 X102.529 Y85.947 E37.5139
G1 X102.529 Y86.456 E37.5345
G1 X97.321 Y81.248 E37.8321
G1 X97.321 Y81.757 E37.8527
G1 X102.529 Y86.965 E38.1503
G1 X102.529 Y87.474 E38.1709
G1 X97.321 Y82.266 E38.4685
G1 X97.321 Y82.775 E38.4891
G1 X102.529 Y87.983 E38.7868
G1 X102.529 Y88.493 E38.8073
G1 X97.321 Y83.285 E39.1050
G1 X97.321 Y83.794 E39.1255
G1 X102.529 Y89.002 E39.4232
G1 X102.529 Y89.511 E39.4437
G1 X97.321 Y84.303 E39.7414
G1 X97.321 Y84.812 E39.7620
G1 X102.529 Y90.020 E40.0596
G1 X102.529 Y90.529 E40.0802
G1 X97.321 Y85.321 E40.3778
G1 X97.321 Y85.830 E40.3984
G1 X102.529 Y91.038 E40.6960
G1 X102.529 Y91.547 E40.7166
G1 X97.321 Y86.339 E41.0142
G1 X97.321 Y86.848 E41.0348
G1 X102.529 Y92.056 E41.3324
G1 X102.529 Y92.565 E41.3530
G1 X97.321 Y87.357 E41.6506
G1 X97.321 Y87.867 E41.6712
G1 X102.529 Y93.075 E41.9689
G1 X102.529 Y93.584 E41.9894
G1 X97.321 Y88.376 E42.2871
G1 X97.321 Y88.885 E42.3076
G1 X102.529 Y94.093 E42.6053
G1 X102.529 Y94.602 E42.6258
G1 X97.321 Y89.394 E42.9235
G1 X97.321 Y89.903 E42.9441
G1 X102.529 Y95.111 E43.2417
G1 X102.529 Y95.620 E43.2623
G1 X97.321 Y90.412 E43.5599
G1 X97.321 Y90.921 E43.5805
G1 X102.529 Y96.129 E43.8781
G1 X102.529 Y96.638 E43.8987
G1 X97.321 Y91.430 E44.1963
G1 X97.321 Y91.940 E44.2169
G1 X102.529 Y97.148 E44.5145
G1 X102.529 Y97.657 E44.5351
G1 X97.321 Y92.449 E44.8327
G1 X97.321 Y92.958 E44.8533
G1 X102.529 Y98.166 E45.1510
G1 X102.529 Y98.675 E45.1715
G1 X97.321 Y93.467 E45.4692
G1 X97.321 Y93.976 E45.4897
G1 X102.529 Y99.184 E45.7874
G1 X102.529 Y99.693 E45.8080
G1 X97.321 Y94.485 E46.1056
G1 X97.321 Y94.994 E46.1262
G1 X102.529 Y100.202 E46.4238
G1 X102.529 Y100.711 E46.4444
